/* XPM */
static char * close_pressed_xpm[] = {
"38 48 6 1",
" 	c None",
".	c #01000000",
"+	c #000000",
"@	c #B2B2B2",
"#	c #FFFFFF",
"$	c #D8D8D8",
"                                      ",
"                                      ",
"                                      ",
"                                      ",
"    ..................................",
"    ..................................",
"    ..................................",
"    ..................................",
"    ..................................",
"    ..................................",
"    ..................................",
"    ..................................",
"    ++@@@@@@@@@@@@@@@@@@@@@@@@@@@@##..",
"    ++@@@@@@@@@@@@@@@@@@@@@@@@@@@@##..",
"    ++@@$$$$$$$$$$$$$$$$$$$$$$$$$$##..",
"    ++@@$$$$$$$$$$$$$$$$$$$$$$$$$$##..",
"    ++@@$$$$$$$$$$$$$$$$$$$$$$$$$$##..",
"    ++@@$$$$$$$$$$$$$$$$$$$$$$$$$$##..",
"    ++@@$$$$$$$$$$$$$$$$$$$$$$$$$$##..",
"    ++@@$$$$$$$$$$$$$$$$$$$$$$$$$$##..",
"    ++@@$$$$$$++++$$$$$$$$++++$$$$##..",
"    ++@@$$$$$$++++$$$$$$$$++++$$$$##..",
"    ++@@$$$$$$$$++++$$$$++++$$$$$$##..",
"    ++@@$$$$$$$$++++$$$$++++$$$$$$##..",
"    ++@@$$$$$$$$$$++++++++$$$$$$$$##..",
"    ++@@$$$$$$$$$$++++++++$$$$$$$$##..",
"    ++@@$$$$$$$$$$$$++++$$$$$$$$$$##..",
"    ++@@$$$$$$$$$$$$++++$$$$$$$$$$##..",
"    ++@@$$$$$$$$$$++++++++$$$$$$$$##..",
"    ++@@$$$$$$$$$$++++++++$$$$$$$$##..",
"    ++@@$$$$$$$$++++$$$$++++$$$$$$##..",
"    ++@@$$$$$$$$++++$$$$++++$$$$$$##..",
"    ++@@$$$$$$++++$$$$$$$$++++$$$$##..",
"    ++@@$$$$$$++++$$$$$$$$++++$$$$##..",
"    ++@@$$$$$$$$$$$$$$$$$$$$$$$$$$##..",
"    ++@@$$$$$$$$$$$$$$$$$$$$$$$$$$##..",
"    ++@@$$$$$$$$$$$$$$$$$$$$$$$$$$##..",
"    ++@@$$$$$$$$$$$$$$$$$$$$$$$$$$##..",
"    ++##############################..",
"    ++##############################..",
"                                      ",
"                                      ",
"                                      ",
"                                      ",
"                                      ",
"                                      ",
"                                      ",
"                                      "};
