/* XPM */
static char * close_inactive_xpm[] = {
"38 48 6 1",
" 	c None",
".	c #01000000",
"+	c #FFFFFF",
"@	c #000000",
"#	c #D8D8D8",
"$	c #B2B2B2",
"                                      ",
"                                      ",
"                                      ",
"                                      ",
"    ..................................",
"    ..................................",
"    ..................................",
"    ..................................",
"    ..................................",
"    ..................................",
"    ..................................",
"    ..................................",
"    ++++++++++++++++++++++++++++++@@..",
"    ++++++++++++++++++++++++++++++@@..",
"    ++##########################$$@@..",
"    ++##########################$$@@..",
"    ++##########################$$@@..",
"    ++##########################$$@@..",
"    ++######@@@@########@@@@####$$@@..",
"    ++######@@@@########@@@@####$$@@..",
"    ++########@@@@####@@@@######$$@@..",
"    ++########@@@@####@@@@######$$@@..",
"    ++##########@@@@@@@@########$$@@..",
"    ++##########@@@@@@@@########$$@@..",
"    ++############@@@@##########$$@@..",
"    ++############@@@@##########$$@@..",
"    ++##########@@@@@@@@########$$@@..",
"    ++##########@@@@@@@@########$$@@..",
"    ++########@@@@####@@@@######$$@@..",
"    ++########@@@@####@@@@######$$@@..",
"    ++######@@@@########@@@@####$$@@..",
"    ++######@@@@########@@@@####$$@@..",
"    ++##########################$$@@..",
"    ++##########################$$@@..",
"    ++##########################$$@@..",
"    ++##########################$$@@..",
"    ++$$$$$$$$$$$$$$$$$$$$$$$$$$$$@@..",
"    ++$$$$$$$$$$$$$$$$$$$$$$$$$$$$@@..",
"    @@@@@@@@@@@@@@@@@@@@@@@@@@@@@@@@..",
"    @@@@@@@@@@@@@@@@@@@@@@@@@@@@@@@@..",
"                                      ",
"                                      ",
"                                      ",
"                                      ",
"                                      ",
"                                      ",
"                                      ",
"                                      "};
