/* XPM */
static char * close_inactive_xpm[] = {
"40 48 7 1",
" 	c None",
".	c #D4D0C8",
"+	c #FFFFFF",
"@	c #393C39",
"#	c #D8D8D8",
"$	c #B2B2B2",
"%	c #000000",
"                                        ",
"                                        ",
"                                        ",
"                                        ",
"                                        ",
"                                        ",
"                                      ..",
"                                      ..",
"                                        ",
"                                        ",
"                                        ",
"                                        ",
"    ++++++++++++++++++++++++++++++@@    ",
"    ++++++++++++++++++++++++++++++@@    ",
"    ++##########################$$@@    ",
"    ++##########################$$@@    ",
"    ++##########################$$@@    ",
"    ++##########################$$@@    ",
"    ++######%%%%########%%%%####$$@@    ",
"    ++######%%%%########%%%%####$$@@    ",
"    ++########%%%%####%%%%######$$@@    ",
"    ++########%%%%####%%%%######$$@@    ",
"    ++##########%%%%%%%%########$$@@    ",
"    ++##########%%%%%%%%########$$@@    ",
"    ++############%%%%##########$$@@    ",
"    ++############%%%%##########$$@@    ",
"    ++##########%%%%%%%%########$$@@    ",
"    ++##########%%%%%%%%########$$@@    ",
"    ++########%%%%####%%%%######$$@@    ",
"    ++########%%%%####%%%%######$$@@    ",
"    ++######%%%%########%%%%####$$@@    ",
"    ++######%%%%########%%%%####$$@@    ",
"    ++##########################$$@@    ",
"    ++##########################$$@@    ",
"    ++##########################$$@@    ",
"    ++##########################$$@@    ",
"    ++$$$$$$$$$$$$$$$$$$$$$$$$$$$$@@    ",
"    ++$$$$$$$$$$$$$$$$$$$$$$$$$$$$@@    ",
"    @@@@@@@@@@@@@@@@@@@@@@@@@@@@@@@@    ",
"    @@@@@@@@@@@@@@@@@@@@@@@@@@@@@@@@    ",
"                                        ",
"                                        ",
"                                        ",
"                                        ",
"                                        ",
"                                        ",
"                                        ",
"                                        "};
