/* XPM */
static char * close_pressed_xpm[] = {
"40 48 7 1",
" 	c None",
".	c #D4D0C8",
"+	c #393C39",
"@	c #FFFFFF",
"#	c #B2B2B2",
"$	c #D8D8D8",
"%	c #000000",
"                                        ",
"                                        ",
"                                        ",
"                                        ",
"                                        ",
"                                        ",
"                                      ..",
"                                      ..",
"                                        ",
"                                        ",
"                                        ",
"                                        ",
"    ++++++++++++++++++++++++++++++@@    ",
"    ++++++++++++++++++++++++++++++@@    ",
"    ++##########################$$@@    ",
"    ++##########################$$@@    ",
"    ++##$$$$$$$$$$$$$$$$$$$$$$$$$$@@    ",
"    ++##$$$$$$$$$$$$$$$$$$$$$$$$$$@@    ",
"    ++##$$$$$$$$$$$$$$$$$$$$$$$$$$@@    ",
"    ++##$$$$$$$$$$$$$$$$$$$$$$$$$$@@    ",
"    ++##$$$$$$%%%%$$$$$$$$%%%%$$$$@@    ",
"    ++##$$$$$$%%%%$$$$$$$$%%%%$$$$@@    ",
"    ++##$$$$$$$$%%%%$$$$%%%%$$$$$$@@    ",
"    ++##$$$$$$$$%%%%$$$$%%%%$$$$$$@@    ",
"    ++##$$$$$$$$$$%%%%%%%%$$$$$$$$@@    ",
"    ++##$$$$$$$$$$%%%%%%%%$$$$$$$$@@    ",
"    ++##$$$$$$$$$$$$%%%%$$$$$$$$$$@@    ",
"    ++##$$$$$$$$$$$$%%%%$$$$$$$$$$@@    ",
"    ++##$$$$$$$$$$%%%%%%%%$$$$$$$$@@    ",
"    ++##$$$$$$$$$$%%%%%%%%$$$$$$$$@@    ",
"    ++##$$$$$$$$%%%%$$$$%%%%$$$$$$@@    ",
"    ++##$$$$$$$$%%%%$$$$%%%%$$$$$$@@    ",
"    ++##$$$$$$%%%%$$$$$$$$%%%%$$$$@@    ",
"    ++##$$$$$$%%%%$$$$$$$$%%%%$$$$@@    ",
"    ++##$$$$$$$$$$$$$$$$$$$$$$$$$$@@    ",
"    ++##$$$$$$$$$$$$$$$$$$$$$$$$$$@@    ",
"    ++$$$$$$$$$$$$$$$$$$$$$$$$$$$$@@    ",
"    ++$$$$$$$$$$$$$$$$$$$$$$$$$$$$@@    ",
"    ++@@@@@@@@@@@@@@@@@@@@@@@@@@@@@@    ",
"    ++@@@@@@@@@@@@@@@@@@@@@@@@@@@@@@    ",
"                                        ",
"                                        ",
"                                        ",
"                                        ",
"                                        ",
"                                        ",
"                                        ",
"                                        "};
