/* XPM */
static char * close_active_xpm[] = {
"40 48 7 1",
" 	c None",
".	c None",
"+	c #FFFFFF s active_hilight_2",
"@	c #393C39 s active_border_color",
"#	c #D8D8D8 s active_color_2",
"$	c #B2B2B2 s active_shadow_2",
"%	c #000000 s buttons_color",
"                                        ",
"                                        ",
"                                        ",
"                                        ",
"                                        ",
"                                        ",
"                                      ##",
"                                      ##",
"                                        ",
"                                        ",
"                                        ",
"                                        ",
"    ++++++++++++++++++++++++++++++@@    ",
"    ++++++++++++++++++++++++++++++@@    ",
"    ++##########################$$@@    ",
"    ++##########################$$@@    ",
"    ++##########################$$@@    ",
"    ++##########################$$@@    ",
"    ++######%%%%########%%%%####$$@@    ",
"    ++######%%%%########%%%%####$$@@    ",
"    ++########%%%%####%%%%######$$@@    ",
"    ++########%%%%####%%%%######$$@@    ",
"    ++##########%%%%%%%%########$$@@    ",
"    ++##########%%%%%%%%########$$@@    ",
"    ++############%%%%##########$$@@    ",
"    ++############%%%%##########$$@@    ",
"    ++##########%%%%%%%%########$$@@    ",
"    ++##########%%%%%%%%########$$@@    ",
"    ++########%%%%####%%%%######$$@@    ",
"    ++########%%%%####%%%%######$$@@    ",
"    ++######%%%%########%%%%####$$@@    ",
"    ++######%%%%########%%%%####$$@@    ",
"    ++##########################$$@@    ",
"    ++##########################$$@@    ",
"    ++##########################$$@@    ",
"    ++##########################$$@@    ",
"    ++$$$$$$$$$$$$$$$$$$$$$$$$$$$$@@    ",
"    ++$$$$$$$$$$$$$$$$$$$$$$$$$$$$@@    ",
"    @@@@@@@@@@@@@@@@@@@@@@@@@@@@@@@@    ",
"    @@@@@@@@@@@@@@@@@@@@@@@@@@@@@@@@    ",
"                                        ",
"                                        ",
"                                        ",
"                                        ",
"                                        ",
"                                        ",
"                                        ",
"                                        "};
