/* XPM */
static char * title_active_stretch_xpm[] = {
"1024 48 397 2",
"  	c #D4D0C8 s active_color_2",
". 	c #FFFFFF s active_hilight_2",
"+ 	c #0A246A",
"@ 	c #0B256B",
"# 	c #0C266B",
"$ 	c #0C266C",
"% 	c #0C276C",
"& 	c #0D276C",
"* 	c #0D276D",
"= 	c #0D286D",
"- 	c #0E286D",
"; 	c #0E286E",
"> 	c #0E296E",
", 	c #0F296E",
"' 	c #0F2A6E",
") 	c #0F2A6F",
"! 	c #102A6F",
"~ 	c #102B6F",
"{ 	c #102B70",
"] 	c #112B70",
"^ 	c #112C70",
"/ 	c #122C71",
"( 	c #122D71",
"_ 	c #132D71",
": 	c #132D72",
"< 	c #132E72",
"[ 	c #142E72",
"} 	c #142F73",
"| 	c #152F73",
"1 	c #153073",
"2 	c #153074",
"3 	c #163074",
"4 	c #163174",
"5 	c #163175",
"6 	c #173175",
"7 	c #173275",
"8 	c #173276",
"9 	c #183276",
"0 	c #183376",
"a 	c #193477",
"b 	c #1A3577",
"c 	c #1A3578",
"d 	c #1A3678",
"e 	c #1B3678",
"f 	c #1B3679",
"g 	c #1C3779",
"h 	c #1C377A",
"i 	c #1C387A",
"j 	c #1D387A",
"k 	c #1D387B",
"l 	c #1D397B",
"m 	c #1E397B",
"n 	c #1E3A7B",
"o 	c #1E3A7C",
"p 	c #1F3A7C",
"q 	c #1F3B7C",
"r 	c #203B7C",
"s 	c #203B7D",
"t 	c #203C7D",
"u 	c #213C7D",
"v 	c #213C7E",
"w 	c #213D7E",
"x 	c #223D7E",
"y 	c #223D7F",
"z 	c #223E7F",
"A 	c #233E7F",
"B 	c #233F7F",
"C 	c #233F80",
"D 	c #243F80",
"E 	c #244080",
"F 	c #244081",
"G 	c #254081",
"H 	c #254181",
"I 	c #254182",
"J 	c #264182",
"K 	c #264282",
"L 	c #274282",
"M 	c #274383",
"N 	c #284383",
"O 	c #284484",
"P 	c #294584",
"Q 	c #294585",
"R 	c #2A4685",
"S 	c #2A4686",
"T 	c #2A4786",
"U 	c #2B4786",
"V 	c #2B4787",
"W 	c #2B4887",
"X 	c #2C4887",
"Y 	c #2C4987",
"Z 	c #2C4988",
"` 	c #2D4988",
" .	c #2D4A88",
"..	c #2E4A89",
"+.	c #2E4B89",
"@.	c #2F4B89",
"#.	c #2F4B8A",
"$.	c #2F4C8A",
"%.	c #304C8A",
"&.	c #304C8B",
"*.	c #304D8B",
"=.	c #314D8B",
"-.	c #314E8C",
";.	c #324E8C",
">.	c #324F8C",
",.	c #324F8D",
"'.	c #334F8D",
").	c #33508D",
"!.	c #33508E",
"~.	c #34508E",
"{.	c #34518E",
"].	c #35518F",
"^.	c #35528F",
"/.	c #36528F",
"(.	c #365390",
"_.	c #375390",
":.	c #375490",
"<.	c #375491",
"[.	c #385591",
"}.	c #385592",
"|.	c #395592",
"1.	c #395692",
"2.	c #395693",
"3.	c #3A5793",
"4.	c #3A5794",
"5.	c #3A5894",
"6.	c #3B5894",
"7.	c #3B5994",
"8.	c #3C5995",
"9.	c #3C5A95",
"0.	c #3D5A95",
"a.	c #3D5A96",
"b.	c #3D5B96",
"c.	c #3E5B96",
"d.	c #3E5B97",
"e.	c #3E5C97",
"f.	c #3F5C97",
"g.	c #3F5C98",
"h.	c #3F5D98",
"i.	c #405D98",
"j.	c #405E99",
"k.	c #415E99",
"l.	c #415F99",
"m.	c #415F9A",
"n.	c #425F9A",
"o.	c #42609A",
"p.	c #43609B",
"q.	c #43619B",
"r.	c #44619C",
"s.	c #44629C",
"t.	c #45629C",
"u.	c #45639D",
"v.	c #46639D",
"w.	c #46649D",
"x.	c #46649E",
"y.	c #47649E",
"z.	c #47659E",
"A.	c #47659F",
"B.	c #48669F",
"C.	c #4866A0",
"D.	c #4967A0",
"E.	c #4968A0",
"F.	c #4A68A1",
"G.	c #4B69A1",
"H.	c #4B69A2",
"I.	c #4B6AA2",
"J.	c #4C6AA2",
"K.	c #4C6AA3",
"L.	c #4C6BA3",
"M.	c #4D6BA3",
"N.	c #4D6BA4",
"O.	c #4D6CA4",
"P.	c #4E6CA4",
"Q.	c #4E6DA5",
"R.	c #4F6DA5",
"S.	c #4F6EA5",
"T.	c #4F6EA6",
"U.	c #506EA6",
"V.	c #506FA6",
"W.	c #506FA7",
"X.	c #516FA7",
"Y.	c #5170A7",
"Z.	c #5270A7",
"`.	c #5270A8",
" +	c #5271A8",
".+	c #5371A8",
"++	c #5372A9",
"@+	c #5472A9",
"#+	c #5473A9",
"$+	c #5473AA",
"%+	c #5573AA",
"&+	c #5574AA",
"*+	c #5574AB",
"=+	c #5674AB",
"-+	c #5675AB",
";+	c #5675AC",
">+	c #5775AC",
",+	c #5776AC",
"'+	c #5776AD",
")+	c #5877AD",
"!+	c #5978AD",
"~+	c #5978AE",
"{+	c #5979AE",
"]+	c #5A79AE",
"^+	c #5A79AF",
"/+	c #5A7AAF",
"(+	c #5B7AAF",
"_+	c #5B7AB0",
":+	c #5B7BB0",
"<+	c #5C7BB0",
"[+	c #5C7BB1",
"}+	c #5C7CB1",
"|+	c #5D7CB1",
"1+	c #5D7DB2",
"2+	c #5E7DB2",
"3+	c #5E7EB2",
"4+	c #5E7EB3",
"5+	c #5F7EB3",
"6+	c #5F7FB3",
"7+	c #607FB3",
"8+	c #607FB4",
"9+	c #6080B4",
"0+	c #6180B4",
"a+	c #6180B5",
"b+	c #6181B5",
"c+	c #6281B5",
"d+	c #6282B6",
"e+	c #6382B6",
"f+	c #6383B6",
"g+	c #6383B7",
"h+	c #6483B7",
"i+	c #6484B7",
"j+	c #6484B8",
"k+	c #6584B8",
"l+	c #6585B8",
"m+	c #6585B9",
"n+	c #6686B9",
"o+	c #6786BA",
"p+	c #6787BA",
"q+	c #6888BA",
"r+	c #6888BB",
"s+	c #6989BB",
"t+	c #6989BC",
"u+	c #698ABC",
"v+	c #6A8ABC",
"w+	c #6A8ABD",
"x+	c #6A8BBD",
"y+	c #6B8BBD",
"z+	c #6B8CBE",
"A+	c #6C8CBE",
"B+	c #6C8DBE",
"C+	c #6D8DBF",
"D+	c #6D8EBF",
"E+	c #6E8EC0",
"F+	c #6E8FC0",
"G+	c #6F8FC0",
"H+	c #6F8FC1",
"I+	c #6F90C1",
"J+	c #7090C1",
"K+	c #7091C2",
"L+	c #7191C2",
"M+	c #7192C2",
"N+	c #7192C3",
"O+	c #7292C3",
"P+	c #7293C3",
"Q+	c #7293C4",
"R+	c #7393C4",
"S+	c #7394C4",
"T+	c #7394C5",
"U+	c #7494C5",
"V+	c #7495C5",
"W+	c #7595C6",
"X+	c #7596C6",
"Y+	c #7696C6",
"Z+	c #7697C6",
"`+	c #7697C7",
" @	c #7798C7",
".@	c #7798C8",
"+@	c #7799C8",
"@@	c #7899C8",
"#@	c #7899C9",
"$@	c #799AC9",
"%@	c #799ACA",
"&@	c #799BCA",
"*@	c #7A9BCA",
"=@	c #7A9CCB",
"-@	c #7B9CCB",
";@	c #7B9DCB",
">@	c #7C9DCC",
",@	c #7C9ECC",
"'@	c #7D9ECC",
")@	c #7D9ECD",
"!@	c #7D9FCD",
"~@	c #7E9FCD",
"{@	c #7E9FCE",
"]@	c #7EA0CE",
"^@	c #7FA0CE",
"/@	c #7FA1CF",
"(@	c #80A1CF",
"_@	c #80A2CF",
":@	c #80A2D0",
"<@	c #81A2D0",
"[@	c #81A3D0",
"}@	c #81A3D1",
"|@	c #82A3D1",
"1@	c #82A4D1",
"2@	c #83A4D2",
"3@	c #83A5D2",
"4@	c #84A5D2",
"5@	c #84A5D3",
"6@	c #84A6D3",
"7@	c #85A6D3",
"8@	c #85A7D3",
"9@	c #85A7D4",
"0@	c #86A7D4",
"a@	c #86A8D4",
"b@	c #86A8D5",
"c@	c #87A9D5",
"d@	c #87A9D6",
"e@	c #88AAD6",
"f@	c #88ABD7",
"g@	c #89ABD7",
"h@	c #89ACD8",
"i@	c #8AACD8",
"j@	c #8AADD8",
"k@	c #8BADD8",
"l@	c #8BADD9",
"m@	c #8BAED9",
"n@	c #8CAED9",
"o@	c #8CAEDA",
"p@	c #8CAFDA",
"q@	c #8DAFDA",
"r@	c #8DAFDB",
"s@	c #8DB0DB",
"t@	c #8EB0DB",
"u@	c #8EB1DB",
"v@	c #8EB1DC",
"w@	c #8FB1DC",
"x@	c #8FB2DC",
"y@	c #8FB2DD",
"z@	c #90B2DD",
"A@	c #90B3DD",
"B@	c #90B3DE",
"C@	c #91B3DE",
"D@	c #91B4DE",
"E@	c #92B4DE",
"F@	c #92B4DF",
"G@	c #92B5DF",
"H@	c #93B5DF",
"I@	c #93B6DF",
"J@	c #93B6E0",
"K@	c #94B6E0",
"L@	c #94B7E0",
"M@	c #94B7E1",
"N@	c #95B8E1",
"O@	c #95B8E2",
"P@	c #96B8E2",
"Q@	c #96B9E2",
"R@	c #96B9E3",
"S@	c #97BAE3",
"T@	c #98BBE4",
"U@	c #98BCE4",
"V@	c #99BCE4",
"W@	c #99BCE5",
"X@	c #99BDE5",
"Y@	c #9ABDE5",
"Z@	c #9ABDE6",
"`@	c #9ABEE6",
" #	c #9BBEE6",
".#	c #9BBEE7",
"+#	c #9BBFE7",
"@#	c #9CBFE7",
"##	c #9CC0E8",
"$#	c #9DC0E8",
"%#	c #9DC1E8",
"&#	c #9DC1E9",
"*#	c #9EC1E9",
"=#	c #9EC2E9",
"-#	c #9FC2EA",
";#	c #9FC3EA",
">#	c #A0C3EA",
",#	c #A0C3EB",
"'#	c #A0C4EB",
")#	c #A1C4EB",
"!#	c #A1C4EC",
"~#	c #A1C5EC",
"{#	c #A2C5EC",
"]#	c #A2C6EC",
"^#	c #A2C6ED",
"/#	c #A3C6ED",
"(#	c #A3C7ED",
"_#	c #A3C7EE",
":#	c #A4C7EE",
"<#	c #A4C8EE",
"[#	c #A4C8EF",
"}#	c #A5C9EF",
"|#	c #A6CAF0",
"                                                                                                                                                                                                                                                                                                                                                                                                                                                                                                                                                                                                                                                                                                                                                                                                                                                                                                                                                                                                                                                                                                                                                                                                                                                                                                                                                                                                                                                                                                                                                                                                                                                                                                                                                                                                                                                                                                                                                                                                                                                                                                                                ",
"                                                                                                                                                                                                                                                                                                                                                                                                                                                                                                                                                                                                                                                                                                                                                                                                                                                                                                                                                                                                                                                                                                                                                                                                                                                                                                                                                                                                                                                                                                                                                                                                                                                                                                                                                                                                                                                                                                                                                                                                                                                                                                                                ",
". . . . . . . . . . . . . . . . . . . . . . . . . . . . . . . . . . . . . . . . . . . . . . . . . . . . . . . . . . . . . . . . . . . . . . . . . . . . . . . . . . . . . . . . . . . . . . . . . . . . . . . . . . . . . . . . . . . . . . . . . . . . . . . . . . . . . . . . . . . . . . . . . . . . . . . . . . . . . . . . . . . . . . . . . . . . . . . . . . . . . . . . . . . . . . . . . . . . . . . . . . . . . . . . . . . . . . . . . . . . . . . . . . . . . . . . . . . . . . . . . . . . . . . . . . . . . . . . . . . . . . . . . . . . . . . . . . . . . . . . . . . . . . . . . . . . . . . . . . . . . . . . . . . . . . . . . . . . . . . . . . . . . . . . . . . . . . . . . . . . . . . . . . . . . . . . . . . . . . . . . . . . . . . . . . . . . . . . . . . . . . . . . . . . . . . . . . . . . . . . . . . . . . . . . . . . . . . . . . . . . . . . . . . . . . . . . . . . . . . . . . . . . . . . . . . . . . . . . . . . . . . . . . . . . . . . . . . . . . . . . . . . . . . . . . . . . . . . . . . . . . . . . . . . . . . . . . . . . . . . . . . . . . . . . . . . . . . . . . . . . . . . . . . . . . . . . . . . . . . . . . . . . . . . . . . . . . . . . . . . . . . . . . . . . . . . . . . . . . . . . . . . . . . . . . . . . . . . . . . . . . . . . . . . . . . . . . . . . . . . . . . . . . . . . . . . . . . . . . . . . . . . . . . . . . . . . . . . . . . . . . . . . . . . . . . . . . . . . . . . . . . . . . . . . . . . . . . . . . . . . . . . . . . . . . . . . . . . . . . . . . . . . . . . . . . . . . . . . . . . . . . . . . . . . . . . . . . . . . . . . . . . . . . . . . . . . . . . . . . . . . . . . . . . . . . . . . . . . . . . . . . . . . . . . . . . . . . . . . . . . . . . . . . . . . . . . . . . . . . . . . . . . . . . . . . . . . . . . . . . . . . . . . . . . . . . . . . . . . . . . . . . . . . . . . . . . . . . . . . . . . . . . . . . . . . . . . . . . . . . . . . . . . . . . . . . . . . . . . . . . . . . . . . . . . . . . . . . . . . . . . . . . . . . . . . . . . . . . . . . . . . . . . . . . . . . . . . . . . . . . . . . ",
". . . . . . . . . . . . . . . . . . . . . . . . . . . . . . . . . . . . . . . . . . . . . . . . . . . . . . . . . . . . . . . . . . . . . . . . . . . . . . . . . . . . . . . . . . . . . . . . . . . . . . . . . . . . . . . . . . . . . . . . . . . . . . . . . . . . . . . . . . . . . . . . . . . . . . . . . . . . . . . . . . . . . . . . . . . . . . . . . . . . . . . . . . . . . . . . . . . . . . . . . . . . . . . . . . . . . . . . . . . . . . . . . . . . . . . . . . . . . . . . . . . . . . . . . . . . . . . . . . . . . . . . . . . . . . . . . . . . . . . . . . . . . . . . . . . . . . . . . . . . . . . . . . . . . . . . . . . . . . . . . . . . . . . . . . . . . . . . . . . . . . . . . . . . . . . . . . . . . . . . . . . . . . . . . . . . . . . . . . . . . . . . . . . . . . . . . . . . . . . . . . . . . . . . . . . . . . . . . . . . . . . . . . . . . . . . . . . . . . . . . . . . . . . . . . . . . . . . . . . . . . . . . . . . . . . . . . . . . . . . . . . . . . . . . . . . . . . . . . . . . . . . . . . . . . . . . . . . . . . . . . . . . . . . . . . . . . . . . . . . . . . . . . . . . . . . . . . . . . . . . . . . . . . . . . . . . . . . . . . . . . . . . . . . . . . . . . . . . . . . . . . . . . . . . . . . . . . . . . . . . . . . . . . . . . . . . . . . . . . . . . . . . . . . . . . . . . . . . . . . . . . . . . . . . . . . . . . . . . . . . . . . . . . . . . . . . . . . . . . . . . . . . . . . . . . . . . . . . . . . . . . . . . . . . . . . . . . . . . . . . . . . . . . . . . . . . . . . . . . . . . . . . . . . . . . . . . . . . . . . . . . . . . . . . . . . . . . . . . . . . . . . . . . . . . . . . . . . . . . . . . . . . . . . . . . . . . . . . . . . . . . . . . . . . . . . . . . . . . . . . . . . . . . . . . . . . . . . . . . . . . . . . . . . . . . . . . . . . . . . . . . . . . . . . . . . . . . . . . . . . . . . . . . . . . . . . . . . . . . . . . . . . . . . . . . . . . . . . . . . . . . . . . . . . . . . . . . . . . . . . . . . . . . . . . . . . . . . . . . . . . . . . . . . . . . . . . . . . . . . . . . . ",
"                                                                                                                                                                                                                                                                                                                                                                                                                                                                                                                                                                                                                                                                                                                                                                                                                                                                                                                                                                                                                                                                                                                                                                                                                                                                                                                                                                                                                                                                                                                                                                                                                                                                                                                                                                                                                                                                                                                                                                                                                                                                                                                                ",
"                                                                                                                                                                                                                                                                                                                                                                                                                                                                                                                                                                                                                                                                                                                                                                                                                                                                                                                                                                                                                                                                                                                                                                                                                                                                                                                                                                                                                                                                                                                                                                                                                                                                                                                                                                                                                                                                                                                                                                                                                                                                                                                                ",
"                                                                                                                                                                                                                                                                                                                                                                                                                                                                                                                                                                                                                                                                                                                                                                                                                                                                                                                                                                                                                                                                                                                                                                                                                                                                                                                                                                                                                                                                                                                                                                                                                                                                                                                                                                                                                                                                                                                                                                                                                                                                                                                                ",
"                                                                                                                                                                                                                                                                                                                                                                                                                                                                                                                                                                                                                                                                                                                                                                                                                                                                                                                                                                                                                                                                                                                                                                                                                                                                                                                                                                                                                                                                                                                                                                                                                                                                                                                                                                                                                                                                                                                                                                                                                                                                                                                                ",
"+ + + + @ @ @ @ @ @ # # $ $ $ $ % & & & * * = - - - - ; > > , , , , ' ) ) ! ! ! ! ~ { ] ] ] ] ^ ^ ^ / / / ( ( ( _ _ : < < < < [ [ } } } } | | 1 1 2 2 2 3 3 4 4 4 5 6 6 7 7 7 7 8 9 0 0 0 0 0 0 a a a a a a b b c c c c d e e f f f f g g g g h h i j j j j k l m m m m m n o p p p p q q r s s s t t t u v v w w w w x x y z z z A A A B C C C D D E E F F G G H H H H I J K K K K K L M M M M M M N O O O O O O P P Q Q Q Q R R R S S S T U U U U V W X X X X X Y Z ` ` ` ` `  ...........+.+.@.#.#.#.$.$.%.%.%.&.*.*.*.=.=.=.-.-.-.-.;.;.>.>.,.,.'.'.'.).).).!.~.~.{.{.{.{.].].^.^.^.^.^./.(.(.(.(.(._.:.<.<.<.<.<.[.[.[.}.}.}.|.1.1.1.1.2.2.3.3.3.3.3.4.5.6.6.6.6.6.7.8.8.8.8.8.9.9.0.a.a.a.b.b.c.c.d.d.d.e.e.f.f.f.g.h.h.i.i.i.i.j.j.j.k.k.k.l.l.m.n.n.n.o.o.o.o.p.p.q.q.q.q.q.r.r.s.s.s.s.t.t.u.u.u.u.u.v.w.w.x.x.x.y.z.z.z.A.A.A.B.B.B.B.B.C.D.D.D.D.D.D.E.F.F.F.F.F.F.G.H.H.H.H.H.I.J.J.K.K.K.L.L.M.M.N.N.O.O.P.P.P.P.Q.Q.Q.R.R.R.S.S.T.U.U.U.U.V.V.W.X.X.X.Y.Y.Y.Z.`.`. + + + +.+.+++++++++@+@+#+$+$+$+$+%+&+&+&+*+*+*+=+-+-+-+-+;+>+,+,+,+,+,+'+)+)+)+)+)+)+!+~+~+~+~+~+{+]+^+^+^+^+/+(+(+(+_+_+_+:+<+<+<+<+[+}+}+|+|+|+|+1+1+2+2+2+2+3+3+4+5+5+5+6+6+6+7+8+8+9+9+9+9+0+a+a+b+b+b+c+c+c+d+d+d+d+e+e+f+f+g+g+h+h+i+i+i+j+j+k+l+l+l+l+l+m+n+n+n+n+n+n+o+p+p+p+p+p+p+q+r+r+r+r+r+s+s+s+t+t+t+u+v+v+v+w+w+x+y+y+y+y+y+z+z+A+A+A+A+B+B+C+C+C+C+C+D+D+E+E+E+E+F+F+F+G+H+H+I+I+I+J+J+J+K+K+K+K+L+L+M+N+N+N+O+O+P+P+P+Q+Q+R+R+S+S+S+T+U+U+V+V+V+V+V+W+X+X+X+X+X+Y+Z+`+`+`+`+`+ @ @.@.@.@.@+@@@@@@@#@#@#@$@$@$@$@$@%@&@*@*@*@*@*@=@-@-@-@-@-@;@;@>@>@>@>@,@,@'@)@)@)@!@!@!@~@~@{@{@]@]@^@^@^@^@/@/@/@(@(@(@_@:@:@:@<@<@[@[@[@}@|@|@1@1@1@1@1@2@3@3@3@3@3@4@5@6@6@6@6@6@7@8@9@9@9@9@0@a@a@a@b@b@b@c@c@c@c@d@d@e@e@e@e@e@e@f@g@g@g@g@g@g@h@i@i@i@i@i@j@k@l@l@l@l@m@m@n@n@o@o@p@p@q@q@q@r@s@s@s@t@t@t@u@v@v@w@w@w@w@x@x@y@z@z@z@A@A@A@B@C@C@D@D@D@D@E@F@G@G@G@G@G@H@I@J@J@J@J@K@L@L@M@M@M@M@N@N@N@N@O@O@P@Q@Q@Q@Q@R@R@S@S@S@S@S@S@T@T@T@T@T@T@U@V@W@W@W@W@X@X@Y@Z@Z@Z@`@`@ # # #.#.#+#+#@#@#@#@#####$#$#$#$#%#&#&#*#*#*#=#=#=#-#-#-#;#;#;#;#>#,#'#'#'#'#)#)#!#~#~#~#~#{#{#]#^#^#^#^#/#(#(#_#_#_#:#<#<#<#<#[#[#}#}#}#}#}#}#|#|#|#|#",
"+ + + + @ @ @ @ @ @ # # $ $ $ $ % & & & * * = - - - - ; > > , , , , ' ) ) ! ! ! ! ~ { ] ] ] ] ^ ^ ^ / / / ( ( ( _ _ : < < < < [ [ } } } } | | 1 1 2 2 2 3 3 4 4 4 5 6 6 7 7 7 7 8 9 0 0 0 0 0 0 a a a a a a b b c c c c d e e f f f f g g g g h h i j j j j k l m m m m m n o p p p p q q r s s s t t t u v v w w w w x x y z z z A A A B C C C D D E E F F G G H H H H I J K K K K K L M M M M M M N O O O O O O P P Q Q Q Q R R R S S S T U U U U V W X X X X X Y Z ` ` ` ` `  ...........+.+.@.#.#.#.$.$.%.%.%.&.*.*.*.=.=.=.-.-.-.-.;.;.>.>.,.,.'.'.'.).).).!.~.~.{.{.{.{.].].^.^.^.^.^./.(.(.(.(.(._.:.<.<.<.<.<.[.[.[.}.}.}.|.1.1.1.1.2.2.3.3.3.3.3.4.5.6.6.6.6.6.7.8.8.8.8.8.9.9.0.a.a.a.b.b.c.c.d.d.d.e.e.f.f.f.g.h.h.i.i.i.i.j.j.j.k.k.k.l.l.m.n.n.n.o.o.o.o.p.p.q.q.q.q.q.r.r.s.s.s.s.t.t.u.u.u.u.u.v.w.w.x.x.x.y.z.z.z.A.A.A.B.B.B.B.B.C.D.D.D.D.D.D.E.F.F.F.F.F.F.G.H.H.H.H.H.I.J.J.K.K.K.L.L.M.M.N.N.O.O.P.P.P.P.Q.Q.Q.R.R.R.S.S.T.U.U.U.U.V.V.W.X.X.X.Y.Y.Y.Z.`.`. + + + +.+.+++++++++@+@+#+$+$+$+$+%+&+&+&+*+*+*+=+-+-+-+-+;+>+,+,+,+,+,+'+)+)+)+)+)+)+!+~+~+~+~+~+{+]+^+^+^+^+/+(+(+(+_+_+_+:+<+<+<+<+[+}+}+|+|+|+|+1+1+2+2+2+2+3+3+4+5+5+5+6+6+6+7+8+8+9+9+9+9+0+a+a+b+b+b+c+c+c+d+d+d+d+e+e+f+f+g+g+h+h+i+i+i+j+j+k+l+l+l+l+l+m+n+n+n+n+n+n+o+p+p+p+p+p+p+q+r+r+r+r+r+s+s+s+t+t+t+u+v+v+v+w+w+x+y+y+y+y+y+z+z+A+A+A+A+B+B+C+C+C+C+C+D+D+E+E+E+E+F+F+F+G+H+H+I+I+I+J+J+J+K+K+K+K+L+L+M+N+N+N+O+O+P+P+P+Q+Q+R+R+S+S+S+T+U+U+V+V+V+V+V+W+X+X+X+X+X+Y+Z+`+`+`+`+`+ @ @.@.@.@.@+@@@@@@@#@#@#@$@$@$@$@$@%@&@*@*@*@*@*@=@-@-@-@-@-@;@;@>@>@>@>@,@,@'@)@)@)@!@!@!@~@~@{@{@]@]@^@^@^@^@/@/@/@(@(@(@_@:@:@:@<@<@[@[@[@}@|@|@1@1@1@1@1@2@3@3@3@3@3@4@5@6@6@6@6@6@7@8@9@9@9@9@0@a@a@a@b@b@b@c@c@c@c@d@d@e@e@e@e@e@e@f@g@g@g@g@g@g@h@i@i@i@i@i@j@k@l@l@l@l@m@m@n@n@o@o@p@p@q@q@q@r@s@s@s@t@t@t@u@v@v@w@w@w@w@x@x@y@z@z@z@A@A@A@B@C@C@D@D@D@D@E@F@G@G@G@G@G@H@I@J@J@J@J@K@L@L@M@M@M@M@N@N@N@N@O@O@P@Q@Q@Q@Q@R@R@S@S@S@S@S@S@T@T@T@T@T@T@U@V@W@W@W@W@X@X@Y@Z@Z@Z@`@`@ # # #.#.#+#+#@#@#@#@#####$#$#$#$#%#&#&#*#*#*#=#=#=#-#-#-#;#;#;#;#>#,#'#'#'#'#)#)#!#~#~#~#~#{#{#]#^#^#^#^#/#(#(#_#_#_#:#<#<#<#<#[#[#}#}#}#}#}#}#|#|#|#|#",
"+ + + + @ @ @ @ @ @ # # $ $ $ $ % & & & * * = - - - - ; > > , , , , ' ) ) ! ! ! ! ~ { ] ] ] ] ^ ^ ^ / / / ( ( ( _ _ : < < < < [ [ } } } } | | 1 1 2 2 2 3 3 4 4 4 5 6 6 7 7 7 7 8 9 0 0 0 0 0 0 a a a a a a b b c c c c d e e f f f f g g g g h h i j j j j k l m m m m m n o p p p p q q r s s s t t t u v v w w w w x x y z z z A A A B C C C D D E E F F G G H H H H I J K K K K K L M M M M M M N O O O O O O P P Q Q Q Q R R R S S S T U U U U V W X X X X X Y Z ` ` ` ` `  ...........+.+.@.#.#.#.$.$.%.%.%.&.*.*.*.=.=.=.-.-.-.-.;.;.>.>.,.,.'.'.'.).).).!.~.~.{.{.{.{.].].^.^.^.^.^./.(.(.(.(.(._.:.<.<.<.<.<.[.[.[.}.}.}.|.1.1.1.1.2.2.3.3.3.3.3.4.5.6.6.6.6.6.7.8.8.8.8.8.9.9.0.a.a.a.b.b.c.c.d.d.d.e.e.f.f.f.g.h.h.i.i.i.i.j.j.j.k.k.k.l.l.m.n.n.n.o.o.o.o.p.p.q.q.q.q.q.r.r.s.s.s.s.t.t.u.u.u.u.u.v.w.w.x.x.x.y.z.z.z.A.A.A.B.B.B.B.B.C.D.D.D.D.D.D.E.F.F.F.F.F.F.G.H.H.H.H.H.I.J.J.K.K.K.L.L.M.M.N.N.O.O.P.P.P.P.Q.Q.Q.R.R.R.S.S.T.U.U.U.U.V.V.W.X.X.X.Y.Y.Y.Z.`.`. + + + +.+.+++++++++@+@+#+$+$+$+$+%+&+&+&+*+*+*+=+-+-+-+-+;+>+,+,+,+,+,+'+)+)+)+)+)+)+!+~+~+~+~+~+{+]+^+^+^+^+/+(+(+(+_+_+_+:+<+<+<+<+[+}+}+|+|+|+|+1+1+2+2+2+2+3+3+4+5+5+5+6+6+6+7+8+8+9+9+9+9+0+a+a+b+b+b+c+c+c+d+d+d+d+e+e+f+f+g+g+h+h+i+i+i+j+j+k+l+l+l+l+l+m+n+n+n+n+n+n+o+p+p+p+p+p+p+q+r+r+r+r+r+s+s+s+t+t+t+u+v+v+v+w+w+x+y+y+y+y+y+z+z+A+A+A+A+B+B+C+C+C+C+C+D+D+E+E+E+E+F+F+F+G+H+H+I+I+I+J+J+J+K+K+K+K+L+L+M+N+N+N+O+O+P+P+P+Q+Q+R+R+S+S+S+T+U+U+V+V+V+V+V+W+X+X+X+X+X+Y+Z+`+`+`+`+`+ @ @.@.@.@.@+@@@@@@@#@#@#@$@$@$@$@$@%@&@*@*@*@*@*@=@-@-@-@-@-@;@;@>@>@>@>@,@,@'@)@)@)@!@!@!@~@~@{@{@]@]@^@^@^@^@/@/@/@(@(@(@_@:@:@:@<@<@[@[@[@}@|@|@1@1@1@1@1@2@3@3@3@3@3@4@5@6@6@6@6@6@7@8@9@9@9@9@0@a@a@a@b@b@b@c@c@c@c@d@d@e@e@e@e@e@e@f@g@g@g@g@g@g@h@i@i@i@i@i@j@k@l@l@l@l@m@m@n@n@o@o@p@p@q@q@q@r@s@s@s@t@t@t@u@v@v@w@w@w@w@x@x@y@z@z@z@A@A@A@B@C@C@D@D@D@D@E@F@G@G@G@G@G@H@I@J@J@J@J@K@L@L@M@M@M@M@N@N@N@N@O@O@P@Q@Q@Q@Q@R@R@S@S@S@S@S@S@T@T@T@T@T@T@U@V@W@W@W@W@X@X@Y@Z@Z@Z@`@`@ # # #.#.#+#+#@#@#@#@#####$#$#$#$#%#&#&#*#*#*#=#=#=#-#-#-#;#;#;#;#>#,#'#'#'#'#)#)#!#~#~#~#~#{#{#]#^#^#^#^#/#(#(#_#_#_#:#<#<#<#<#[#[#}#}#}#}#}#}#|#|#|#|#",
"+ + + + @ @ @ @ @ @ # # $ $ $ $ % & & & * * = - - - - ; > > , , , , ' ) ) ! ! ! ! ~ { ] ] ] ] ^ ^ ^ / / / ( ( ( _ _ : < < < < [ [ } } } } | | 1 1 2 2 2 3 3 4 4 4 5 6 6 7 7 7 7 8 9 0 0 0 0 0 0 a a a a a a b b c c c c d e e f f f f g g g g h h i j j j j k l m m m m m n o p p p p q q r s s s t t t u v v w w w w x x y z z z A A A B C C C D D E E F F G G H H H H I J K K K K K L M M M M M M N O O O O O O P P Q Q Q Q R R R S S S T U U U U V W X X X X X Y Z ` ` ` ` `  ...........+.+.@.#.#.#.$.$.%.%.%.&.*.*.*.=.=.=.-.-.-.-.;.;.>.>.,.,.'.'.'.).).).!.~.~.{.{.{.{.].].^.^.^.^.^./.(.(.(.(.(._.:.<.<.<.<.<.[.[.[.}.}.}.|.1.1.1.1.2.2.3.3.3.3.3.4.5.6.6.6.6.6.7.8.8.8.8.8.9.9.0.a.a.a.b.b.c.c.d.d.d.e.e.f.f.f.g.h.h.i.i.i.i.j.j.j.k.k.k.l.l.m.n.n.n.o.o.o.o.p.p.q.q.q.q.q.r.r.s.s.s.s.t.t.u.u.u.u.u.v.w.w.x.x.x.y.z.z.z.A.A.A.B.B.B.B.B.C.D.D.D.D.D.D.E.F.F.F.F.F.F.G.H.H.H.H.H.I.J.J.K.K.K.L.L.M.M.N.N.O.O.P.P.P.P.Q.Q.Q.R.R.R.S.S.T.U.U.U.U.V.V.W.X.X.X.Y.Y.Y.Z.`.`. + + + +.+.+++++++++@+@+#+$+$+$+$+%+&+&+&+*+*+*+=+-+-+-+-+;+>+,+,+,+,+,+'+)+)+)+)+)+)+!+~+~+~+~+~+{+]+^+^+^+^+/+(+(+(+_+_+_+:+<+<+<+<+[+}+}+|+|+|+|+1+1+2+2+2+2+3+3+4+5+5+5+6+6+6+7+8+8+9+9+9+9+0+a+a+b+b+b+c+c+c+d+d+d+d+e+e+f+f+g+g+h+h+i+i+i+j+j+k+l+l+l+l+l+m+n+n+n+n+n+n+o+p+p+p+p+p+p+q+r+r+r+r+r+s+s+s+t+t+t+u+v+v+v+w+w+x+y+y+y+y+y+z+z+A+A+A+A+B+B+C+C+C+C+C+D+D+E+E+E+E+F+F+F+G+H+H+I+I+I+J+J+J+K+K+K+K+L+L+M+N+N+N+O+O+P+P+P+Q+Q+R+R+S+S+S+T+U+U+V+V+V+V+V+W+X+X+X+X+X+Y+Z+`+`+`+`+`+ @ @.@.@.@.@+@@@@@@@#@#@#@$@$@$@$@$@%@&@*@*@*@*@*@=@-@-@-@-@-@;@;@>@>@>@>@,@,@'@)@)@)@!@!@!@~@~@{@{@]@]@^@^@^@^@/@/@/@(@(@(@_@:@:@:@<@<@[@[@[@}@|@|@1@1@1@1@1@2@3@3@3@3@3@4@5@6@6@6@6@6@7@8@9@9@9@9@0@a@a@a@b@b@b@c@c@c@c@d@d@e@e@e@e@e@e@f@g@g@g@g@g@g@h@i@i@i@i@i@j@k@l@l@l@l@m@m@n@n@o@o@p@p@q@q@q@r@s@s@s@t@t@t@u@v@v@w@w@w@w@x@x@y@z@z@z@A@A@A@B@C@C@D@D@D@D@E@F@G@G@G@G@G@H@I@J@J@J@J@K@L@L@M@M@M@M@N@N@N@N@O@O@P@Q@Q@Q@Q@R@R@S@S@S@S@S@S@T@T@T@T@T@T@U@V@W@W@W@W@X@X@Y@Z@Z@Z@`@`@ # # #.#.#+#+#@#@#@#@#####$#$#$#$#%#&#&#*#*#*#=#=#=#-#-#-#;#;#;#;#>#,#'#'#'#'#)#)#!#~#~#~#~#{#{#]#^#^#^#^#/#(#(#_#_#_#:#<#<#<#<#[#[#}#}#}#}#}#}#|#|#|#|#",
"+ + + + @ @ @ @ @ @ # # $ $ $ $ % & & & * * = - - - - ; > > , , , , ' ) ) ! ! ! ! ~ { ] ] ] ] ^ ^ ^ / / / ( ( ( _ _ : < < < < [ [ } } } } | | 1 1 2 2 2 3 3 4 4 4 5 6 6 7 7 7 7 8 9 0 0 0 0 0 0 a a a a a a b b c c c c d e e f f f f g g g g h h i j j j j k l m m m m m n o p p p p q q r s s s t t t u v v w w w w x x y z z z A A A B C C C D D E E F F G G H H H H I J K K K K K L M M M M M M N O O O O O O P P Q Q Q Q R R R S S S T U U U U V W X X X X X Y Z ` ` ` ` `  ...........+.+.@.#.#.#.$.$.%.%.%.&.*.*.*.=.=.=.-.-.-.-.;.;.>.>.,.,.'.'.'.).).).!.~.~.{.{.{.{.].].^.^.^.^.^./.(.(.(.(.(._.:.<.<.<.<.<.[.[.[.}.}.}.|.1.1.1.1.2.2.3.3.3.3.3.4.5.6.6.6.6.6.7.8.8.8.8.8.9.9.0.a.a.a.b.b.c.c.d.d.d.e.e.f.f.f.g.h.h.i.i.i.i.j.j.j.k.k.k.l.l.m.n.n.n.o.o.o.o.p.p.q.q.q.q.q.r.r.s.s.s.s.t.t.u.u.u.u.u.v.w.w.x.x.x.y.z.z.z.A.A.A.B.B.B.B.B.C.D.D.D.D.D.D.E.F.F.F.F.F.F.G.H.H.H.H.H.I.J.J.K.K.K.L.L.M.M.N.N.O.O.P.P.P.P.Q.Q.Q.R.R.R.S.S.T.U.U.U.U.V.V.W.X.X.X.Y.Y.Y.Z.`.`. + + + +.+.+++++++++@+@+#+$+$+$+$+%+&+&+&+*+*+*+=+-+-+-+-+;+>+,+,+,+,+,+'+)+)+)+)+)+)+!+~+~+~+~+~+{+]+^+^+^+^+/+(+(+(+_+_+_+:+<+<+<+<+[+}+}+|+|+|+|+1+1+2+2+2+2+3+3+4+5+5+5+6+6+6+7+8+8+9+9+9+9+0+a+a+b+b+b+c+c+c+d+d+d+d+e+e+f+f+g+g+h+h+i+i+i+j+j+k+l+l+l+l+l+m+n+n+n+n+n+n+o+p+p+p+p+p+p+q+r+r+r+r+r+s+s+s+t+t+t+u+v+v+v+w+w+x+y+y+y+y+y+z+z+A+A+A+A+B+B+C+C+C+C+C+D+D+E+E+E+E+F+F+F+G+H+H+I+I+I+J+J+J+K+K+K+K+L+L+M+N+N+N+O+O+P+P+P+Q+Q+R+R+S+S+S+T+U+U+V+V+V+V+V+W+X+X+X+X+X+Y+Z+`+`+`+`+`+ @ @.@.@.@.@+@@@@@@@#@#@#@$@$@$@$@$@%@&@*@*@*@*@*@=@-@-@-@-@-@;@;@>@>@>@>@,@,@'@)@)@)@!@!@!@~@~@{@{@]@]@^@^@^@^@/@/@/@(@(@(@_@:@:@:@<@<@[@[@[@}@|@|@1@1@1@1@1@2@3@3@3@3@3@4@5@6@6@6@6@6@7@8@9@9@9@9@0@a@a@a@b@b@b@c@c@c@c@d@d@e@e@e@e@e@e@f@g@g@g@g@g@g@h@i@i@i@i@i@j@k@l@l@l@l@m@m@n@n@o@o@p@p@q@q@q@r@s@s@s@t@t@t@u@v@v@w@w@w@w@x@x@y@z@z@z@A@A@A@B@C@C@D@D@D@D@E@F@G@G@G@G@G@H@I@J@J@J@J@K@L@L@M@M@M@M@N@N@N@N@O@O@P@Q@Q@Q@Q@R@R@S@S@S@S@S@S@T@T@T@T@T@T@U@V@W@W@W@W@X@X@Y@Z@Z@Z@`@`@ # # #.#.#+#+#@#@#@#@#####$#$#$#$#%#&#&#*#*#*#=#=#=#-#-#-#;#;#;#;#>#,#'#'#'#'#)#)#!#~#~#~#~#{#{#]#^#^#^#^#/#(#(#_#_#_#:#<#<#<#<#[#[#}#}#}#}#}#}#|#|#|#|#",
"+ + + + @ @ @ @ @ @ # # $ $ $ $ % & & & * * = - - - - ; > > , , , , ' ) ) ! ! ! ! ~ { ] ] ] ] ^ ^ ^ / / / ( ( ( _ _ : < < < < [ [ } } } } | | 1 1 2 2 2 3 3 4 4 4 5 6 6 7 7 7 7 8 9 0 0 0 0 0 0 a a a a a a b b c c c c d e e f f f f g g g g h h i j j j j k l m m m m m n o p p p p q q r s s s t t t u v v w w w w x x y z z z A A A B C C C D D E E F F G G H H H H I J K K K K K L M M M M M M N O O O O O O P P Q Q Q Q R R R S S S T U U U U V W X X X X X Y Z ` ` ` ` `  ...........+.+.@.#.#.#.$.$.%.%.%.&.*.*.*.=.=.=.-.-.-.-.;.;.>.>.,.,.'.'.'.).).).!.~.~.{.{.{.{.].].^.^.^.^.^./.(.(.(.(.(._.:.<.<.<.<.<.[.[.[.}.}.}.|.1.1.1.1.2.2.3.3.3.3.3.4.5.6.6.6.6.6.7.8.8.8.8.8.9.9.0.a.a.a.b.b.c.c.d.d.d.e.e.f.f.f.g.h.h.i.i.i.i.j.j.j.k.k.k.l.l.m.n.n.n.o.o.o.o.p.p.q.q.q.q.q.r.r.s.s.s.s.t.t.u.u.u.u.u.v.w.w.x.x.x.y.z.z.z.A.A.A.B.B.B.B.B.C.D.D.D.D.D.D.E.F.F.F.F.F.F.G.H.H.H.H.H.I.J.J.K.K.K.L.L.M.M.N.N.O.O.P.P.P.P.Q.Q.Q.R.R.R.S.S.T.U.U.U.U.V.V.W.X.X.X.Y.Y.Y.Z.`.`. + + + +.+.+++++++++@+@+#+$+$+$+$+%+&+&+&+*+*+*+=+-+-+-+-+;+>+,+,+,+,+,+'+)+)+)+)+)+)+!+~+~+~+~+~+{+]+^+^+^+^+/+(+(+(+_+_+_+:+<+<+<+<+[+}+}+|+|+|+|+1+1+2+2+2+2+3+3+4+5+5+5+6+6+6+7+8+8+9+9+9+9+0+a+a+b+b+b+c+c+c+d+d+d+d+e+e+f+f+g+g+h+h+i+i+i+j+j+k+l+l+l+l+l+m+n+n+n+n+n+n+o+p+p+p+p+p+p+q+r+r+r+r+r+s+s+s+t+t+t+u+v+v+v+w+w+x+y+y+y+y+y+z+z+A+A+A+A+B+B+C+C+C+C+C+D+D+E+E+E+E+F+F+F+G+H+H+I+I+I+J+J+J+K+K+K+K+L+L+M+N+N+N+O+O+P+P+P+Q+Q+R+R+S+S+S+T+U+U+V+V+V+V+V+W+X+X+X+X+X+Y+Z+`+`+`+`+`+ @ @.@.@.@.@+@@@@@@@#@#@#@$@$@$@$@$@%@&@*@*@*@*@*@=@-@-@-@-@-@;@;@>@>@>@>@,@,@'@)@)@)@!@!@!@~@~@{@{@]@]@^@^@^@^@/@/@/@(@(@(@_@:@:@:@<@<@[@[@[@}@|@|@1@1@1@1@1@2@3@3@3@3@3@4@5@6@6@6@6@6@7@8@9@9@9@9@0@a@a@a@b@b@b@c@c@c@c@d@d@e@e@e@e@e@e@f@g@g@g@g@g@g@h@i@i@i@i@i@j@k@l@l@l@l@m@m@n@n@o@o@p@p@q@q@q@r@s@s@s@t@t@t@u@v@v@w@w@w@w@x@x@y@z@z@z@A@A@A@B@C@C@D@D@D@D@E@F@G@G@G@G@G@H@I@J@J@J@J@K@L@L@M@M@M@M@N@N@N@N@O@O@P@Q@Q@Q@Q@R@R@S@S@S@S@S@S@T@T@T@T@T@T@U@V@W@W@W@W@X@X@Y@Z@Z@Z@`@`@ # # #.#.#+#+#@#@#@#@#####$#$#$#$#%#&#&#*#*#*#=#=#=#-#-#-#;#;#;#;#>#,#'#'#'#'#)#)#!#~#~#~#~#{#{#]#^#^#^#^#/#(#(#_#_#_#:#<#<#<#<#[#[#}#}#}#}#}#}#|#|#|#|#",
"+ + + + @ @ @ @ @ @ # # $ $ $ $ % & & & * * = - - - - ; > > , , , , ' ) ) ! ! ! ! ~ { ] ] ] ] ^ ^ ^ / / / ( ( ( _ _ : < < < < [ [ } } } } | | 1 1 2 2 2 3 3 4 4 4 5 6 6 7 7 7 7 8 9 0 0 0 0 0 0 a a a a a a b b c c c c d e e f f f f g g g g h h i j j j j k l m m m m m n o p p p p q q r s s s t t t u v v w w w w x x y z z z A A A B C C C D D E E F F G G H H H H I J K K K K K L M M M M M M N O O O O O O P P Q Q Q Q R R R S S S T U U U U V W X X X X X Y Z ` ` ` ` `  ...........+.+.@.#.#.#.$.$.%.%.%.&.*.*.*.=.=.=.-.-.-.-.;.;.>.>.,.,.'.'.'.).).).!.~.~.{.{.{.{.].].^.^.^.^.^./.(.(.(.(.(._.:.<.<.<.<.<.[.[.[.}.}.}.|.1.1.1.1.2.2.3.3.3.3.3.4.5.6.6.6.6.6.7.8.8.8.8.8.9.9.0.a.a.a.b.b.c.c.d.d.d.e.e.f.f.f.g.h.h.i.i.i.i.j.j.j.k.k.k.l.l.m.n.n.n.o.o.o.o.p.p.q.q.q.q.q.r.r.s.s.s.s.t.t.u.u.u.u.u.v.w.w.x.x.x.y.z.z.z.A.A.A.B.B.B.B.B.C.D.D.D.D.D.D.E.F.F.F.F.F.F.G.H.H.H.H.H.I.J.J.K.K.K.L.L.M.M.N.N.O.O.P.P.P.P.Q.Q.Q.R.R.R.S.S.T.U.U.U.U.V.V.W.X.X.X.Y.Y.Y.Z.`.`. + + + +.+.+++++++++@+@+#+$+$+$+$+%+&+&+&+*+*+*+=+-+-+-+-+;+>+,+,+,+,+,+'+)+)+)+)+)+)+!+~+~+~+~+~+{+]+^+^+^+^+/+(+(+(+_+_+_+:+<+<+<+<+[+}+}+|+|+|+|+1+1+2+2+2+2+3+3+4+5+5+5+6+6+6+7+8+8+9+9+9+9+0+a+a+b+b+b+c+c+c+d+d+d+d+e+e+f+f+g+g+h+h+i+i+i+j+j+k+l+l+l+l+l+m+n+n+n+n+n+n+o+p+p+p+p+p+p+q+r+r+r+r+r+s+s+s+t+t+t+u+v+v+v+w+w+x+y+y+y+y+y+z+z+A+A+A+A+B+B+C+C+C+C+C+D+D+E+E+E+E+F+F+F+G+H+H+I+I+I+J+J+J+K+K+K+K+L+L+M+N+N+N+O+O+P+P+P+Q+Q+R+R+S+S+S+T+U+U+V+V+V+V+V+W+X+X+X+X+X+Y+Z+`+`+`+`+`+ @ @.@.@.@.@+@@@@@@@#@#@#@$@$@$@$@$@%@&@*@*@*@*@*@=@-@-@-@-@-@;@;@>@>@>@>@,@,@'@)@)@)@!@!@!@~@~@{@{@]@]@^@^@^@^@/@/@/@(@(@(@_@:@:@:@<@<@[@[@[@}@|@|@1@1@1@1@1@2@3@3@3@3@3@4@5@6@6@6@6@6@7@8@9@9@9@9@0@a@a@a@b@b@b@c@c@c@c@d@d@e@e@e@e@e@e@f@g@g@g@g@g@g@h@i@i@i@i@i@j@k@l@l@l@l@m@m@n@n@o@o@p@p@q@q@q@r@s@s@s@t@t@t@u@v@v@w@w@w@w@x@x@y@z@z@z@A@A@A@B@C@C@D@D@D@D@E@F@G@G@G@G@G@H@I@J@J@J@J@K@L@L@M@M@M@M@N@N@N@N@O@O@P@Q@Q@Q@Q@R@R@S@S@S@S@S@S@T@T@T@T@T@T@U@V@W@W@W@W@X@X@Y@Z@Z@Z@`@`@ # # #.#.#+#+#@#@#@#@#####$#$#$#$#%#&#&#*#*#*#=#=#=#-#-#-#;#;#;#;#>#,#'#'#'#'#)#)#!#~#~#~#~#{#{#]#^#^#^#^#/#(#(#_#_#_#:#<#<#<#<#[#[#}#}#}#}#}#}#|#|#|#|#",
"+ + + + @ @ @ @ @ @ # # $ $ $ $ % & & & * * = - - - - ; > > , , , , ' ) ) ! ! ! ! ~ { ] ] ] ] ^ ^ ^ / / / ( ( ( _ _ : < < < < [ [ } } } } | | 1 1 2 2 2 3 3 4 4 4 5 6 6 7 7 7 7 8 9 0 0 0 0 0 0 a a a a a a b b c c c c d e e f f f f g g g g h h i j j j j k l m m m m m n o p p p p q q r s s s t t t u v v w w w w x x y z z z A A A B C C C D D E E F F G G H H H H I J K K K K K L M M M M M M N O O O O O O P P Q Q Q Q R R R S S S T U U U U V W X X X X X Y Z ` ` ` ` `  ...........+.+.@.#.#.#.$.$.%.%.%.&.*.*.*.=.=.=.-.-.-.-.;.;.>.>.,.,.'.'.'.).).).!.~.~.{.{.{.{.].].^.^.^.^.^./.(.(.(.(.(._.:.<.<.<.<.<.[.[.[.}.}.}.|.1.1.1.1.2.2.3.3.3.3.3.4.5.6.6.6.6.6.7.8.8.8.8.8.9.9.0.a.a.a.b.b.c.c.d.d.d.e.e.f.f.f.g.h.h.i.i.i.i.j.j.j.k.k.k.l.l.m.n.n.n.o.o.o.o.p.p.q.q.q.q.q.r.r.s.s.s.s.t.t.u.u.u.u.u.v.w.w.x.x.x.y.z.z.z.A.A.A.B.B.B.B.B.C.D.D.D.D.D.D.E.F.F.F.F.F.F.G.H.H.H.H.H.I.J.J.K.K.K.L.L.M.M.N.N.O.O.P.P.P.P.Q.Q.Q.R.R.R.S.S.T.U.U.U.U.V.V.W.X.X.X.Y.Y.Y.Z.`.`. + + + +.+.+++++++++@+@+#+$+$+$+$+%+&+&+&+*+*+*+=+-+-+-+-+;+>+,+,+,+,+,+'+)+)+)+)+)+)+!+~+~+~+~+~+{+]+^+^+^+^+/+(+(+(+_+_+_+:+<+<+<+<+[+}+}+|+|+|+|+1+1+2+2+2+2+3+3+4+5+5+5+6+6+6+7+8+8+9+9+9+9+0+a+a+b+b+b+c+c+c+d+d+d+d+e+e+f+f+g+g+h+h+i+i+i+j+j+k+l+l+l+l+l+m+n+n+n+n+n+n+o+p+p+p+p+p+p+q+r+r+r+r+r+s+s+s+t+t+t+u+v+v+v+w+w+x+y+y+y+y+y+z+z+A+A+A+A+B+B+C+C+C+C+C+D+D+E+E+E+E+F+F+F+G+H+H+I+I+I+J+J+J+K+K+K+K+L+L+M+N+N+N+O+O+P+P+P+Q+Q+R+R+S+S+S+T+U+U+V+V+V+V+V+W+X+X+X+X+X+Y+Z+`+`+`+`+`+ @ @.@.@.@.@+@@@@@@@#@#@#@$@$@$@$@$@%@&@*@*@*@*@*@=@-@-@-@-@-@;@;@>@>@>@>@,@,@'@)@)@)@!@!@!@~@~@{@{@]@]@^@^@^@^@/@/@/@(@(@(@_@:@:@:@<@<@[@[@[@}@|@|@1@1@1@1@1@2@3@3@3@3@3@4@5@6@6@6@6@6@7@8@9@9@9@9@0@a@a@a@b@b@b@c@c@c@c@d@d@e@e@e@e@e@e@f@g@g@g@g@g@g@h@i@i@i@i@i@j@k@l@l@l@l@m@m@n@n@o@o@p@p@q@q@q@r@s@s@s@t@t@t@u@v@v@w@w@w@w@x@x@y@z@z@z@A@A@A@B@C@C@D@D@D@D@E@F@G@G@G@G@G@H@I@J@J@J@J@K@L@L@M@M@M@M@N@N@N@N@O@O@P@Q@Q@Q@Q@R@R@S@S@S@S@S@S@T@T@T@T@T@T@U@V@W@W@W@W@X@X@Y@Z@Z@Z@`@`@ # # #.#.#+#+#@#@#@#@#####$#$#$#$#%#&#&#*#*#*#=#=#=#-#-#-#;#;#;#;#>#,#'#'#'#'#)#)#!#~#~#~#~#{#{#]#^#^#^#^#/#(#(#_#_#_#:#<#<#<#<#[#[#}#}#}#}#}#}#|#|#|#|#",
"+ + + + @ @ @ @ @ @ # # $ $ $ $ % & & & * * = - - - - ; > > , , , , ' ) ) ! ! ! ! ~ { ] ] ] ] ^ ^ ^ / / / ( ( ( _ _ : < < < < [ [ } } } } | | 1 1 2 2 2 3 3 4 4 4 5 6 6 7 7 7 7 8 9 0 0 0 0 0 0 a a a a a a b b c c c c d e e f f f f g g g g h h i j j j j k l m m m m m n o p p p p q q r s s s t t t u v v w w w w x x y z z z A A A B C C C D D E E F F G G H H H H I J K K K K K L M M M M M M N O O O O O O P P Q Q Q Q R R R S S S T U U U U V W X X X X X Y Z ` ` ` ` `  ...........+.+.@.#.#.#.$.$.%.%.%.&.*.*.*.=.=.=.-.-.-.-.;.;.>.>.,.,.'.'.'.).).).!.~.~.{.{.{.{.].].^.^.^.^.^./.(.(.(.(.(._.:.<.<.<.<.<.[.[.[.}.}.}.|.1.1.1.1.2.2.3.3.3.3.3.4.5.6.6.6.6.6.7.8.8.8.8.8.9.9.0.a.a.a.b.b.c.c.d.d.d.e.e.f.f.f.g.h.h.i.i.i.i.j.j.j.k.k.k.l.l.m.n.n.n.o.o.o.o.p.p.q.q.q.q.q.r.r.s.s.s.s.t.t.u.u.u.u.u.v.w.w.x.x.x.y.z.z.z.A.A.A.B.B.B.B.B.C.D.D.D.D.D.D.E.F.F.F.F.F.F.G.H.H.H.H.H.I.J.J.K.K.K.L.L.M.M.N.N.O.O.P.P.P.P.Q.Q.Q.R.R.R.S.S.T.U.U.U.U.V.V.W.X.X.X.Y.Y.Y.Z.`.`. + + + +.+.+++++++++@+@+#+$+$+$+$+%+&+&+&+*+*+*+=+-+-+-+-+;+>+,+,+,+,+,+'+)+)+)+)+)+)+!+~+~+~+~+~+{+]+^+^+^+^+/+(+(+(+_+_+_+:+<+<+<+<+[+}+}+|+|+|+|+1+1+2+2+2+2+3+3+4+5+5+5+6+6+6+7+8+8+9+9+9+9+0+a+a+b+b+b+c+c+c+d+d+d+d+e+e+f+f+g+g+h+h+i+i+i+j+j+k+l+l+l+l+l+m+n+n+n+n+n+n+o+p+p+p+p+p+p+q+r+r+r+r+r+s+s+s+t+t+t+u+v+v+v+w+w+x+y+y+y+y+y+z+z+A+A+A+A+B+B+C+C+C+C+C+D+D+E+E+E+E+F+F+F+G+H+H+I+I+I+J+J+J+K+K+K+K+L+L+M+N+N+N+O+O+P+P+P+Q+Q+R+R+S+S+S+T+U+U+V+V+V+V+V+W+X+X+X+X+X+Y+Z+`+`+`+`+`+ @ @.@.@.@.@+@@@@@@@#@#@#@$@$@$@$@$@%@&@*@*@*@*@*@=@-@-@-@-@-@;@;@>@>@>@>@,@,@'@)@)@)@!@!@!@~@~@{@{@]@]@^@^@^@^@/@/@/@(@(@(@_@:@:@:@<@<@[@[@[@}@|@|@1@1@1@1@1@2@3@3@3@3@3@4@5@6@6@6@6@6@7@8@9@9@9@9@0@a@a@a@b@b@b@c@c@c@c@d@d@e@e@e@e@e@e@f@g@g@g@g@g@g@h@i@i@i@i@i@j@k@l@l@l@l@m@m@n@n@o@o@p@p@q@q@q@r@s@s@s@t@t@t@u@v@v@w@w@w@w@x@x@y@z@z@z@A@A@A@B@C@C@D@D@D@D@E@F@G@G@G@G@G@H@I@J@J@J@J@K@L@L@M@M@M@M@N@N@N@N@O@O@P@Q@Q@Q@Q@R@R@S@S@S@S@S@S@T@T@T@T@T@T@U@V@W@W@W@W@X@X@Y@Z@Z@Z@`@`@ # # #.#.#+#+#@#@#@#@#####$#$#$#$#%#&#&#*#*#*#=#=#=#-#-#-#;#;#;#;#>#,#'#'#'#'#)#)#!#~#~#~#~#{#{#]#^#^#^#^#/#(#(#_#_#_#:#<#<#<#<#[#[#}#}#}#}#}#}#|#|#|#|#",
"+ + + + @ @ @ @ @ @ # # $ $ $ $ % & & & * * = - - - - ; > > , , , , ' ) ) ! ! ! ! ~ { ] ] ] ] ^ ^ ^ / / / ( ( ( _ _ : < < < < [ [ } } } } | | 1 1 2 2 2 3 3 4 4 4 5 6 6 7 7 7 7 8 9 0 0 0 0 0 0 a a a a a a b b c c c c d e e f f f f g g g g h h i j j j j k l m m m m m n o p p p p q q r s s s t t t u v v w w w w x x y z z z A A A B C C C D D E E F F G G H H H H I J K K K K K L M M M M M M N O O O O O O P P Q Q Q Q R R R S S S T U U U U V W X X X X X Y Z ` ` ` ` `  ...........+.+.@.#.#.#.$.$.%.%.%.&.*.*.*.=.=.=.-.-.-.-.;.;.>.>.,.,.'.'.'.).).).!.~.~.{.{.{.{.].].^.^.^.^.^./.(.(.(.(.(._.:.<.<.<.<.<.[.[.[.}.}.}.|.1.1.1.1.2.2.3.3.3.3.3.4.5.6.6.6.6.6.7.8.8.8.8.8.9.9.0.a.a.a.b.b.c.c.d.d.d.e.e.f.f.f.g.h.h.i.i.i.i.j.j.j.k.k.k.l.l.m.n.n.n.o.o.o.o.p.p.q.q.q.q.q.r.r.s.s.s.s.t.t.u.u.u.u.u.v.w.w.x.x.x.y.z.z.z.A.A.A.B.B.B.B.B.C.D.D.D.D.D.D.E.F.F.F.F.F.F.G.H.H.H.H.H.I.J.J.K.K.K.L.L.M.M.N.N.O.O.P.P.P.P.Q.Q.Q.R.R.R.S.S.T.U.U.U.U.V.V.W.X.X.X.Y.Y.Y.Z.`.`. + + + +.+.+++++++++@+@+#+$+$+$+$+%+&+&+&+*+*+*+=+-+-+-+-+;+>+,+,+,+,+,+'+)+)+)+)+)+)+!+~+~+~+~+~+{+]+^+^+^+^+/+(+(+(+_+_+_+:+<+<+<+<+[+}+}+|+|+|+|+1+1+2+2+2+2+3+3+4+5+5+5+6+6+6+7+8+8+9+9+9+9+0+a+a+b+b+b+c+c+c+d+d+d+d+e+e+f+f+g+g+h+h+i+i+i+j+j+k+l+l+l+l+l+m+n+n+n+n+n+n+o+p+p+p+p+p+p+q+r+r+r+r+r+s+s+s+t+t+t+u+v+v+v+w+w+x+y+y+y+y+y+z+z+A+A+A+A+B+B+C+C+C+C+C+D+D+E+E+E+E+F+F+F+G+H+H+I+I+I+J+J+J+K+K+K+K+L+L+M+N+N+N+O+O+P+P+P+Q+Q+R+R+S+S+S+T+U+U+V+V+V+V+V+W+X+X+X+X+X+Y+Z+`+`+`+`+`+ @ @.@.@.@.@+@@@@@@@#@#@#@$@$@$@$@$@%@&@*@*@*@*@*@=@-@-@-@-@-@;@;@>@>@>@>@,@,@'@)@)@)@!@!@!@~@~@{@{@]@]@^@^@^@^@/@/@/@(@(@(@_@:@:@:@<@<@[@[@[@}@|@|@1@1@1@1@1@2@3@3@3@3@3@4@5@6@6@6@6@6@7@8@9@9@9@9@0@a@a@a@b@b@b@c@c@c@c@d@d@e@e@e@e@e@e@f@g@g@g@g@g@g@h@i@i@i@i@i@j@k@l@l@l@l@m@m@n@n@o@o@p@p@q@q@q@r@s@s@s@t@t@t@u@v@v@w@w@w@w@x@x@y@z@z@z@A@A@A@B@C@C@D@D@D@D@E@F@G@G@G@G@G@H@I@J@J@J@J@K@L@L@M@M@M@M@N@N@N@N@O@O@P@Q@Q@Q@Q@R@R@S@S@S@S@S@S@T@T@T@T@T@T@U@V@W@W@W@W@X@X@Y@Z@Z@Z@`@`@ # # #.#.#+#+#@#@#@#@#####$#$#$#$#%#&#&#*#*#*#=#=#=#-#-#-#;#;#;#;#>#,#'#'#'#'#)#)#!#~#~#~#~#{#{#]#^#^#^#^#/#(#(#_#_#_#:#<#<#<#<#[#[#}#}#}#}#}#}#|#|#|#|#",
"+ + + + @ @ @ @ @ @ # # $ $ $ $ % & & & * * = - - - - ; > > , , , , ' ) ) ! ! ! ! ~ { ] ] ] ] ^ ^ ^ / / / ( ( ( _ _ : < < < < [ [ } } } } | | 1 1 2 2 2 3 3 4 4 4 5 6 6 7 7 7 7 8 9 0 0 0 0 0 0 a a a a a a b b c c c c d e e f f f f g g g g h h i j j j j k l m m m m m n o p p p p q q r s s s t t t u v v w w w w x x y z z z A A A B C C C D D E E F F G G H H H H I J K K K K K L M M M M M M N O O O O O O P P Q Q Q Q R R R S S S T U U U U V W X X X X X Y Z ` ` ` ` `  ...........+.+.@.#.#.#.$.$.%.%.%.&.*.*.*.=.=.=.-.-.-.-.;.;.>.>.,.,.'.'.'.).).).!.~.~.{.{.{.{.].].^.^.^.^.^./.(.(.(.(.(._.:.<.<.<.<.<.[.[.[.}.}.}.|.1.1.1.1.2.2.3.3.3.3.3.4.5.6.6.6.6.6.7.8.8.8.8.8.9.9.0.a.a.a.b.b.c.c.d.d.d.e.e.f.f.f.g.h.h.i.i.i.i.j.j.j.k.k.k.l.l.m.n.n.n.o.o.o.o.p.p.q.q.q.q.q.r.r.s.s.s.s.t.t.u.u.u.u.u.v.w.w.x.x.x.y.z.z.z.A.A.A.B.B.B.B.B.C.D.D.D.D.D.D.E.F.F.F.F.F.F.G.H.H.H.H.H.I.J.J.K.K.K.L.L.M.M.N.N.O.O.P.P.P.P.Q.Q.Q.R.R.R.S.S.T.U.U.U.U.V.V.W.X.X.X.Y.Y.Y.Z.`.`. + + + +.+.+++++++++@+@+#+$+$+$+$+%+&+&+&+*+*+*+=+-+-+-+-+;+>+,+,+,+,+,+'+)+)+)+)+)+)+!+~+~+~+~+~+{+]+^+^+^+^+/+(+(+(+_+_+_+:+<+<+<+<+[+}+}+|+|+|+|+1+1+2+2+2+2+3+3+4+5+5+5+6+6+6+7+8+8+9+9+9+9+0+a+a+b+b+b+c+c+c+d+d+d+d+e+e+f+f+g+g+h+h+i+i+i+j+j+k+l+l+l+l+l+m+n+n+n+n+n+n+o+p+p+p+p+p+p+q+r+r+r+r+r+s+s+s+t+t+t+u+v+v+v+w+w+x+y+y+y+y+y+z+z+A+A+A+A+B+B+C+C+C+C+C+D+D+E+E+E+E+F+F+F+G+H+H+I+I+I+J+J+J+K+K+K+K+L+L+M+N+N+N+O+O+P+P+P+Q+Q+R+R+S+S+S+T+U+U+V+V+V+V+V+W+X+X+X+X+X+Y+Z+`+`+`+`+`+ @ @.@.@.@.@+@@@@@@@#@#@#@$@$@$@$@$@%@&@*@*@*@*@*@=@-@-@-@-@-@;@;@>@>@>@>@,@,@'@)@)@)@!@!@!@~@~@{@{@]@]@^@^@^@^@/@/@/@(@(@(@_@:@:@:@<@<@[@[@[@}@|@|@1@1@1@1@1@2@3@3@3@3@3@4@5@6@6@6@6@6@7@8@9@9@9@9@0@a@a@a@b@b@b@c@c@c@c@d@d@e@e@e@e@e@e@f@g@g@g@g@g@g@h@i@i@i@i@i@j@k@l@l@l@l@m@m@n@n@o@o@p@p@q@q@q@r@s@s@s@t@t@t@u@v@v@w@w@w@w@x@x@y@z@z@z@A@A@A@B@C@C@D@D@D@D@E@F@G@G@G@G@G@H@I@J@J@J@J@K@L@L@M@M@M@M@N@N@N@N@O@O@P@Q@Q@Q@Q@R@R@S@S@S@S@S@S@T@T@T@T@T@T@U@V@W@W@W@W@X@X@Y@Z@Z@Z@`@`@ # # #.#.#+#+#@#@#@#@#####$#$#$#$#%#&#&#*#*#*#=#=#=#-#-#-#;#;#;#;#>#,#'#'#'#'#)#)#!#~#~#~#~#{#{#]#^#^#^#^#/#(#(#_#_#_#:#<#<#<#<#[#[#}#}#}#}#}#}#|#|#|#|#",
"+ + + + @ @ @ @ @ @ # # $ $ $ $ % & & & * * = - - - - ; > > , , , , ' ) ) ! ! ! ! ~ { ] ] ] ] ^ ^ ^ / / / ( ( ( _ _ : < < < < [ [ } } } } | | 1 1 2 2 2 3 3 4 4 4 5 6 6 7 7 7 7 8 9 0 0 0 0 0 0 a a a a a a b b c c c c d e e f f f f g g g g h h i j j j j k l m m m m m n o p p p p q q r s s s t t t u v v w w w w x x y z z z A A A B C C C D D E E F F G G H H H H I J K K K K K L M M M M M M N O O O O O O P P Q Q Q Q R R R S S S T U U U U V W X X X X X Y Z ` ` ` ` `  ...........+.+.@.#.#.#.$.$.%.%.%.&.*.*.*.=.=.=.-.-.-.-.;.;.>.>.,.,.'.'.'.).).).!.~.~.{.{.{.{.].].^.^.^.^.^./.(.(.(.(.(._.:.<.<.<.<.<.[.[.[.}.}.}.|.1.1.1.1.2.2.3.3.3.3.3.4.5.6.6.6.6.6.7.8.8.8.8.8.9.9.0.a.a.a.b.b.c.c.d.d.d.e.e.f.f.f.g.h.h.i.i.i.i.j.j.j.k.k.k.l.l.m.n.n.n.o.o.o.o.p.p.q.q.q.q.q.r.r.s.s.s.s.t.t.u.u.u.u.u.v.w.w.x.x.x.y.z.z.z.A.A.A.B.B.B.B.B.C.D.D.D.D.D.D.E.F.F.F.F.F.F.G.H.H.H.H.H.I.J.J.K.K.K.L.L.M.M.N.N.O.O.P.P.P.P.Q.Q.Q.R.R.R.S.S.T.U.U.U.U.V.V.W.X.X.X.Y.Y.Y.Z.`.`. + + + +.+.+++++++++@+@+#+$+$+$+$+%+&+&+&+*+*+*+=+-+-+-+-+;+>+,+,+,+,+,+'+)+)+)+)+)+)+!+~+~+~+~+~+{+]+^+^+^+^+/+(+(+(+_+_+_+:+<+<+<+<+[+}+}+|+|+|+|+1+1+2+2+2+2+3+3+4+5+5+5+6+6+6+7+8+8+9+9+9+9+0+a+a+b+b+b+c+c+c+d+d+d+d+e+e+f+f+g+g+h+h+i+i+i+j+j+k+l+l+l+l+l+m+n+n+n+n+n+n+o+p+p+p+p+p+p+q+r+r+r+r+r+s+s+s+t+t+t+u+v+v+v+w+w+x+y+y+y+y+y+z+z+A+A+A+A+B+B+C+C+C+C+C+D+D+E+E+E+E+F+F+F+G+H+H+I+I+I+J+J+J+K+K+K+K+L+L+M+N+N+N+O+O+P+P+P+Q+Q+R+R+S+S+S+T+U+U+V+V+V+V+V+W+X+X+X+X+X+Y+Z+`+`+`+`+`+ @ @.@.@.@.@+@@@@@@@#@#@#@$@$@$@$@$@%@&@*@*@*@*@*@=@-@-@-@-@-@;@;@>@>@>@>@,@,@'@)@)@)@!@!@!@~@~@{@{@]@]@^@^@^@^@/@/@/@(@(@(@_@:@:@:@<@<@[@[@[@}@|@|@1@1@1@1@1@2@3@3@3@3@3@4@5@6@6@6@6@6@7@8@9@9@9@9@0@a@a@a@b@b@b@c@c@c@c@d@d@e@e@e@e@e@e@f@g@g@g@g@g@g@h@i@i@i@i@i@j@k@l@l@l@l@m@m@n@n@o@o@p@p@q@q@q@r@s@s@s@t@t@t@u@v@v@w@w@w@w@x@x@y@z@z@z@A@A@A@B@C@C@D@D@D@D@E@F@G@G@G@G@G@H@I@J@J@J@J@K@L@L@M@M@M@M@N@N@N@N@O@O@P@Q@Q@Q@Q@R@R@S@S@S@S@S@S@T@T@T@T@T@T@U@V@W@W@W@W@X@X@Y@Z@Z@Z@`@`@ # # #.#.#+#+#@#@#@#@#####$#$#$#$#%#&#&#*#*#*#=#=#=#-#-#-#;#;#;#;#>#,#'#'#'#'#)#)#!#~#~#~#~#{#{#]#^#^#^#^#/#(#(#_#_#_#:#<#<#<#<#[#[#}#}#}#}#}#}#|#|#|#|#",
"+ + + + @ @ @ @ @ @ # # $ $ $ $ % & & & * * = - - - - ; > > , , , , ' ) ) ! ! ! ! ~ { ] ] ] ] ^ ^ ^ / / / ( ( ( _ _ : < < < < [ [ } } } } | | 1 1 2 2 2 3 3 4 4 4 5 6 6 7 7 7 7 8 9 0 0 0 0 0 0 a a a a a a b b c c c c d e e f f f f g g g g h h i j j j j k l m m m m m n o p p p p q q r s s s t t t u v v w w w w x x y z z z A A A B C C C D D E E F F G G H H H H I J K K K K K L M M M M M M N O O O O O O P P Q Q Q Q R R R S S S T U U U U V W X X X X X Y Z ` ` ` ` `  ...........+.+.@.#.#.#.$.$.%.%.%.&.*.*.*.=.=.=.-.-.-.-.;.;.>.>.,.,.'.'.'.).).).!.~.~.{.{.{.{.].].^.^.^.^.^./.(.(.(.(.(._.:.<.<.<.<.<.[.[.[.}.}.}.|.1.1.1.1.2.2.3.3.3.3.3.4.5.6.6.6.6.6.7.8.8.8.8.8.9.9.0.a.a.a.b.b.c.c.d.d.d.e.e.f.f.f.g.h.h.i.i.i.i.j.j.j.k.k.k.l.l.m.n.n.n.o.o.o.o.p.p.q.q.q.q.q.r.r.s.s.s.s.t.t.u.u.u.u.u.v.w.w.x.x.x.y.z.z.z.A.A.A.B.B.B.B.B.C.D.D.D.D.D.D.E.F.F.F.F.F.F.G.H.H.H.H.H.I.J.J.K.K.K.L.L.M.M.N.N.O.O.P.P.P.P.Q.Q.Q.R.R.R.S.S.T.U.U.U.U.V.V.W.X.X.X.Y.Y.Y.Z.`.`. + + + +.+.+++++++++@+@+#+$+$+$+$+%+&+&+&+*+*+*+=+-+-+-+-+;+>+,+,+,+,+,+'+)+)+)+)+)+)+!+~+~+~+~+~+{+]+^+^+^+^+/+(+(+(+_+_+_+:+<+<+<+<+[+}+}+|+|+|+|+1+1+2+2+2+2+3+3+4+5+5+5+6+6+6+7+8+8+9+9+9+9+0+a+a+b+b+b+c+c+c+d+d+d+d+e+e+f+f+g+g+h+h+i+i+i+j+j+k+l+l+l+l+l+m+n+n+n+n+n+n+o+p+p+p+p+p+p+q+r+r+r+r+r+s+s+s+t+t+t+u+v+v+v+w+w+x+y+y+y+y+y+z+z+A+A+A+A+B+B+C+C+C+C+C+D+D+E+E+E+E+F+F+F+G+H+H+I+I+I+J+J+J+K+K+K+K+L+L+M+N+N+N+O+O+P+P+P+Q+Q+R+R+S+S+S+T+U+U+V+V+V+V+V+W+X+X+X+X+X+Y+Z+`+`+`+`+`+ @ @.@.@.@.@+@@@@@@@#@#@#@$@$@$@$@$@%@&@*@*@*@*@*@=@-@-@-@-@-@;@;@>@>@>@>@,@,@'@)@)@)@!@!@!@~@~@{@{@]@]@^@^@^@^@/@/@/@(@(@(@_@:@:@:@<@<@[@[@[@}@|@|@1@1@1@1@1@2@3@3@3@3@3@4@5@6@6@6@6@6@7@8@9@9@9@9@0@a@a@a@b@b@b@c@c@c@c@d@d@e@e@e@e@e@e@f@g@g@g@g@g@g@h@i@i@i@i@i@j@k@l@l@l@l@m@m@n@n@o@o@p@p@q@q@q@r@s@s@s@t@t@t@u@v@v@w@w@w@w@x@x@y@z@z@z@A@A@A@B@C@C@D@D@D@D@E@F@G@G@G@G@G@H@I@J@J@J@J@K@L@L@M@M@M@M@N@N@N@N@O@O@P@Q@Q@Q@Q@R@R@S@S@S@S@S@S@T@T@T@T@T@T@U@V@W@W@W@W@X@X@Y@Z@Z@Z@`@`@ # # #.#.#+#+#@#@#@#@#####$#$#$#$#%#&#&#*#*#*#=#=#=#-#-#-#;#;#;#;#>#,#'#'#'#'#)#)#!#~#~#~#~#{#{#]#^#^#^#^#/#(#(#_#_#_#:#<#<#<#<#[#[#}#}#}#}#}#}#|#|#|#|#",
"+ + + + @ @ @ @ @ @ # # $ $ $ $ % & & & * * = - - - - ; > > , , , , ' ) ) ! ! ! ! ~ { ] ] ] ] ^ ^ ^ / / / ( ( ( _ _ : < < < < [ [ } } } } | | 1 1 2 2 2 3 3 4 4 4 5 6 6 7 7 7 7 8 9 0 0 0 0 0 0 a a a a a a b b c c c c d e e f f f f g g g g h h i j j j j k l m m m m m n o p p p p q q r s s s t t t u v v w w w w x x y z z z A A A B C C C D D E E F F G G H H H H I J K K K K K L M M M M M M N O O O O O O P P Q Q Q Q R R R S S S T U U U U V W X X X X X Y Z ` ` ` ` `  ...........+.+.@.#.#.#.$.$.%.%.%.&.*.*.*.=.=.=.-.-.-.-.;.;.>.>.,.,.'.'.'.).).).!.~.~.{.{.{.{.].].^.^.^.^.^./.(.(.(.(.(._.:.<.<.<.<.<.[.[.[.}.}.}.|.1.1.1.1.2.2.3.3.3.3.3.4.5.6.6.6.6.6.7.8.8.8.8.8.9.9.0.a.a.a.b.b.c.c.d.d.d.e.e.f.f.f.g.h.h.i.i.i.i.j.j.j.k.k.k.l.l.m.n.n.n.o.o.o.o.p.p.q.q.q.q.q.r.r.s.s.s.s.t.t.u.u.u.u.u.v.w.w.x.x.x.y.z.z.z.A.A.A.B.B.B.B.B.C.D.D.D.D.D.D.E.F.F.F.F.F.F.G.H.H.H.H.H.I.J.J.K.K.K.L.L.M.M.N.N.O.O.P.P.P.P.Q.Q.Q.R.R.R.S.S.T.U.U.U.U.V.V.W.X.X.X.Y.Y.Y.Z.`.`. + + + +.+.+++++++++@+@+#+$+$+$+$+%+&+&+&+*+*+*+=+-+-+-+-+;+>+,+,+,+,+,+'+)+)+)+)+)+)+!+~+~+~+~+~+{+]+^+^+^+^+/+(+(+(+_+_+_+:+<+<+<+<+[+}+}+|+|+|+|+1+1+2+2+2+2+3+3+4+5+5+5+6+6+6+7+8+8+9+9+9+9+0+a+a+b+b+b+c+c+c+d+d+d+d+e+e+f+f+g+g+h+h+i+i+i+j+j+k+l+l+l+l+l+m+n+n+n+n+n+n+o+p+p+p+p+p+p+q+r+r+r+r+r+s+s+s+t+t+t+u+v+v+v+w+w+x+y+y+y+y+y+z+z+A+A+A+A+B+B+C+C+C+C+C+D+D+E+E+E+E+F+F+F+G+H+H+I+I+I+J+J+J+K+K+K+K+L+L+M+N+N+N+O+O+P+P+P+Q+Q+R+R+S+S+S+T+U+U+V+V+V+V+V+W+X+X+X+X+X+Y+Z+`+`+`+`+`+ @ @.@.@.@.@+@@@@@@@#@#@#@$@$@$@$@$@%@&@*@*@*@*@*@=@-@-@-@-@-@;@;@>@>@>@>@,@,@'@)@)@)@!@!@!@~@~@{@{@]@]@^@^@^@^@/@/@/@(@(@(@_@:@:@:@<@<@[@[@[@}@|@|@1@1@1@1@1@2@3@3@3@3@3@4@5@6@6@6@6@6@7@8@9@9@9@9@0@a@a@a@b@b@b@c@c@c@c@d@d@e@e@e@e@e@e@f@g@g@g@g@g@g@h@i@i@i@i@i@j@k@l@l@l@l@m@m@n@n@o@o@p@p@q@q@q@r@s@s@s@t@t@t@u@v@v@w@w@w@w@x@x@y@z@z@z@A@A@A@B@C@C@D@D@D@D@E@F@G@G@G@G@G@H@I@J@J@J@J@K@L@L@M@M@M@M@N@N@N@N@O@O@P@Q@Q@Q@Q@R@R@S@S@S@S@S@S@T@T@T@T@T@T@U@V@W@W@W@W@X@X@Y@Z@Z@Z@`@`@ # # #.#.#+#+#@#@#@#@#####$#$#$#$#%#&#&#*#*#*#=#=#=#-#-#-#;#;#;#;#>#,#'#'#'#'#)#)#!#~#~#~#~#{#{#]#^#^#^#^#/#(#(#_#_#_#:#<#<#<#<#[#[#}#}#}#}#}#}#|#|#|#|#",
"+ + + + @ @ @ @ @ @ # # $ $ $ $ % & & & * * = - - - - ; > > , , , , ' ) ) ! ! ! ! ~ { ] ] ] ] ^ ^ ^ / / / ( ( ( _ _ : < < < < [ [ } } } } | | 1 1 2 2 2 3 3 4 4 4 5 6 6 7 7 7 7 8 9 0 0 0 0 0 0 a a a a a a b b c c c c d e e f f f f g g g g h h i j j j j k l m m m m m n o p p p p q q r s s s t t t u v v w w w w x x y z z z A A A B C C C D D E E F F G G H H H H I J K K K K K L M M M M M M N O O O O O O P P Q Q Q Q R R R S S S T U U U U V W X X X X X Y Z ` ` ` ` `  ...........+.+.@.#.#.#.$.$.%.%.%.&.*.*.*.=.=.=.-.-.-.-.;.;.>.>.,.,.'.'.'.).).).!.~.~.{.{.{.{.].].^.^.^.^.^./.(.(.(.(.(._.:.<.<.<.<.<.[.[.[.}.}.}.|.1.1.1.1.2.2.3.3.3.3.3.4.5.6.6.6.6.6.7.8.8.8.8.8.9.9.0.a.a.a.b.b.c.c.d.d.d.e.e.f.f.f.g.h.h.i.i.i.i.j.j.j.k.k.k.l.l.m.n.n.n.o.o.o.o.p.p.q.q.q.q.q.r.r.s.s.s.s.t.t.u.u.u.u.u.v.w.w.x.x.x.y.z.z.z.A.A.A.B.B.B.B.B.C.D.D.D.D.D.D.E.F.F.F.F.F.F.G.H.H.H.H.H.I.J.J.K.K.K.L.L.M.M.N.N.O.O.P.P.P.P.Q.Q.Q.R.R.R.S.S.T.U.U.U.U.V.V.W.X.X.X.Y.Y.Y.Z.`.`. + + + +.+.+++++++++@+@+#+$+$+$+$+%+&+&+&+*+*+*+=+-+-+-+-+;+>+,+,+,+,+,+'+)+)+)+)+)+)+!+~+~+~+~+~+{+]+^+^+^+^+/+(+(+(+_+_+_+:+<+<+<+<+[+}+}+|+|+|+|+1+1+2+2+2+2+3+3+4+5+5+5+6+6+6+7+8+8+9+9+9+9+0+a+a+b+b+b+c+c+c+d+d+d+d+e+e+f+f+g+g+h+h+i+i+i+j+j+k+l+l+l+l+l+m+n+n+n+n+n+n+o+p+p+p+p+p+p+q+r+r+r+r+r+s+s+s+t+t+t+u+v+v+v+w+w+x+y+y+y+y+y+z+z+A+A+A+A+B+B+C+C+C+C+C+D+D+E+E+E+E+F+F+F+G+H+H+I+I+I+J+J+J+K+K+K+K+L+L+M+N+N+N+O+O+P+P+P+Q+Q+R+R+S+S+S+T+U+U+V+V+V+V+V+W+X+X+X+X+X+Y+Z+`+`+`+`+`+ @ @.@.@.@.@+@@@@@@@#@#@#@$@$@$@$@$@%@&@*@*@*@*@*@=@-@-@-@-@-@;@;@>@>@>@>@,@,@'@)@)@)@!@!@!@~@~@{@{@]@]@^@^@^@^@/@/@/@(@(@(@_@:@:@:@<@<@[@[@[@}@|@|@1@1@1@1@1@2@3@3@3@3@3@4@5@6@6@6@6@6@7@8@9@9@9@9@0@a@a@a@b@b@b@c@c@c@c@d@d@e@e@e@e@e@e@f@g@g@g@g@g@g@h@i@i@i@i@i@j@k@l@l@l@l@m@m@n@n@o@o@p@p@q@q@q@r@s@s@s@t@t@t@u@v@v@w@w@w@w@x@x@y@z@z@z@A@A@A@B@C@C@D@D@D@D@E@F@G@G@G@G@G@H@I@J@J@J@J@K@L@L@M@M@M@M@N@N@N@N@O@O@P@Q@Q@Q@Q@R@R@S@S@S@S@S@S@T@T@T@T@T@T@U@V@W@W@W@W@X@X@Y@Z@Z@Z@`@`@ # # #.#.#+#+#@#@#@#@#####$#$#$#$#%#&#&#*#*#*#=#=#=#-#-#-#;#;#;#;#>#,#'#'#'#'#)#)#!#~#~#~#~#{#{#]#^#^#^#^#/#(#(#_#_#_#:#<#<#<#<#[#[#}#}#}#}#}#}#|#|#|#|#",
"+ + + + @ @ @ @ @ @ # # $ $ $ $ % & & & * * = - - - - ; > > , , , , ' ) ) ! ! ! ! ~ { ] ] ] ] ^ ^ ^ / / / ( ( ( _ _ : < < < < [ [ } } } } | | 1 1 2 2 2 3 3 4 4 4 5 6 6 7 7 7 7 8 9 0 0 0 0 0 0 a a a a a a b b c c c c d e e f f f f g g g g h h i j j j j k l m m m m m n o p p p p q q r s s s t t t u v v w w w w x x y z z z A A A B C C C D D E E F F G G H H H H I J K K K K K L M M M M M M N O O O O O O P P Q Q Q Q R R R S S S T U U U U V W X X X X X Y Z ` ` ` ` `  ...........+.+.@.#.#.#.$.$.%.%.%.&.*.*.*.=.=.=.-.-.-.-.;.;.>.>.,.,.'.'.'.).).).!.~.~.{.{.{.{.].].^.^.^.^.^./.(.(.(.(.(._.:.<.<.<.<.<.[.[.[.}.}.}.|.1.1.1.1.2.2.3.3.3.3.3.4.5.6.6.6.6.6.7.8.8.8.8.8.9.9.0.a.a.a.b.b.c.c.d.d.d.e.e.f.f.f.g.h.h.i.i.i.i.j.j.j.k.k.k.l.l.m.n.n.n.o.o.o.o.p.p.q.q.q.q.q.r.r.s.s.s.s.t.t.u.u.u.u.u.v.w.w.x.x.x.y.z.z.z.A.A.A.B.B.B.B.B.C.D.D.D.D.D.D.E.F.F.F.F.F.F.G.H.H.H.H.H.I.J.J.K.K.K.L.L.M.M.N.N.O.O.P.P.P.P.Q.Q.Q.R.R.R.S.S.T.U.U.U.U.V.V.W.X.X.X.Y.Y.Y.Z.`.`. + + + +.+.+++++++++@+@+#+$+$+$+$+%+&+&+&+*+*+*+=+-+-+-+-+;+>+,+,+,+,+,+'+)+)+)+)+)+)+!+~+~+~+~+~+{+]+^+^+^+^+/+(+(+(+_+_+_+:+<+<+<+<+[+}+}+|+|+|+|+1+1+2+2+2+2+3+3+4+5+5+5+6+6+6+7+8+8+9+9+9+9+0+a+a+b+b+b+c+c+c+d+d+d+d+e+e+f+f+g+g+h+h+i+i+i+j+j+k+l+l+l+l+l+m+n+n+n+n+n+n+o+p+p+p+p+p+p+q+r+r+r+r+r+s+s+s+t+t+t+u+v+v+v+w+w+x+y+y+y+y+y+z+z+A+A+A+A+B+B+C+C+C+C+C+D+D+E+E+E+E+F+F+F+G+H+H+I+I+I+J+J+J+K+K+K+K+L+L+M+N+N+N+O+O+P+P+P+Q+Q+R+R+S+S+S+T+U+U+V+V+V+V+V+W+X+X+X+X+X+Y+Z+`+`+`+`+`+ @ @.@.@.@.@+@@@@@@@#@#@#@$@$@$@$@$@%@&@*@*@*@*@*@=@-@-@-@-@-@;@;@>@>@>@>@,@,@'@)@)@)@!@!@!@~@~@{@{@]@]@^@^@^@^@/@/@/@(@(@(@_@:@:@:@<@<@[@[@[@}@|@|@1@1@1@1@1@2@3@3@3@3@3@4@5@6@6@6@6@6@7@8@9@9@9@9@0@a@a@a@b@b@b@c@c@c@c@d@d@e@e@e@e@e@e@f@g@g@g@g@g@g@h@i@i@i@i@i@j@k@l@l@l@l@m@m@n@n@o@o@p@p@q@q@q@r@s@s@s@t@t@t@u@v@v@w@w@w@w@x@x@y@z@z@z@A@A@A@B@C@C@D@D@D@D@E@F@G@G@G@G@G@H@I@J@J@J@J@K@L@L@M@M@M@M@N@N@N@N@O@O@P@Q@Q@Q@Q@R@R@S@S@S@S@S@S@T@T@T@T@T@T@U@V@W@W@W@W@X@X@Y@Z@Z@Z@`@`@ # # #.#.#+#+#@#@#@#@#####$#$#$#$#%#&#&#*#*#*#=#=#=#-#-#-#;#;#;#;#>#,#'#'#'#'#)#)#!#~#~#~#~#{#{#]#^#^#^#^#/#(#(#_#_#_#:#<#<#<#<#[#[#}#}#}#}#}#}#|#|#|#|#",
"+ + + + @ @ @ @ @ @ # # $ $ $ $ % & & & * * = - - - - ; > > , , , , ' ) ) ! ! ! ! ~ { ] ] ] ] ^ ^ ^ / / / ( ( ( _ _ : < < < < [ [ } } } } | | 1 1 2 2 2 3 3 4 4 4 5 6 6 7 7 7 7 8 9 0 0 0 0 0 0 a a a a a a b b c c c c d e e f f f f g g g g h h i j j j j k l m m m m m n o p p p p q q r s s s t t t u v v w w w w x x y z z z A A A B C C C D D E E F F G G H H H H I J K K K K K L M M M M M M N O O O O O O P P Q Q Q Q R R R S S S T U U U U V W X X X X X Y Z ` ` ` ` `  ...........+.+.@.#.#.#.$.$.%.%.%.&.*.*.*.=.=.=.-.-.-.-.;.;.>.>.,.,.'.'.'.).).).!.~.~.{.{.{.{.].].^.^.^.^.^./.(.(.(.(.(._.:.<.<.<.<.<.[.[.[.}.}.}.|.1.1.1.1.2.2.3.3.3.3.3.4.5.6.6.6.6.6.7.8.8.8.8.8.9.9.0.a.a.a.b.b.c.c.d.d.d.e.e.f.f.f.g.h.h.i.i.i.i.j.j.j.k.k.k.l.l.m.n.n.n.o.o.o.o.p.p.q.q.q.q.q.r.r.s.s.s.s.t.t.u.u.u.u.u.v.w.w.x.x.x.y.z.z.z.A.A.A.B.B.B.B.B.C.D.D.D.D.D.D.E.F.F.F.F.F.F.G.H.H.H.H.H.I.J.J.K.K.K.L.L.M.M.N.N.O.O.P.P.P.P.Q.Q.Q.R.R.R.S.S.T.U.U.U.U.V.V.W.X.X.X.Y.Y.Y.Z.`.`. + + + +.+.+++++++++@+@+#+$+$+$+$+%+&+&+&+*+*+*+=+-+-+-+-+;+>+,+,+,+,+,+'+)+)+)+)+)+)+!+~+~+~+~+~+{+]+^+^+^+^+/+(+(+(+_+_+_+:+<+<+<+<+[+}+}+|+|+|+|+1+1+2+2+2+2+3+3+4+5+5+5+6+6+6+7+8+8+9+9+9+9+0+a+a+b+b+b+c+c+c+d+d+d+d+e+e+f+f+g+g+h+h+i+i+i+j+j+k+l+l+l+l+l+m+n+n+n+n+n+n+o+p+p+p+p+p+p+q+r+r+r+r+r+s+s+s+t+t+t+u+v+v+v+w+w+x+y+y+y+y+y+z+z+A+A+A+A+B+B+C+C+C+C+C+D+D+E+E+E+E+F+F+F+G+H+H+I+I+I+J+J+J+K+K+K+K+L+L+M+N+N+N+O+O+P+P+P+Q+Q+R+R+S+S+S+T+U+U+V+V+V+V+V+W+X+X+X+X+X+Y+Z+`+`+`+`+`+ @ @.@.@.@.@+@@@@@@@#@#@#@$@$@$@$@$@%@&@*@*@*@*@*@=@-@-@-@-@-@;@;@>@>@>@>@,@,@'@)@)@)@!@!@!@~@~@{@{@]@]@^@^@^@^@/@/@/@(@(@(@_@:@:@:@<@<@[@[@[@}@|@|@1@1@1@1@1@2@3@3@3@3@3@4@5@6@6@6@6@6@7@8@9@9@9@9@0@a@a@a@b@b@b@c@c@c@c@d@d@e@e@e@e@e@e@f@g@g@g@g@g@g@h@i@i@i@i@i@j@k@l@l@l@l@m@m@n@n@o@o@p@p@q@q@q@r@s@s@s@t@t@t@u@v@v@w@w@w@w@x@x@y@z@z@z@A@A@A@B@C@C@D@D@D@D@E@F@G@G@G@G@G@H@I@J@J@J@J@K@L@L@M@M@M@M@N@N@N@N@O@O@P@Q@Q@Q@Q@R@R@S@S@S@S@S@S@T@T@T@T@T@T@U@V@W@W@W@W@X@X@Y@Z@Z@Z@`@`@ # # #.#.#+#+#@#@#@#@#####$#$#$#$#%#&#&#*#*#*#=#=#=#-#-#-#;#;#;#;#>#,#'#'#'#'#)#)#!#~#~#~#~#{#{#]#^#^#^#^#/#(#(#_#_#_#:#<#<#<#<#[#[#}#}#}#}#}#}#|#|#|#|#",
"+ + + + @ @ @ @ @ @ # # $ $ $ $ % & & & * * = - - - - ; > > , , , , ' ) ) ! ! ! ! ~ { ] ] ] ] ^ ^ ^ / / / ( ( ( _ _ : < < < < [ [ } } } } | | 1 1 2 2 2 3 3 4 4 4 5 6 6 7 7 7 7 8 9 0 0 0 0 0 0 a a a a a a b b c c c c d e e f f f f g g g g h h i j j j j k l m m m m m n o p p p p q q r s s s t t t u v v w w w w x x y z z z A A A B C C C D D E E F F G G H H H H I J K K K K K L M M M M M M N O O O O O O P P Q Q Q Q R R R S S S T U U U U V W X X X X X Y Z ` ` ` ` `  ...........+.+.@.#.#.#.$.$.%.%.%.&.*.*.*.=.=.=.-.-.-.-.;.;.>.>.,.,.'.'.'.).).).!.~.~.{.{.{.{.].].^.^.^.^.^./.(.(.(.(.(._.:.<.<.<.<.<.[.[.[.}.}.}.|.1.1.1.1.2.2.3.3.3.3.3.4.5.6.6.6.6.6.7.8.8.8.8.8.9.9.0.a.a.a.b.b.c.c.d.d.d.e.e.f.f.f.g.h.h.i.i.i.i.j.j.j.k.k.k.l.l.m.n.n.n.o.o.o.o.p.p.q.q.q.q.q.r.r.s.s.s.s.t.t.u.u.u.u.u.v.w.w.x.x.x.y.z.z.z.A.A.A.B.B.B.B.B.C.D.D.D.D.D.D.E.F.F.F.F.F.F.G.H.H.H.H.H.I.J.J.K.K.K.L.L.M.M.N.N.O.O.P.P.P.P.Q.Q.Q.R.R.R.S.S.T.U.U.U.U.V.V.W.X.X.X.Y.Y.Y.Z.`.`. + + + +.+.+++++++++@+@+#+$+$+$+$+%+&+&+&+*+*+*+=+-+-+-+-+;+>+,+,+,+,+,+'+)+)+)+)+)+)+!+~+~+~+~+~+{+]+^+^+^+^+/+(+(+(+_+_+_+:+<+<+<+<+[+}+}+|+|+|+|+1+1+2+2+2+2+3+3+4+5+5+5+6+6+6+7+8+8+9+9+9+9+0+a+a+b+b+b+c+c+c+d+d+d+d+e+e+f+f+g+g+h+h+i+i+i+j+j+k+l+l+l+l+l+m+n+n+n+n+n+n+o+p+p+p+p+p+p+q+r+r+r+r+r+s+s+s+t+t+t+u+v+v+v+w+w+x+y+y+y+y+y+z+z+A+A+A+A+B+B+C+C+C+C+C+D+D+E+E+E+E+F+F+F+G+H+H+I+I+I+J+J+J+K+K+K+K+L+L+M+N+N+N+O+O+P+P+P+Q+Q+R+R+S+S+S+T+U+U+V+V+V+V+V+W+X+X+X+X+X+Y+Z+`+`+`+`+`+ @ @.@.@.@.@+@@@@@@@#@#@#@$@$@$@$@$@%@&@*@*@*@*@*@=@-@-@-@-@-@;@;@>@>@>@>@,@,@'@)@)@)@!@!@!@~@~@{@{@]@]@^@^@^@^@/@/@/@(@(@(@_@:@:@:@<@<@[@[@[@}@|@|@1@1@1@1@1@2@3@3@3@3@3@4@5@6@6@6@6@6@7@8@9@9@9@9@0@a@a@a@b@b@b@c@c@c@c@d@d@e@e@e@e@e@e@f@g@g@g@g@g@g@h@i@i@i@i@i@j@k@l@l@l@l@m@m@n@n@o@o@p@p@q@q@q@r@s@s@s@t@t@t@u@v@v@w@w@w@w@x@x@y@z@z@z@A@A@A@B@C@C@D@D@D@D@E@F@G@G@G@G@G@H@I@J@J@J@J@K@L@L@M@M@M@M@N@N@N@N@O@O@P@Q@Q@Q@Q@R@R@S@S@S@S@S@S@T@T@T@T@T@T@U@V@W@W@W@W@X@X@Y@Z@Z@Z@`@`@ # # #.#.#+#+#@#@#@#@#####$#$#$#$#%#&#&#*#*#*#=#=#=#-#-#-#;#;#;#;#>#,#'#'#'#'#)#)#!#~#~#~#~#{#{#]#^#^#^#^#/#(#(#_#_#_#:#<#<#<#<#[#[#}#}#}#}#}#}#|#|#|#|#",
"+ + + + @ @ @ @ @ @ # # $ $ $ $ % & & & * * = - - - - ; > > , , , , ' ) ) ! ! ! ! ~ { ] ] ] ] ^ ^ ^ / / / ( ( ( _ _ : < < < < [ [ } } } } | | 1 1 2 2 2 3 3 4 4 4 5 6 6 7 7 7 7 8 9 0 0 0 0 0 0 a a a a a a b b c c c c d e e f f f f g g g g h h i j j j j k l m m m m m n o p p p p q q r s s s t t t u v v w w w w x x y z z z A A A B C C C D D E E F F G G H H H H I J K K K K K L M M M M M M N O O O O O O P P Q Q Q Q R R R S S S T U U U U V W X X X X X Y Z ` ` ` ` `  ...........+.+.@.#.#.#.$.$.%.%.%.&.*.*.*.=.=.=.-.-.-.-.;.;.>.>.,.,.'.'.'.).).).!.~.~.{.{.{.{.].].^.^.^.^.^./.(.(.(.(.(._.:.<.<.<.<.<.[.[.[.}.}.}.|.1.1.1.1.2.2.3.3.3.3.3.4.5.6.6.6.6.6.7.8.8.8.8.8.9.9.0.a.a.a.b.b.c.c.d.d.d.e.e.f.f.f.g.h.h.i.i.i.i.j.j.j.k.k.k.l.l.m.n.n.n.o.o.o.o.p.p.q.q.q.q.q.r.r.s.s.s.s.t.t.u.u.u.u.u.v.w.w.x.x.x.y.z.z.z.A.A.A.B.B.B.B.B.C.D.D.D.D.D.D.E.F.F.F.F.F.F.G.H.H.H.H.H.I.J.J.K.K.K.L.L.M.M.N.N.O.O.P.P.P.P.Q.Q.Q.R.R.R.S.S.T.U.U.U.U.V.V.W.X.X.X.Y.Y.Y.Z.`.`. + + + +.+.+++++++++@+@+#+$+$+$+$+%+&+&+&+*+*+*+=+-+-+-+-+;+>+,+,+,+,+,+'+)+)+)+)+)+)+!+~+~+~+~+~+{+]+^+^+^+^+/+(+(+(+_+_+_+:+<+<+<+<+[+}+}+|+|+|+|+1+1+2+2+2+2+3+3+4+5+5+5+6+6+6+7+8+8+9+9+9+9+0+a+a+b+b+b+c+c+c+d+d+d+d+e+e+f+f+g+g+h+h+i+i+i+j+j+k+l+l+l+l+l+m+n+n+n+n+n+n+o+p+p+p+p+p+p+q+r+r+r+r+r+s+s+s+t+t+t+u+v+v+v+w+w+x+y+y+y+y+y+z+z+A+A+A+A+B+B+C+C+C+C+C+D+D+E+E+E+E+F+F+F+G+H+H+I+I+I+J+J+J+K+K+K+K+L+L+M+N+N+N+O+O+P+P+P+Q+Q+R+R+S+S+S+T+U+U+V+V+V+V+V+W+X+X+X+X+X+Y+Z+`+`+`+`+`+ @ @.@.@.@.@+@@@@@@@#@#@#@$@$@$@$@$@%@&@*@*@*@*@*@=@-@-@-@-@-@;@;@>@>@>@>@,@,@'@)@)@)@!@!@!@~@~@{@{@]@]@^@^@^@^@/@/@/@(@(@(@_@:@:@:@<@<@[@[@[@}@|@|@1@1@1@1@1@2@3@3@3@3@3@4@5@6@6@6@6@6@7@8@9@9@9@9@0@a@a@a@b@b@b@c@c@c@c@d@d@e@e@e@e@e@e@f@g@g@g@g@g@g@h@i@i@i@i@i@j@k@l@l@l@l@m@m@n@n@o@o@p@p@q@q@q@r@s@s@s@t@t@t@u@v@v@w@w@w@w@x@x@y@z@z@z@A@A@A@B@C@C@D@D@D@D@E@F@G@G@G@G@G@H@I@J@J@J@J@K@L@L@M@M@M@M@N@N@N@N@O@O@P@Q@Q@Q@Q@R@R@S@S@S@S@S@S@T@T@T@T@T@T@U@V@W@W@W@W@X@X@Y@Z@Z@Z@`@`@ # # #.#.#+#+#@#@#@#@#####$#$#$#$#%#&#&#*#*#*#=#=#=#-#-#-#;#;#;#;#>#,#'#'#'#'#)#)#!#~#~#~#~#{#{#]#^#^#^#^#/#(#(#_#_#_#:#<#<#<#<#[#[#}#}#}#}#}#}#|#|#|#|#",
"+ + + + @ @ @ @ @ @ # # $ $ $ $ % & & & * * = - - - - ; > > , , , , ' ) ) ! ! ! ! ~ { ] ] ] ] ^ ^ ^ / / / ( ( ( _ _ : < < < < [ [ } } } } | | 1 1 2 2 2 3 3 4 4 4 5 6 6 7 7 7 7 8 9 0 0 0 0 0 0 a a a a a a b b c c c c d e e f f f f g g g g h h i j j j j k l m m m m m n o p p p p q q r s s s t t t u v v w w w w x x y z z z A A A B C C C D D E E F F G G H H H H I J K K K K K L M M M M M M N O O O O O O P P Q Q Q Q R R R S S S T U U U U V W X X X X X Y Z ` ` ` ` `  ...........+.+.@.#.#.#.$.$.%.%.%.&.*.*.*.=.=.=.-.-.-.-.;.;.>.>.,.,.'.'.'.).).).!.~.~.{.{.{.{.].].^.^.^.^.^./.(.(.(.(.(._.:.<.<.<.<.<.[.[.[.}.}.}.|.1.1.1.1.2.2.3.3.3.3.3.4.5.6.6.6.6.6.7.8.8.8.8.8.9.9.0.a.a.a.b.b.c.c.d.d.d.e.e.f.f.f.g.h.h.i.i.i.i.j.j.j.k.k.k.l.l.m.n.n.n.o.o.o.o.p.p.q.q.q.q.q.r.r.s.s.s.s.t.t.u.u.u.u.u.v.w.w.x.x.x.y.z.z.z.A.A.A.B.B.B.B.B.C.D.D.D.D.D.D.E.F.F.F.F.F.F.G.H.H.H.H.H.I.J.J.K.K.K.L.L.M.M.N.N.O.O.P.P.P.P.Q.Q.Q.R.R.R.S.S.T.U.U.U.U.V.V.W.X.X.X.Y.Y.Y.Z.`.`. + + + +.+.+++++++++@+@+#+$+$+$+$+%+&+&+&+*+*+*+=+-+-+-+-+;+>+,+,+,+,+,+'+)+)+)+)+)+)+!+~+~+~+~+~+{+]+^+^+^+^+/+(+(+(+_+_+_+:+<+<+<+<+[+}+}+|+|+|+|+1+1+2+2+2+2+3+3+4+5+5+5+6+6+6+7+8+8+9+9+9+9+0+a+a+b+b+b+c+c+c+d+d+d+d+e+e+f+f+g+g+h+h+i+i+i+j+j+k+l+l+l+l+l+m+n+n+n+n+n+n+o+p+p+p+p+p+p+q+r+r+r+r+r+s+s+s+t+t+t+u+v+v+v+w+w+x+y+y+y+y+y+z+z+A+A+A+A+B+B+C+C+C+C+C+D+D+E+E+E+E+F+F+F+G+H+H+I+I+I+J+J+J+K+K+K+K+L+L+M+N+N+N+O+O+P+P+P+Q+Q+R+R+S+S+S+T+U+U+V+V+V+V+V+W+X+X+X+X+X+Y+Z+`+`+`+`+`+ @ @.@.@.@.@+@@@@@@@#@#@#@$@$@$@$@$@%@&@*@*@*@*@*@=@-@-@-@-@-@;@;@>@>@>@>@,@,@'@)@)@)@!@!@!@~@~@{@{@]@]@^@^@^@^@/@/@/@(@(@(@_@:@:@:@<@<@[@[@[@}@|@|@1@1@1@1@1@2@3@3@3@3@3@4@5@6@6@6@6@6@7@8@9@9@9@9@0@a@a@a@b@b@b@c@c@c@c@d@d@e@e@e@e@e@e@f@g@g@g@g@g@g@h@i@i@i@i@i@j@k@l@l@l@l@m@m@n@n@o@o@p@p@q@q@q@r@s@s@s@t@t@t@u@v@v@w@w@w@w@x@x@y@z@z@z@A@A@A@B@C@C@D@D@D@D@E@F@G@G@G@G@G@H@I@J@J@J@J@K@L@L@M@M@M@M@N@N@N@N@O@O@P@Q@Q@Q@Q@R@R@S@S@S@S@S@S@T@T@T@T@T@T@U@V@W@W@W@W@X@X@Y@Z@Z@Z@`@`@ # # #.#.#+#+#@#@#@#@#####$#$#$#$#%#&#&#*#*#*#=#=#=#-#-#-#;#;#;#;#>#,#'#'#'#'#)#)#!#~#~#~#~#{#{#]#^#^#^#^#/#(#(#_#_#_#:#<#<#<#<#[#[#}#}#}#}#}#}#|#|#|#|#",
"+ + + + @ @ @ @ @ @ # # $ $ $ $ % & & & * * = - - - - ; > > , , , , ' ) ) ! ! ! ! ~ { ] ] ] ] ^ ^ ^ / / / ( ( ( _ _ : < < < < [ [ } } } } | | 1 1 2 2 2 3 3 4 4 4 5 6 6 7 7 7 7 8 9 0 0 0 0 0 0 a a a a a a b b c c c c d e e f f f f g g g g h h i j j j j k l m m m m m n o p p p p q q r s s s t t t u v v w w w w x x y z z z A A A B C C C D D E E F F G G H H H H I J K K K K K L M M M M M M N O O O O O O P P Q Q Q Q R R R S S S T U U U U V W X X X X X Y Z ` ` ` ` `  ...........+.+.@.#.#.#.$.$.%.%.%.&.*.*.*.=.=.=.-.-.-.-.;.;.>.>.,.,.'.'.'.).).).!.~.~.{.{.{.{.].].^.^.^.^.^./.(.(.(.(.(._.:.<.<.<.<.<.[.[.[.}.}.}.|.1.1.1.1.2.2.3.3.3.3.3.4.5.6.6.6.6.6.7.8.8.8.8.8.9.9.0.a.a.a.b.b.c.c.d.d.d.e.e.f.f.f.g.h.h.i.i.i.i.j.j.j.k.k.k.l.l.m.n.n.n.o.o.o.o.p.p.q.q.q.q.q.r.r.s.s.s.s.t.t.u.u.u.u.u.v.w.w.x.x.x.y.z.z.z.A.A.A.B.B.B.B.B.C.D.D.D.D.D.D.E.F.F.F.F.F.F.G.H.H.H.H.H.I.J.J.K.K.K.L.L.M.M.N.N.O.O.P.P.P.P.Q.Q.Q.R.R.R.S.S.T.U.U.U.U.V.V.W.X.X.X.Y.Y.Y.Z.`.`. + + + +.+.+++++++++@+@+#+$+$+$+$+%+&+&+&+*+*+*+=+-+-+-+-+;+>+,+,+,+,+,+'+)+)+)+)+)+)+!+~+~+~+~+~+{+]+^+^+^+^+/+(+(+(+_+_+_+:+<+<+<+<+[+}+}+|+|+|+|+1+1+2+2+2+2+3+3+4+5+5+5+6+6+6+7+8+8+9+9+9+9+0+a+a+b+b+b+c+c+c+d+d+d+d+e+e+f+f+g+g+h+h+i+i+i+j+j+k+l+l+l+l+l+m+n+n+n+n+n+n+o+p+p+p+p+p+p+q+r+r+r+r+r+s+s+s+t+t+t+u+v+v+v+w+w+x+y+y+y+y+y+z+z+A+A+A+A+B+B+C+C+C+C+C+D+D+E+E+E+E+F+F+F+G+H+H+I+I+I+J+J+J+K+K+K+K+L+L+M+N+N+N+O+O+P+P+P+Q+Q+R+R+S+S+S+T+U+U+V+V+V+V+V+W+X+X+X+X+X+Y+Z+`+`+`+`+`+ @ @.@.@.@.@+@@@@@@@#@#@#@$@$@$@$@$@%@&@*@*@*@*@*@=@-@-@-@-@-@;@;@>@>@>@>@,@,@'@)@)@)@!@!@!@~@~@{@{@]@]@^@^@^@^@/@/@/@(@(@(@_@:@:@:@<@<@[@[@[@}@|@|@1@1@1@1@1@2@3@3@3@3@3@4@5@6@6@6@6@6@7@8@9@9@9@9@0@a@a@a@b@b@b@c@c@c@c@d@d@e@e@e@e@e@e@f@g@g@g@g@g@g@h@i@i@i@i@i@j@k@l@l@l@l@m@m@n@n@o@o@p@p@q@q@q@r@s@s@s@t@t@t@u@v@v@w@w@w@w@x@x@y@z@z@z@A@A@A@B@C@C@D@D@D@D@E@F@G@G@G@G@G@H@I@J@J@J@J@K@L@L@M@M@M@M@N@N@N@N@O@O@P@Q@Q@Q@Q@R@R@S@S@S@S@S@S@T@T@T@T@T@T@U@V@W@W@W@W@X@X@Y@Z@Z@Z@`@`@ # # #.#.#+#+#@#@#@#@#####$#$#$#$#%#&#&#*#*#*#=#=#=#-#-#-#;#;#;#;#>#,#'#'#'#'#)#)#!#~#~#~#~#{#{#]#^#^#^#^#/#(#(#_#_#_#:#<#<#<#<#[#[#}#}#}#}#}#}#|#|#|#|#",
"+ + + + @ @ @ @ @ @ # # $ $ $ $ % & & & * * = - - - - ; > > , , , , ' ) ) ! ! ! ! ~ { ] ] ] ] ^ ^ ^ / / / ( ( ( _ _ : < < < < [ [ } } } } | | 1 1 2 2 2 3 3 4 4 4 5 6 6 7 7 7 7 8 9 0 0 0 0 0 0 a a a a a a b b c c c c d e e f f f f g g g g h h i j j j j k l m m m m m n o p p p p q q r s s s t t t u v v w w w w x x y z z z A A A B C C C D D E E F F G G H H H H I J K K K K K L M M M M M M N O O O O O O P P Q Q Q Q R R R S S S T U U U U V W X X X X X Y Z ` ` ` ` `  ...........+.+.@.#.#.#.$.$.%.%.%.&.*.*.*.=.=.=.-.-.-.-.;.;.>.>.,.,.'.'.'.).).).!.~.~.{.{.{.{.].].^.^.^.^.^./.(.(.(.(.(._.:.<.<.<.<.<.[.[.[.}.}.}.|.1.1.1.1.2.2.3.3.3.3.3.4.5.6.6.6.6.6.7.8.8.8.8.8.9.9.0.a.a.a.b.b.c.c.d.d.d.e.e.f.f.f.g.h.h.i.i.i.i.j.j.j.k.k.k.l.l.m.n.n.n.o.o.o.o.p.p.q.q.q.q.q.r.r.s.s.s.s.t.t.u.u.u.u.u.v.w.w.x.x.x.y.z.z.z.A.A.A.B.B.B.B.B.C.D.D.D.D.D.D.E.F.F.F.F.F.F.G.H.H.H.H.H.I.J.J.K.K.K.L.L.M.M.N.N.O.O.P.P.P.P.Q.Q.Q.R.R.R.S.S.T.U.U.U.U.V.V.W.X.X.X.Y.Y.Y.Z.`.`. + + + +.+.+++++++++@+@+#+$+$+$+$+%+&+&+&+*+*+*+=+-+-+-+-+;+>+,+,+,+,+,+'+)+)+)+)+)+)+!+~+~+~+~+~+{+]+^+^+^+^+/+(+(+(+_+_+_+:+<+<+<+<+[+}+}+|+|+|+|+1+1+2+2+2+2+3+3+4+5+5+5+6+6+6+7+8+8+9+9+9+9+0+a+a+b+b+b+c+c+c+d+d+d+d+e+e+f+f+g+g+h+h+i+i+i+j+j+k+l+l+l+l+l+m+n+n+n+n+n+n+o+p+p+p+p+p+p+q+r+r+r+r+r+s+s+s+t+t+t+u+v+v+v+w+w+x+y+y+y+y+y+z+z+A+A+A+A+B+B+C+C+C+C+C+D+D+E+E+E+E+F+F+F+G+H+H+I+I+I+J+J+J+K+K+K+K+L+L+M+N+N+N+O+O+P+P+P+Q+Q+R+R+S+S+S+T+U+U+V+V+V+V+V+W+X+X+X+X+X+Y+Z+`+`+`+`+`+ @ @.@.@.@.@+@@@@@@@#@#@#@$@$@$@$@$@%@&@*@*@*@*@*@=@-@-@-@-@-@;@;@>@>@>@>@,@,@'@)@)@)@!@!@!@~@~@{@{@]@]@^@^@^@^@/@/@/@(@(@(@_@:@:@:@<@<@[@[@[@}@|@|@1@1@1@1@1@2@3@3@3@3@3@4@5@6@6@6@6@6@7@8@9@9@9@9@0@a@a@a@b@b@b@c@c@c@c@d@d@e@e@e@e@e@e@f@g@g@g@g@g@g@h@i@i@i@i@i@j@k@l@l@l@l@m@m@n@n@o@o@p@p@q@q@q@r@s@s@s@t@t@t@u@v@v@w@w@w@w@x@x@y@z@z@z@A@A@A@B@C@C@D@D@D@D@E@F@G@G@G@G@G@H@I@J@J@J@J@K@L@L@M@M@M@M@N@N@N@N@O@O@P@Q@Q@Q@Q@R@R@S@S@S@S@S@S@T@T@T@T@T@T@U@V@W@W@W@W@X@X@Y@Z@Z@Z@`@`@ # # #.#.#+#+#@#@#@#@#####$#$#$#$#%#&#&#*#*#*#=#=#=#-#-#-#;#;#;#;#>#,#'#'#'#'#)#)#!#~#~#~#~#{#{#]#^#^#^#^#/#(#(#_#_#_#:#<#<#<#<#[#[#}#}#}#}#}#}#|#|#|#|#",
"+ + + + @ @ @ @ @ @ # # $ $ $ $ % & & & * * = - - - - ; > > , , , , ' ) ) ! ! ! ! ~ { ] ] ] ] ^ ^ ^ / / / ( ( ( _ _ : < < < < [ [ } } } } | | 1 1 2 2 2 3 3 4 4 4 5 6 6 7 7 7 7 8 9 0 0 0 0 0 0 a a a a a a b b c c c c d e e f f f f g g g g h h i j j j j k l m m m m m n o p p p p q q r s s s t t t u v v w w w w x x y z z z A A A B C C C D D E E F F G G H H H H I J K K K K K L M M M M M M N O O O O O O P P Q Q Q Q R R R S S S T U U U U V W X X X X X Y Z ` ` ` ` `  ...........+.+.@.#.#.#.$.$.%.%.%.&.*.*.*.=.=.=.-.-.-.-.;.;.>.>.,.,.'.'.'.).).).!.~.~.{.{.{.{.].].^.^.^.^.^./.(.(.(.(.(._.:.<.<.<.<.<.[.[.[.}.}.}.|.1.1.1.1.2.2.3.3.3.3.3.4.5.6.6.6.6.6.7.8.8.8.8.8.9.9.0.a.a.a.b.b.c.c.d.d.d.e.e.f.f.f.g.h.h.i.i.i.i.j.j.j.k.k.k.l.l.m.n.n.n.o.o.o.o.p.p.q.q.q.q.q.r.r.s.s.s.s.t.t.u.u.u.u.u.v.w.w.x.x.x.y.z.z.z.A.A.A.B.B.B.B.B.C.D.D.D.D.D.D.E.F.F.F.F.F.F.G.H.H.H.H.H.I.J.J.K.K.K.L.L.M.M.N.N.O.O.P.P.P.P.Q.Q.Q.R.R.R.S.S.T.U.U.U.U.V.V.W.X.X.X.Y.Y.Y.Z.`.`. + + + +.+.+++++++++@+@+#+$+$+$+$+%+&+&+&+*+*+*+=+-+-+-+-+;+>+,+,+,+,+,+'+)+)+)+)+)+)+!+~+~+~+~+~+{+]+^+^+^+^+/+(+(+(+_+_+_+:+<+<+<+<+[+}+}+|+|+|+|+1+1+2+2+2+2+3+3+4+5+5+5+6+6+6+7+8+8+9+9+9+9+0+a+a+b+b+b+c+c+c+d+d+d+d+e+e+f+f+g+g+h+h+i+i+i+j+j+k+l+l+l+l+l+m+n+n+n+n+n+n+o+p+p+p+p+p+p+q+r+r+r+r+r+s+s+s+t+t+t+u+v+v+v+w+w+x+y+y+y+y+y+z+z+A+A+A+A+B+B+C+C+C+C+C+D+D+E+E+E+E+F+F+F+G+H+H+I+I+I+J+J+J+K+K+K+K+L+L+M+N+N+N+O+O+P+P+P+Q+Q+R+R+S+S+S+T+U+U+V+V+V+V+V+W+X+X+X+X+X+Y+Z+`+`+`+`+`+ @ @.@.@.@.@+@@@@@@@#@#@#@$@$@$@$@$@%@&@*@*@*@*@*@=@-@-@-@-@-@;@;@>@>@>@>@,@,@'@)@)@)@!@!@!@~@~@{@{@]@]@^@^@^@^@/@/@/@(@(@(@_@:@:@:@<@<@[@[@[@}@|@|@1@1@1@1@1@2@3@3@3@3@3@4@5@6@6@6@6@6@7@8@9@9@9@9@0@a@a@a@b@b@b@c@c@c@c@d@d@e@e@e@e@e@e@f@g@g@g@g@g@g@h@i@i@i@i@i@j@k@l@l@l@l@m@m@n@n@o@o@p@p@q@q@q@r@s@s@s@t@t@t@u@v@v@w@w@w@w@x@x@y@z@z@z@A@A@A@B@C@C@D@D@D@D@E@F@G@G@G@G@G@H@I@J@J@J@J@K@L@L@M@M@M@M@N@N@N@N@O@O@P@Q@Q@Q@Q@R@R@S@S@S@S@S@S@T@T@T@T@T@T@U@V@W@W@W@W@X@X@Y@Z@Z@Z@`@`@ # # #.#.#+#+#@#@#@#@#####$#$#$#$#%#&#&#*#*#*#=#=#=#-#-#-#;#;#;#;#>#,#'#'#'#'#)#)#!#~#~#~#~#{#{#]#^#^#^#^#/#(#(#_#_#_#:#<#<#<#<#[#[#}#}#}#}#}#}#|#|#|#|#",
"+ + + + @ @ @ @ @ @ # # $ $ $ $ % & & & * * = - - - - ; > > , , , , ' ) ) ! ! ! ! ~ { ] ] ] ] ^ ^ ^ / / / ( ( ( _ _ : < < < < [ [ } } } } | | 1 1 2 2 2 3 3 4 4 4 5 6 6 7 7 7 7 8 9 0 0 0 0 0 0 a a a a a a b b c c c c d e e f f f f g g g g h h i j j j j k l m m m m m n o p p p p q q r s s s t t t u v v w w w w x x y z z z A A A B C C C D D E E F F G G H H H H I J K K K K K L M M M M M M N O O O O O O P P Q Q Q Q R R R S S S T U U U U V W X X X X X Y Z ` ` ` ` `  ...........+.+.@.#.#.#.$.$.%.%.%.&.*.*.*.=.=.=.-.-.-.-.;.;.>.>.,.,.'.'.'.).).).!.~.~.{.{.{.{.].].^.^.^.^.^./.(.(.(.(.(._.:.<.<.<.<.<.[.[.[.}.}.}.|.1.1.1.1.2.2.3.3.3.3.3.4.5.6.6.6.6.6.7.8.8.8.8.8.9.9.0.a.a.a.b.b.c.c.d.d.d.e.e.f.f.f.g.h.h.i.i.i.i.j.j.j.k.k.k.l.l.m.n.n.n.o.o.o.o.p.p.q.q.q.q.q.r.r.s.s.s.s.t.t.u.u.u.u.u.v.w.w.x.x.x.y.z.z.z.A.A.A.B.B.B.B.B.C.D.D.D.D.D.D.E.F.F.F.F.F.F.G.H.H.H.H.H.I.J.J.K.K.K.L.L.M.M.N.N.O.O.P.P.P.P.Q.Q.Q.R.R.R.S.S.T.U.U.U.U.V.V.W.X.X.X.Y.Y.Y.Z.`.`. + + + +.+.+++++++++@+@+#+$+$+$+$+%+&+&+&+*+*+*+=+-+-+-+-+;+>+,+,+,+,+,+'+)+)+)+)+)+)+!+~+~+~+~+~+{+]+^+^+^+^+/+(+(+(+_+_+_+:+<+<+<+<+[+}+}+|+|+|+|+1+1+2+2+2+2+3+3+4+5+5+5+6+6+6+7+8+8+9+9+9+9+0+a+a+b+b+b+c+c+c+d+d+d+d+e+e+f+f+g+g+h+h+i+i+i+j+j+k+l+l+l+l+l+m+n+n+n+n+n+n+o+p+p+p+p+p+p+q+r+r+r+r+r+s+s+s+t+t+t+u+v+v+v+w+w+x+y+y+y+y+y+z+z+A+A+A+A+B+B+C+C+C+C+C+D+D+E+E+E+E+F+F+F+G+H+H+I+I+I+J+J+J+K+K+K+K+L+L+M+N+N+N+O+O+P+P+P+Q+Q+R+R+S+S+S+T+U+U+V+V+V+V+V+W+X+X+X+X+X+Y+Z+`+`+`+`+`+ @ @.@.@.@.@+@@@@@@@#@#@#@$@$@$@$@$@%@&@*@*@*@*@*@=@-@-@-@-@-@;@;@>@>@>@>@,@,@'@)@)@)@!@!@!@~@~@{@{@]@]@^@^@^@^@/@/@/@(@(@(@_@:@:@:@<@<@[@[@[@}@|@|@1@1@1@1@1@2@3@3@3@3@3@4@5@6@6@6@6@6@7@8@9@9@9@9@0@a@a@a@b@b@b@c@c@c@c@d@d@e@e@e@e@e@e@f@g@g@g@g@g@g@h@i@i@i@i@i@j@k@l@l@l@l@m@m@n@n@o@o@p@p@q@q@q@r@s@s@s@t@t@t@u@v@v@w@w@w@w@x@x@y@z@z@z@A@A@A@B@C@C@D@D@D@D@E@F@G@G@G@G@G@H@I@J@J@J@J@K@L@L@M@M@M@M@N@N@N@N@O@O@P@Q@Q@Q@Q@R@R@S@S@S@S@S@S@T@T@T@T@T@T@U@V@W@W@W@W@X@X@Y@Z@Z@Z@`@`@ # # #.#.#+#+#@#@#@#@#####$#$#$#$#%#&#&#*#*#*#=#=#=#-#-#-#;#;#;#;#>#,#'#'#'#'#)#)#!#~#~#~#~#{#{#]#^#^#^#^#/#(#(#_#_#_#:#<#<#<#<#[#[#}#}#}#}#}#}#|#|#|#|#",
"+ + + + @ @ @ @ @ @ # # $ $ $ $ % & & & * * = - - - - ; > > , , , , ' ) ) ! ! ! ! ~ { ] ] ] ] ^ ^ ^ / / / ( ( ( _ _ : < < < < [ [ } } } } | | 1 1 2 2 2 3 3 4 4 4 5 6 6 7 7 7 7 8 9 0 0 0 0 0 0 a a a a a a b b c c c c d e e f f f f g g g g h h i j j j j k l m m m m m n o p p p p q q r s s s t t t u v v w w w w x x y z z z A A A B C C C D D E E F F G G H H H H I J K K K K K L M M M M M M N O O O O O O P P Q Q Q Q R R R S S S T U U U U V W X X X X X Y Z ` ` ` ` `  ...........+.+.@.#.#.#.$.$.%.%.%.&.*.*.*.=.=.=.-.-.-.-.;.;.>.>.,.,.'.'.'.).).).!.~.~.{.{.{.{.].].^.^.^.^.^./.(.(.(.(.(._.:.<.<.<.<.<.[.[.[.}.}.}.|.1.1.1.1.2.2.3.3.3.3.3.4.5.6.6.6.6.6.7.8.8.8.8.8.9.9.0.a.a.a.b.b.c.c.d.d.d.e.e.f.f.f.g.h.h.i.i.i.i.j.j.j.k.k.k.l.l.m.n.n.n.o.o.o.o.p.p.q.q.q.q.q.r.r.s.s.s.s.t.t.u.u.u.u.u.v.w.w.x.x.x.y.z.z.z.A.A.A.B.B.B.B.B.C.D.D.D.D.D.D.E.F.F.F.F.F.F.G.H.H.H.H.H.I.J.J.K.K.K.L.L.M.M.N.N.O.O.P.P.P.P.Q.Q.Q.R.R.R.S.S.T.U.U.U.U.V.V.W.X.X.X.Y.Y.Y.Z.`.`. + + + +.+.+++++++++@+@+#+$+$+$+$+%+&+&+&+*+*+*+=+-+-+-+-+;+>+,+,+,+,+,+'+)+)+)+)+)+)+!+~+~+~+~+~+{+]+^+^+^+^+/+(+(+(+_+_+_+:+<+<+<+<+[+}+}+|+|+|+|+1+1+2+2+2+2+3+3+4+5+5+5+6+6+6+7+8+8+9+9+9+9+0+a+a+b+b+b+c+c+c+d+d+d+d+e+e+f+f+g+g+h+h+i+i+i+j+j+k+l+l+l+l+l+m+n+n+n+n+n+n+o+p+p+p+p+p+p+q+r+r+r+r+r+s+s+s+t+t+t+u+v+v+v+w+w+x+y+y+y+y+y+z+z+A+A+A+A+B+B+C+C+C+C+C+D+D+E+E+E+E+F+F+F+G+H+H+I+I+I+J+J+J+K+K+K+K+L+L+M+N+N+N+O+O+P+P+P+Q+Q+R+R+S+S+S+T+U+U+V+V+V+V+V+W+X+X+X+X+X+Y+Z+`+`+`+`+`+ @ @.@.@.@.@+@@@@@@@#@#@#@$@$@$@$@$@%@&@*@*@*@*@*@=@-@-@-@-@-@;@;@>@>@>@>@,@,@'@)@)@)@!@!@!@~@~@{@{@]@]@^@^@^@^@/@/@/@(@(@(@_@:@:@:@<@<@[@[@[@}@|@|@1@1@1@1@1@2@3@3@3@3@3@4@5@6@6@6@6@6@7@8@9@9@9@9@0@a@a@a@b@b@b@c@c@c@c@d@d@e@e@e@e@e@e@f@g@g@g@g@g@g@h@i@i@i@i@i@j@k@l@l@l@l@m@m@n@n@o@o@p@p@q@q@q@r@s@s@s@t@t@t@u@v@v@w@w@w@w@x@x@y@z@z@z@A@A@A@B@C@C@D@D@D@D@E@F@G@G@G@G@G@H@I@J@J@J@J@K@L@L@M@M@M@M@N@N@N@N@O@O@P@Q@Q@Q@Q@R@R@S@S@S@S@S@S@T@T@T@T@T@T@U@V@W@W@W@W@X@X@Y@Z@Z@Z@`@`@ # # #.#.#+#+#@#@#@#@#####$#$#$#$#%#&#&#*#*#*#=#=#=#-#-#-#;#;#;#;#>#,#'#'#'#'#)#)#!#~#~#~#~#{#{#]#^#^#^#^#/#(#(#_#_#_#:#<#<#<#<#[#[#}#}#}#}#}#}#|#|#|#|#",
"+ + + + @ @ @ @ @ @ # # $ $ $ $ % & & & * * = - - - - ; > > , , , , ' ) ) ! ! ! ! ~ { ] ] ] ] ^ ^ ^ / / / ( ( ( _ _ : < < < < [ [ } } } } | | 1 1 2 2 2 3 3 4 4 4 5 6 6 7 7 7 7 8 9 0 0 0 0 0 0 a a a a a a b b c c c c d e e f f f f g g g g h h i j j j j k l m m m m m n o p p p p q q r s s s t t t u v v w w w w x x y z z z A A A B C C C D D E E F F G G H H H H I J K K K K K L M M M M M M N O O O O O O P P Q Q Q Q R R R S S S T U U U U V W X X X X X Y Z ` ` ` ` `  ...........+.+.@.#.#.#.$.$.%.%.%.&.*.*.*.=.=.=.-.-.-.-.;.;.>.>.,.,.'.'.'.).).).!.~.~.{.{.{.{.].].^.^.^.^.^./.(.(.(.(.(._.:.<.<.<.<.<.[.[.[.}.}.}.|.1.1.1.1.2.2.3.3.3.3.3.4.5.6.6.6.6.6.7.8.8.8.8.8.9.9.0.a.a.a.b.b.c.c.d.d.d.e.e.f.f.f.g.h.h.i.i.i.i.j.j.j.k.k.k.l.l.m.n.n.n.o.o.o.o.p.p.q.q.q.q.q.r.r.s.s.s.s.t.t.u.u.u.u.u.v.w.w.x.x.x.y.z.z.z.A.A.A.B.B.B.B.B.C.D.D.D.D.D.D.E.F.F.F.F.F.F.G.H.H.H.H.H.I.J.J.K.K.K.L.L.M.M.N.N.O.O.P.P.P.P.Q.Q.Q.R.R.R.S.S.T.U.U.U.U.V.V.W.X.X.X.Y.Y.Y.Z.`.`. + + + +.+.+++++++++@+@+#+$+$+$+$+%+&+&+&+*+*+*+=+-+-+-+-+;+>+,+,+,+,+,+'+)+)+)+)+)+)+!+~+~+~+~+~+{+]+^+^+^+^+/+(+(+(+_+_+_+:+<+<+<+<+[+}+}+|+|+|+|+1+1+2+2+2+2+3+3+4+5+5+5+6+6+6+7+8+8+9+9+9+9+0+a+a+b+b+b+c+c+c+d+d+d+d+e+e+f+f+g+g+h+h+i+i+i+j+j+k+l+l+l+l+l+m+n+n+n+n+n+n+o+p+p+p+p+p+p+q+r+r+r+r+r+s+s+s+t+t+t+u+v+v+v+w+w+x+y+y+y+y+y+z+z+A+A+A+A+B+B+C+C+C+C+C+D+D+E+E+E+E+F+F+F+G+H+H+I+I+I+J+J+J+K+K+K+K+L+L+M+N+N+N+O+O+P+P+P+Q+Q+R+R+S+S+S+T+U+U+V+V+V+V+V+W+X+X+X+X+X+Y+Z+`+`+`+`+`+ @ @.@.@.@.@+@@@@@@@#@#@#@$@$@$@$@$@%@&@*@*@*@*@*@=@-@-@-@-@-@;@;@>@>@>@>@,@,@'@)@)@)@!@!@!@~@~@{@{@]@]@^@^@^@^@/@/@/@(@(@(@_@:@:@:@<@<@[@[@[@}@|@|@1@1@1@1@1@2@3@3@3@3@3@4@5@6@6@6@6@6@7@8@9@9@9@9@0@a@a@a@b@b@b@c@c@c@c@d@d@e@e@e@e@e@e@f@g@g@g@g@g@g@h@i@i@i@i@i@j@k@l@l@l@l@m@m@n@n@o@o@p@p@q@q@q@r@s@s@s@t@t@t@u@v@v@w@w@w@w@x@x@y@z@z@z@A@A@A@B@C@C@D@D@D@D@E@F@G@G@G@G@G@H@I@J@J@J@J@K@L@L@M@M@M@M@N@N@N@N@O@O@P@Q@Q@Q@Q@R@R@S@S@S@S@S@S@T@T@T@T@T@T@U@V@W@W@W@W@X@X@Y@Z@Z@Z@`@`@ # # #.#.#+#+#@#@#@#@#####$#$#$#$#%#&#&#*#*#*#=#=#=#-#-#-#;#;#;#;#>#,#'#'#'#'#)#)#!#~#~#~#~#{#{#]#^#^#^#^#/#(#(#_#_#_#:#<#<#<#<#[#[#}#}#}#}#}#}#|#|#|#|#",
"+ + + + @ @ @ @ @ @ # # $ $ $ $ % & & & * * = - - - - ; > > , , , , ' ) ) ! ! ! ! ~ { ] ] ] ] ^ ^ ^ / / / ( ( ( _ _ : < < < < [ [ } } } } | | 1 1 2 2 2 3 3 4 4 4 5 6 6 7 7 7 7 8 9 0 0 0 0 0 0 a a a a a a b b c c c c d e e f f f f g g g g h h i j j j j k l m m m m m n o p p p p q q r s s s t t t u v v w w w w x x y z z z A A A B C C C D D E E F F G G H H H H I J K K K K K L M M M M M M N O O O O O O P P Q Q Q Q R R R S S S T U U U U V W X X X X X Y Z ` ` ` ` `  ...........+.+.@.#.#.#.$.$.%.%.%.&.*.*.*.=.=.=.-.-.-.-.;.;.>.>.,.,.'.'.'.).).).!.~.~.{.{.{.{.].].^.^.^.^.^./.(.(.(.(.(._.:.<.<.<.<.<.[.[.[.}.}.}.|.1.1.1.1.2.2.3.3.3.3.3.4.5.6.6.6.6.6.7.8.8.8.8.8.9.9.0.a.a.a.b.b.c.c.d.d.d.e.e.f.f.f.g.h.h.i.i.i.i.j.j.j.k.k.k.l.l.m.n.n.n.o.o.o.o.p.p.q.q.q.q.q.r.r.s.s.s.s.t.t.u.u.u.u.u.v.w.w.x.x.x.y.z.z.z.A.A.A.B.B.B.B.B.C.D.D.D.D.D.D.E.F.F.F.F.F.F.G.H.H.H.H.H.I.J.J.K.K.K.L.L.M.M.N.N.O.O.P.P.P.P.Q.Q.Q.R.R.R.S.S.T.U.U.U.U.V.V.W.X.X.X.Y.Y.Y.Z.`.`. + + + +.+.+++++++++@+@+#+$+$+$+$+%+&+&+&+*+*+*+=+-+-+-+-+;+>+,+,+,+,+,+'+)+)+)+)+)+)+!+~+~+~+~+~+{+]+^+^+^+^+/+(+(+(+_+_+_+:+<+<+<+<+[+}+}+|+|+|+|+1+1+2+2+2+2+3+3+4+5+5+5+6+6+6+7+8+8+9+9+9+9+0+a+a+b+b+b+c+c+c+d+d+d+d+e+e+f+f+g+g+h+h+i+i+i+j+j+k+l+l+l+l+l+m+n+n+n+n+n+n+o+p+p+p+p+p+p+q+r+r+r+r+r+s+s+s+t+t+t+u+v+v+v+w+w+x+y+y+y+y+y+z+z+A+A+A+A+B+B+C+C+C+C+C+D+D+E+E+E+E+F+F+F+G+H+H+I+I+I+J+J+J+K+K+K+K+L+L+M+N+N+N+O+O+P+P+P+Q+Q+R+R+S+S+S+T+U+U+V+V+V+V+V+W+X+X+X+X+X+Y+Z+`+`+`+`+`+ @ @.@.@.@.@+@@@@@@@#@#@#@$@$@$@$@$@%@&@*@*@*@*@*@=@-@-@-@-@-@;@;@>@>@>@>@,@,@'@)@)@)@!@!@!@~@~@{@{@]@]@^@^@^@^@/@/@/@(@(@(@_@:@:@:@<@<@[@[@[@}@|@|@1@1@1@1@1@2@3@3@3@3@3@4@5@6@6@6@6@6@7@8@9@9@9@9@0@a@a@a@b@b@b@c@c@c@c@d@d@e@e@e@e@e@e@f@g@g@g@g@g@g@h@i@i@i@i@i@j@k@l@l@l@l@m@m@n@n@o@o@p@p@q@q@q@r@s@s@s@t@t@t@u@v@v@w@w@w@w@x@x@y@z@z@z@A@A@A@B@C@C@D@D@D@D@E@F@G@G@G@G@G@H@I@J@J@J@J@K@L@L@M@M@M@M@N@N@N@N@O@O@P@Q@Q@Q@Q@R@R@S@S@S@S@S@S@T@T@T@T@T@T@U@V@W@W@W@W@X@X@Y@Z@Z@Z@`@`@ # # #.#.#+#+#@#@#@#@#####$#$#$#$#%#&#&#*#*#*#=#=#=#-#-#-#;#;#;#;#>#,#'#'#'#'#)#)#!#~#~#~#~#{#{#]#^#^#^#^#/#(#(#_#_#_#:#<#<#<#<#[#[#}#}#}#}#}#}#|#|#|#|#",
"+ + + + @ @ @ @ @ @ # # $ $ $ $ % & & & * * = - - - - ; > > , , , , ' ) ) ! ! ! ! ~ { ] ] ] ] ^ ^ ^ / / / ( ( ( _ _ : < < < < [ [ } } } } | | 1 1 2 2 2 3 3 4 4 4 5 6 6 7 7 7 7 8 9 0 0 0 0 0 0 a a a a a a b b c c c c d e e f f f f g g g g h h i j j j j k l m m m m m n o p p p p q q r s s s t t t u v v w w w w x x y z z z A A A B C C C D D E E F F G G H H H H I J K K K K K L M M M M M M N O O O O O O P P Q Q Q Q R R R S S S T U U U U V W X X X X X Y Z ` ` ` ` `  ...........+.+.@.#.#.#.$.$.%.%.%.&.*.*.*.=.=.=.-.-.-.-.;.;.>.>.,.,.'.'.'.).).).!.~.~.{.{.{.{.].].^.^.^.^.^./.(.(.(.(.(._.:.<.<.<.<.<.[.[.[.}.}.}.|.1.1.1.1.2.2.3.3.3.3.3.4.5.6.6.6.6.6.7.8.8.8.8.8.9.9.0.a.a.a.b.b.c.c.d.d.d.e.e.f.f.f.g.h.h.i.i.i.i.j.j.j.k.k.k.l.l.m.n.n.n.o.o.o.o.p.p.q.q.q.q.q.r.r.s.s.s.s.t.t.u.u.u.u.u.v.w.w.x.x.x.y.z.z.z.A.A.A.B.B.B.B.B.C.D.D.D.D.D.D.E.F.F.F.F.F.F.G.H.H.H.H.H.I.J.J.K.K.K.L.L.M.M.N.N.O.O.P.P.P.P.Q.Q.Q.R.R.R.S.S.T.U.U.U.U.V.V.W.X.X.X.Y.Y.Y.Z.`.`. + + + +.+.+++++++++@+@+#+$+$+$+$+%+&+&+&+*+*+*+=+-+-+-+-+;+>+,+,+,+,+,+'+)+)+)+)+)+)+!+~+~+~+~+~+{+]+^+^+^+^+/+(+(+(+_+_+_+:+<+<+<+<+[+}+}+|+|+|+|+1+1+2+2+2+2+3+3+4+5+5+5+6+6+6+7+8+8+9+9+9+9+0+a+a+b+b+b+c+c+c+d+d+d+d+e+e+f+f+g+g+h+h+i+i+i+j+j+k+l+l+l+l+l+m+n+n+n+n+n+n+o+p+p+p+p+p+p+q+r+r+r+r+r+s+s+s+t+t+t+u+v+v+v+w+w+x+y+y+y+y+y+z+z+A+A+A+A+B+B+C+C+C+C+C+D+D+E+E+E+E+F+F+F+G+H+H+I+I+I+J+J+J+K+K+K+K+L+L+M+N+N+N+O+O+P+P+P+Q+Q+R+R+S+S+S+T+U+U+V+V+V+V+V+W+X+X+X+X+X+Y+Z+`+`+`+`+`+ @ @.@.@.@.@+@@@@@@@#@#@#@$@$@$@$@$@%@&@*@*@*@*@*@=@-@-@-@-@-@;@;@>@>@>@>@,@,@'@)@)@)@!@!@!@~@~@{@{@]@]@^@^@^@^@/@/@/@(@(@(@_@:@:@:@<@<@[@[@[@}@|@|@1@1@1@1@1@2@3@3@3@3@3@4@5@6@6@6@6@6@7@8@9@9@9@9@0@a@a@a@b@b@b@c@c@c@c@d@d@e@e@e@e@e@e@f@g@g@g@g@g@g@h@i@i@i@i@i@j@k@l@l@l@l@m@m@n@n@o@o@p@p@q@q@q@r@s@s@s@t@t@t@u@v@v@w@w@w@w@x@x@y@z@z@z@A@A@A@B@C@C@D@D@D@D@E@F@G@G@G@G@G@H@I@J@J@J@J@K@L@L@M@M@M@M@N@N@N@N@O@O@P@Q@Q@Q@Q@R@R@S@S@S@S@S@S@T@T@T@T@T@T@U@V@W@W@W@W@X@X@Y@Z@Z@Z@`@`@ # # #.#.#+#+#@#@#@#@#####$#$#$#$#%#&#&#*#*#*#=#=#=#-#-#-#;#;#;#;#>#,#'#'#'#'#)#)#!#~#~#~#~#{#{#]#^#^#^#^#/#(#(#_#_#_#:#<#<#<#<#[#[#}#}#}#}#}#}#|#|#|#|#",
"+ + + + @ @ @ @ @ @ # # $ $ $ $ % & & & * * = - - - - ; > > , , , , ' ) ) ! ! ! ! ~ { ] ] ] ] ^ ^ ^ / / / ( ( ( _ _ : < < < < [ [ } } } } | | 1 1 2 2 2 3 3 4 4 4 5 6 6 7 7 7 7 8 9 0 0 0 0 0 0 a a a a a a b b c c c c d e e f f f f g g g g h h i j j j j k l m m m m m n o p p p p q q r s s s t t t u v v w w w w x x y z z z A A A B C C C D D E E F F G G H H H H I J K K K K K L M M M M M M N O O O O O O P P Q Q Q Q R R R S S S T U U U U V W X X X X X Y Z ` ` ` ` `  ...........+.+.@.#.#.#.$.$.%.%.%.&.*.*.*.=.=.=.-.-.-.-.;.;.>.>.,.,.'.'.'.).).).!.~.~.{.{.{.{.].].^.^.^.^.^./.(.(.(.(.(._.:.<.<.<.<.<.[.[.[.}.}.}.|.1.1.1.1.2.2.3.3.3.3.3.4.5.6.6.6.6.6.7.8.8.8.8.8.9.9.0.a.a.a.b.b.c.c.d.d.d.e.e.f.f.f.g.h.h.i.i.i.i.j.j.j.k.k.k.l.l.m.n.n.n.o.o.o.o.p.p.q.q.q.q.q.r.r.s.s.s.s.t.t.u.u.u.u.u.v.w.w.x.x.x.y.z.z.z.A.A.A.B.B.B.B.B.C.D.D.D.D.D.D.E.F.F.F.F.F.F.G.H.H.H.H.H.I.J.J.K.K.K.L.L.M.M.N.N.O.O.P.P.P.P.Q.Q.Q.R.R.R.S.S.T.U.U.U.U.V.V.W.X.X.X.Y.Y.Y.Z.`.`. + + + +.+.+++++++++@+@+#+$+$+$+$+%+&+&+&+*+*+*+=+-+-+-+-+;+>+,+,+,+,+,+'+)+)+)+)+)+)+!+~+~+~+~+~+{+]+^+^+^+^+/+(+(+(+_+_+_+:+<+<+<+<+[+}+}+|+|+|+|+1+1+2+2+2+2+3+3+4+5+5+5+6+6+6+7+8+8+9+9+9+9+0+a+a+b+b+b+c+c+c+d+d+d+d+e+e+f+f+g+g+h+h+i+i+i+j+j+k+l+l+l+l+l+m+n+n+n+n+n+n+o+p+p+p+p+p+p+q+r+r+r+r+r+s+s+s+t+t+t+u+v+v+v+w+w+x+y+y+y+y+y+z+z+A+A+A+A+B+B+C+C+C+C+C+D+D+E+E+E+E+F+F+F+G+H+H+I+I+I+J+J+J+K+K+K+K+L+L+M+N+N+N+O+O+P+P+P+Q+Q+R+R+S+S+S+T+U+U+V+V+V+V+V+W+X+X+X+X+X+Y+Z+`+`+`+`+`+ @ @.@.@.@.@+@@@@@@@#@#@#@$@$@$@$@$@%@&@*@*@*@*@*@=@-@-@-@-@-@;@;@>@>@>@>@,@,@'@)@)@)@!@!@!@~@~@{@{@]@]@^@^@^@^@/@/@/@(@(@(@_@:@:@:@<@<@[@[@[@}@|@|@1@1@1@1@1@2@3@3@3@3@3@4@5@6@6@6@6@6@7@8@9@9@9@9@0@a@a@a@b@b@b@c@c@c@c@d@d@e@e@e@e@e@e@f@g@g@g@g@g@g@h@i@i@i@i@i@j@k@l@l@l@l@m@m@n@n@o@o@p@p@q@q@q@r@s@s@s@t@t@t@u@v@v@w@w@w@w@x@x@y@z@z@z@A@A@A@B@C@C@D@D@D@D@E@F@G@G@G@G@G@H@I@J@J@J@J@K@L@L@M@M@M@M@N@N@N@N@O@O@P@Q@Q@Q@Q@R@R@S@S@S@S@S@S@T@T@T@T@T@T@U@V@W@W@W@W@X@X@Y@Z@Z@Z@`@`@ # # #.#.#+#+#@#@#@#@#####$#$#$#$#%#&#&#*#*#*#=#=#=#-#-#-#;#;#;#;#>#,#'#'#'#'#)#)#!#~#~#~#~#{#{#]#^#^#^#^#/#(#(#_#_#_#:#<#<#<#<#[#[#}#}#}#}#}#}#|#|#|#|#",
"+ + + + @ @ @ @ @ @ # # $ $ $ $ % & & & * * = - - - - ; > > , , , , ' ) ) ! ! ! ! ~ { ] ] ] ] ^ ^ ^ / / / ( ( ( _ _ : < < < < [ [ } } } } | | 1 1 2 2 2 3 3 4 4 4 5 6 6 7 7 7 7 8 9 0 0 0 0 0 0 a a a a a a b b c c c c d e e f f f f g g g g h h i j j j j k l m m m m m n o p p p p q q r s s s t t t u v v w w w w x x y z z z A A A B C C C D D E E F F G G H H H H I J K K K K K L M M M M M M N O O O O O O P P Q Q Q Q R R R S S S T U U U U V W X X X X X Y Z ` ` ` ` `  ...........+.+.@.#.#.#.$.$.%.%.%.&.*.*.*.=.=.=.-.-.-.-.;.;.>.>.,.,.'.'.'.).).).!.~.~.{.{.{.{.].].^.^.^.^.^./.(.(.(.(.(._.:.<.<.<.<.<.[.[.[.}.}.}.|.1.1.1.1.2.2.3.3.3.3.3.4.5.6.6.6.6.6.7.8.8.8.8.8.9.9.0.a.a.a.b.b.c.c.d.d.d.e.e.f.f.f.g.h.h.i.i.i.i.j.j.j.k.k.k.l.l.m.n.n.n.o.o.o.o.p.p.q.q.q.q.q.r.r.s.s.s.s.t.t.u.u.u.u.u.v.w.w.x.x.x.y.z.z.z.A.A.A.B.B.B.B.B.C.D.D.D.D.D.D.E.F.F.F.F.F.F.G.H.H.H.H.H.I.J.J.K.K.K.L.L.M.M.N.N.O.O.P.P.P.P.Q.Q.Q.R.R.R.S.S.T.U.U.U.U.V.V.W.X.X.X.Y.Y.Y.Z.`.`. + + + +.+.+++++++++@+@+#+$+$+$+$+%+&+&+&+*+*+*+=+-+-+-+-+;+>+,+,+,+,+,+'+)+)+)+)+)+)+!+~+~+~+~+~+{+]+^+^+^+^+/+(+(+(+_+_+_+:+<+<+<+<+[+}+}+|+|+|+|+1+1+2+2+2+2+3+3+4+5+5+5+6+6+6+7+8+8+9+9+9+9+0+a+a+b+b+b+c+c+c+d+d+d+d+e+e+f+f+g+g+h+h+i+i+i+j+j+k+l+l+l+l+l+m+n+n+n+n+n+n+o+p+p+p+p+p+p+q+r+r+r+r+r+s+s+s+t+t+t+u+v+v+v+w+w+x+y+y+y+y+y+z+z+A+A+A+A+B+B+C+C+C+C+C+D+D+E+E+E+E+F+F+F+G+H+H+I+I+I+J+J+J+K+K+K+K+L+L+M+N+N+N+O+O+P+P+P+Q+Q+R+R+S+S+S+T+U+U+V+V+V+V+V+W+X+X+X+X+X+Y+Z+`+`+`+`+`+ @ @.@.@.@.@+@@@@@@@#@#@#@$@$@$@$@$@%@&@*@*@*@*@*@=@-@-@-@-@-@;@;@>@>@>@>@,@,@'@)@)@)@!@!@!@~@~@{@{@]@]@^@^@^@^@/@/@/@(@(@(@_@:@:@:@<@<@[@[@[@}@|@|@1@1@1@1@1@2@3@3@3@3@3@4@5@6@6@6@6@6@7@8@9@9@9@9@0@a@a@a@b@b@b@c@c@c@c@d@d@e@e@e@e@e@e@f@g@g@g@g@g@g@h@i@i@i@i@i@j@k@l@l@l@l@m@m@n@n@o@o@p@p@q@q@q@r@s@s@s@t@t@t@u@v@v@w@w@w@w@x@x@y@z@z@z@A@A@A@B@C@C@D@D@D@D@E@F@G@G@G@G@G@H@I@J@J@J@J@K@L@L@M@M@M@M@N@N@N@N@O@O@P@Q@Q@Q@Q@R@R@S@S@S@S@S@S@T@T@T@T@T@T@U@V@W@W@W@W@X@X@Y@Z@Z@Z@`@`@ # # #.#.#+#+#@#@#@#@#####$#$#$#$#%#&#&#*#*#*#=#=#=#-#-#-#;#;#;#;#>#,#'#'#'#'#)#)#!#~#~#~#~#{#{#]#^#^#^#^#/#(#(#_#_#_#:#<#<#<#<#[#[#}#}#}#}#}#}#|#|#|#|#",
"+ + + + @ @ @ @ @ @ # # $ $ $ $ % & & & * * = - - - - ; > > , , , , ' ) ) ! ! ! ! ~ { ] ] ] ] ^ ^ ^ / / / ( ( ( _ _ : < < < < [ [ } } } } | | 1 1 2 2 2 3 3 4 4 4 5 6 6 7 7 7 7 8 9 0 0 0 0 0 0 a a a a a a b b c c c c d e e f f f f g g g g h h i j j j j k l m m m m m n o p p p p q q r s s s t t t u v v w w w w x x y z z z A A A B C C C D D E E F F G G H H H H I J K K K K K L M M M M M M N O O O O O O P P Q Q Q Q R R R S S S T U U U U V W X X X X X Y Z ` ` ` ` `  ...........+.+.@.#.#.#.$.$.%.%.%.&.*.*.*.=.=.=.-.-.-.-.;.;.>.>.,.,.'.'.'.).).).!.~.~.{.{.{.{.].].^.^.^.^.^./.(.(.(.(.(._.:.<.<.<.<.<.[.[.[.}.}.}.|.1.1.1.1.2.2.3.3.3.3.3.4.5.6.6.6.6.6.7.8.8.8.8.8.9.9.0.a.a.a.b.b.c.c.d.d.d.e.e.f.f.f.g.h.h.i.i.i.i.j.j.j.k.k.k.l.l.m.n.n.n.o.o.o.o.p.p.q.q.q.q.q.r.r.s.s.s.s.t.t.u.u.u.u.u.v.w.w.x.x.x.y.z.z.z.A.A.A.B.B.B.B.B.C.D.D.D.D.D.D.E.F.F.F.F.F.F.G.H.H.H.H.H.I.J.J.K.K.K.L.L.M.M.N.N.O.O.P.P.P.P.Q.Q.Q.R.R.R.S.S.T.U.U.U.U.V.V.W.X.X.X.Y.Y.Y.Z.`.`. + + + +.+.+++++++++@+@+#+$+$+$+$+%+&+&+&+*+*+*+=+-+-+-+-+;+>+,+,+,+,+,+'+)+)+)+)+)+)+!+~+~+~+~+~+{+]+^+^+^+^+/+(+(+(+_+_+_+:+<+<+<+<+[+}+}+|+|+|+|+1+1+2+2+2+2+3+3+4+5+5+5+6+6+6+7+8+8+9+9+9+9+0+a+a+b+b+b+c+c+c+d+d+d+d+e+e+f+f+g+g+h+h+i+i+i+j+j+k+l+l+l+l+l+m+n+n+n+n+n+n+o+p+p+p+p+p+p+q+r+r+r+r+r+s+s+s+t+t+t+u+v+v+v+w+w+x+y+y+y+y+y+z+z+A+A+A+A+B+B+C+C+C+C+C+D+D+E+E+E+E+F+F+F+G+H+H+I+I+I+J+J+J+K+K+K+K+L+L+M+N+N+N+O+O+P+P+P+Q+Q+R+R+S+S+S+T+U+U+V+V+V+V+V+W+X+X+X+X+X+Y+Z+`+`+`+`+`+ @ @.@.@.@.@+@@@@@@@#@#@#@$@$@$@$@$@%@&@*@*@*@*@*@=@-@-@-@-@-@;@;@>@>@>@>@,@,@'@)@)@)@!@!@!@~@~@{@{@]@]@^@^@^@^@/@/@/@(@(@(@_@:@:@:@<@<@[@[@[@}@|@|@1@1@1@1@1@2@3@3@3@3@3@4@5@6@6@6@6@6@7@8@9@9@9@9@0@a@a@a@b@b@b@c@c@c@c@d@d@e@e@e@e@e@e@f@g@g@g@g@g@g@h@i@i@i@i@i@j@k@l@l@l@l@m@m@n@n@o@o@p@p@q@q@q@r@s@s@s@t@t@t@u@v@v@w@w@w@w@x@x@y@z@z@z@A@A@A@B@C@C@D@D@D@D@E@F@G@G@G@G@G@H@I@J@J@J@J@K@L@L@M@M@M@M@N@N@N@N@O@O@P@Q@Q@Q@Q@R@R@S@S@S@S@S@S@T@T@T@T@T@T@U@V@W@W@W@W@X@X@Y@Z@Z@Z@`@`@ # # #.#.#+#+#@#@#@#@#####$#$#$#$#%#&#&#*#*#*#=#=#=#-#-#-#;#;#;#;#>#,#'#'#'#'#)#)#!#~#~#~#~#{#{#]#^#^#^#^#/#(#(#_#_#_#:#<#<#<#<#[#[#}#}#}#}#}#}#|#|#|#|#",
"+ + + + @ @ @ @ @ @ # # $ $ $ $ % & & & * * = - - - - ; > > , , , , ' ) ) ! ! ! ! ~ { ] ] ] ] ^ ^ ^ / / / ( ( ( _ _ : < < < < [ [ } } } } | | 1 1 2 2 2 3 3 4 4 4 5 6 6 7 7 7 7 8 9 0 0 0 0 0 0 a a a a a a b b c c c c d e e f f f f g g g g h h i j j j j k l m m m m m n o p p p p q q r s s s t t t u v v w w w w x x y z z z A A A B C C C D D E E F F G G H H H H I J K K K K K L M M M M M M N O O O O O O P P Q Q Q Q R R R S S S T U U U U V W X X X X X Y Z ` ` ` ` `  ...........+.+.@.#.#.#.$.$.%.%.%.&.*.*.*.=.=.=.-.-.-.-.;.;.>.>.,.,.'.'.'.).).).!.~.~.{.{.{.{.].].^.^.^.^.^./.(.(.(.(.(._.:.<.<.<.<.<.[.[.[.}.}.}.|.1.1.1.1.2.2.3.3.3.3.3.4.5.6.6.6.6.6.7.8.8.8.8.8.9.9.0.a.a.a.b.b.c.c.d.d.d.e.e.f.f.f.g.h.h.i.i.i.i.j.j.j.k.k.k.l.l.m.n.n.n.o.o.o.o.p.p.q.q.q.q.q.r.r.s.s.s.s.t.t.u.u.u.u.u.v.w.w.x.x.x.y.z.z.z.A.A.A.B.B.B.B.B.C.D.D.D.D.D.D.E.F.F.F.F.F.F.G.H.H.H.H.H.I.J.J.K.K.K.L.L.M.M.N.N.O.O.P.P.P.P.Q.Q.Q.R.R.R.S.S.T.U.U.U.U.V.V.W.X.X.X.Y.Y.Y.Z.`.`. + + + +.+.+++++++++@+@+#+$+$+$+$+%+&+&+&+*+*+*+=+-+-+-+-+;+>+,+,+,+,+,+'+)+)+)+)+)+)+!+~+~+~+~+~+{+]+^+^+^+^+/+(+(+(+_+_+_+:+<+<+<+<+[+}+}+|+|+|+|+1+1+2+2+2+2+3+3+4+5+5+5+6+6+6+7+8+8+9+9+9+9+0+a+a+b+b+b+c+c+c+d+d+d+d+e+e+f+f+g+g+h+h+i+i+i+j+j+k+l+l+l+l+l+m+n+n+n+n+n+n+o+p+p+p+p+p+p+q+r+r+r+r+r+s+s+s+t+t+t+u+v+v+v+w+w+x+y+y+y+y+y+z+z+A+A+A+A+B+B+C+C+C+C+C+D+D+E+E+E+E+F+F+F+G+H+H+I+I+I+J+J+J+K+K+K+K+L+L+M+N+N+N+O+O+P+P+P+Q+Q+R+R+S+S+S+T+U+U+V+V+V+V+V+W+X+X+X+X+X+Y+Z+`+`+`+`+`+ @ @.@.@.@.@+@@@@@@@#@#@#@$@$@$@$@$@%@&@*@*@*@*@*@=@-@-@-@-@-@;@;@>@>@>@>@,@,@'@)@)@)@!@!@!@~@~@{@{@]@]@^@^@^@^@/@/@/@(@(@(@_@:@:@:@<@<@[@[@[@}@|@|@1@1@1@1@1@2@3@3@3@3@3@4@5@6@6@6@6@6@7@8@9@9@9@9@0@a@a@a@b@b@b@c@c@c@c@d@d@e@e@e@e@e@e@f@g@g@g@g@g@g@h@i@i@i@i@i@j@k@l@l@l@l@m@m@n@n@o@o@p@p@q@q@q@r@s@s@s@t@t@t@u@v@v@w@w@w@w@x@x@y@z@z@z@A@A@A@B@C@C@D@D@D@D@E@F@G@G@G@G@G@H@I@J@J@J@J@K@L@L@M@M@M@M@N@N@N@N@O@O@P@Q@Q@Q@Q@R@R@S@S@S@S@S@S@T@T@T@T@T@T@U@V@W@W@W@W@X@X@Y@Z@Z@Z@`@`@ # # #.#.#+#+#@#@#@#@#####$#$#$#$#%#&#&#*#*#*#=#=#=#-#-#-#;#;#;#;#>#,#'#'#'#'#)#)#!#~#~#~#~#{#{#]#^#^#^#^#/#(#(#_#_#_#:#<#<#<#<#[#[#}#}#}#}#}#}#|#|#|#|#",
"+ + + + @ @ @ @ @ @ # # $ $ $ $ % & & & * * = - - - - ; > > , , , , ' ) ) ! ! ! ! ~ { ] ] ] ] ^ ^ ^ / / / ( ( ( _ _ : < < < < [ [ } } } } | | 1 1 2 2 2 3 3 4 4 4 5 6 6 7 7 7 7 8 9 0 0 0 0 0 0 a a a a a a b b c c c c d e e f f f f g g g g h h i j j j j k l m m m m m n o p p p p q q r s s s t t t u v v w w w w x x y z z z A A A B C C C D D E E F F G G H H H H I J K K K K K L M M M M M M N O O O O O O P P Q Q Q Q R R R S S S T U U U U V W X X X X X Y Z ` ` ` ` `  ...........+.+.@.#.#.#.$.$.%.%.%.&.*.*.*.=.=.=.-.-.-.-.;.;.>.>.,.,.'.'.'.).).).!.~.~.{.{.{.{.].].^.^.^.^.^./.(.(.(.(.(._.:.<.<.<.<.<.[.[.[.}.}.}.|.1.1.1.1.2.2.3.3.3.3.3.4.5.6.6.6.6.6.7.8.8.8.8.8.9.9.0.a.a.a.b.b.c.c.d.d.d.e.e.f.f.f.g.h.h.i.i.i.i.j.j.j.k.k.k.l.l.m.n.n.n.o.o.o.o.p.p.q.q.q.q.q.r.r.s.s.s.s.t.t.u.u.u.u.u.v.w.w.x.x.x.y.z.z.z.A.A.A.B.B.B.B.B.C.D.D.D.D.D.D.E.F.F.F.F.F.F.G.H.H.H.H.H.I.J.J.K.K.K.L.L.M.M.N.N.O.O.P.P.P.P.Q.Q.Q.R.R.R.S.S.T.U.U.U.U.V.V.W.X.X.X.Y.Y.Y.Z.`.`. + + + +.+.+++++++++@+@+#+$+$+$+$+%+&+&+&+*+*+*+=+-+-+-+-+;+>+,+,+,+,+,+'+)+)+)+)+)+)+!+~+~+~+~+~+{+]+^+^+^+^+/+(+(+(+_+_+_+:+<+<+<+<+[+}+}+|+|+|+|+1+1+2+2+2+2+3+3+4+5+5+5+6+6+6+7+8+8+9+9+9+9+0+a+a+b+b+b+c+c+c+d+d+d+d+e+e+f+f+g+g+h+h+i+i+i+j+j+k+l+l+l+l+l+m+n+n+n+n+n+n+o+p+p+p+p+p+p+q+r+r+r+r+r+s+s+s+t+t+t+u+v+v+v+w+w+x+y+y+y+y+y+z+z+A+A+A+A+B+B+C+C+C+C+C+D+D+E+E+E+E+F+F+F+G+H+H+I+I+I+J+J+J+K+K+K+K+L+L+M+N+N+N+O+O+P+P+P+Q+Q+R+R+S+S+S+T+U+U+V+V+V+V+V+W+X+X+X+X+X+Y+Z+`+`+`+`+`+ @ @.@.@.@.@+@@@@@@@#@#@#@$@$@$@$@$@%@&@*@*@*@*@*@=@-@-@-@-@-@;@;@>@>@>@>@,@,@'@)@)@)@!@!@!@~@~@{@{@]@]@^@^@^@^@/@/@/@(@(@(@_@:@:@:@<@<@[@[@[@}@|@|@1@1@1@1@1@2@3@3@3@3@3@4@5@6@6@6@6@6@7@8@9@9@9@9@0@a@a@a@b@b@b@c@c@c@c@d@d@e@e@e@e@e@e@f@g@g@g@g@g@g@h@i@i@i@i@i@j@k@l@l@l@l@m@m@n@n@o@o@p@p@q@q@q@r@s@s@s@t@t@t@u@v@v@w@w@w@w@x@x@y@z@z@z@A@A@A@B@C@C@D@D@D@D@E@F@G@G@G@G@G@H@I@J@J@J@J@K@L@L@M@M@M@M@N@N@N@N@O@O@P@Q@Q@Q@Q@R@R@S@S@S@S@S@S@T@T@T@T@T@T@U@V@W@W@W@W@X@X@Y@Z@Z@Z@`@`@ # # #.#.#+#+#@#@#@#@#####$#$#$#$#%#&#&#*#*#*#=#=#=#-#-#-#;#;#;#;#>#,#'#'#'#'#)#)#!#~#~#~#~#{#{#]#^#^#^#^#/#(#(#_#_#_#:#<#<#<#<#[#[#}#}#}#}#}#}#|#|#|#|#",
"+ + + + @ @ @ @ @ @ # # $ $ $ $ % & & & * * = - - - - ; > > , , , , ' ) ) ! ! ! ! ~ { ] ] ] ] ^ ^ ^ / / / ( ( ( _ _ : < < < < [ [ } } } } | | 1 1 2 2 2 3 3 4 4 4 5 6 6 7 7 7 7 8 9 0 0 0 0 0 0 a a a a a a b b c c c c d e e f f f f g g g g h h i j j j j k l m m m m m n o p p p p q q r s s s t t t u v v w w w w x x y z z z A A A B C C C D D E E F F G G H H H H I J K K K K K L M M M M M M N O O O O O O P P Q Q Q Q R R R S S S T U U U U V W X X X X X Y Z ` ` ` ` `  ...........+.+.@.#.#.#.$.$.%.%.%.&.*.*.*.=.=.=.-.-.-.-.;.;.>.>.,.,.'.'.'.).).).!.~.~.{.{.{.{.].].^.^.^.^.^./.(.(.(.(.(._.:.<.<.<.<.<.[.[.[.}.}.}.|.1.1.1.1.2.2.3.3.3.3.3.4.5.6.6.6.6.6.7.8.8.8.8.8.9.9.0.a.a.a.b.b.c.c.d.d.d.e.e.f.f.f.g.h.h.i.i.i.i.j.j.j.k.k.k.l.l.m.n.n.n.o.o.o.o.p.p.q.q.q.q.q.r.r.s.s.s.s.t.t.u.u.u.u.u.v.w.w.x.x.x.y.z.z.z.A.A.A.B.B.B.B.B.C.D.D.D.D.D.D.E.F.F.F.F.F.F.G.H.H.H.H.H.I.J.J.K.K.K.L.L.M.M.N.N.O.O.P.P.P.P.Q.Q.Q.R.R.R.S.S.T.U.U.U.U.V.V.W.X.X.X.Y.Y.Y.Z.`.`. + + + +.+.+++++++++@+@+#+$+$+$+$+%+&+&+&+*+*+*+=+-+-+-+-+;+>+,+,+,+,+,+'+)+)+)+)+)+)+!+~+~+~+~+~+{+]+^+^+^+^+/+(+(+(+_+_+_+:+<+<+<+<+[+}+}+|+|+|+|+1+1+2+2+2+2+3+3+4+5+5+5+6+6+6+7+8+8+9+9+9+9+0+a+a+b+b+b+c+c+c+d+d+d+d+e+e+f+f+g+g+h+h+i+i+i+j+j+k+l+l+l+l+l+m+n+n+n+n+n+n+o+p+p+p+p+p+p+q+r+r+r+r+r+s+s+s+t+t+t+u+v+v+v+w+w+x+y+y+y+y+y+z+z+A+A+A+A+B+B+C+C+C+C+C+D+D+E+E+E+E+F+F+F+G+H+H+I+I+I+J+J+J+K+K+K+K+L+L+M+N+N+N+O+O+P+P+P+Q+Q+R+R+S+S+S+T+U+U+V+V+V+V+V+W+X+X+X+X+X+Y+Z+`+`+`+`+`+ @ @.@.@.@.@+@@@@@@@#@#@#@$@$@$@$@$@%@&@*@*@*@*@*@=@-@-@-@-@-@;@;@>@>@>@>@,@,@'@)@)@)@!@!@!@~@~@{@{@]@]@^@^@^@^@/@/@/@(@(@(@_@:@:@:@<@<@[@[@[@}@|@|@1@1@1@1@1@2@3@3@3@3@3@4@5@6@6@6@6@6@7@8@9@9@9@9@0@a@a@a@b@b@b@c@c@c@c@d@d@e@e@e@e@e@e@f@g@g@g@g@g@g@h@i@i@i@i@i@j@k@l@l@l@l@m@m@n@n@o@o@p@p@q@q@q@r@s@s@s@t@t@t@u@v@v@w@w@w@w@x@x@y@z@z@z@A@A@A@B@C@C@D@D@D@D@E@F@G@G@G@G@G@H@I@J@J@J@J@K@L@L@M@M@M@M@N@N@N@N@O@O@P@Q@Q@Q@Q@R@R@S@S@S@S@S@S@T@T@T@T@T@T@U@V@W@W@W@W@X@X@Y@Z@Z@Z@`@`@ # # #.#.#+#+#@#@#@#@#####$#$#$#$#%#&#&#*#*#*#=#=#=#-#-#-#;#;#;#;#>#,#'#'#'#'#)#)#!#~#~#~#~#{#{#]#^#^#^#^#/#(#(#_#_#_#:#<#<#<#<#[#[#}#}#}#}#}#}#|#|#|#|#",
"+ + + + @ @ @ @ @ @ # # $ $ $ $ % & & & * * = - - - - ; > > , , , , ' ) ) ! ! ! ! ~ { ] ] ] ] ^ ^ ^ / / / ( ( ( _ _ : < < < < [ [ } } } } | | 1 1 2 2 2 3 3 4 4 4 5 6 6 7 7 7 7 8 9 0 0 0 0 0 0 a a a a a a b b c c c c d e e f f f f g g g g h h i j j j j k l m m m m m n o p p p p q q r s s s t t t u v v w w w w x x y z z z A A A B C C C D D E E F F G G H H H H I J K K K K K L M M M M M M N O O O O O O P P Q Q Q Q R R R S S S T U U U U V W X X X X X Y Z ` ` ` ` `  ...........+.+.@.#.#.#.$.$.%.%.%.&.*.*.*.=.=.=.-.-.-.-.;.;.>.>.,.,.'.'.'.).).).!.~.~.{.{.{.{.].].^.^.^.^.^./.(.(.(.(.(._.:.<.<.<.<.<.[.[.[.}.}.}.|.1.1.1.1.2.2.3.3.3.3.3.4.5.6.6.6.6.6.7.8.8.8.8.8.9.9.0.a.a.a.b.b.c.c.d.d.d.e.e.f.f.f.g.h.h.i.i.i.i.j.j.j.k.k.k.l.l.m.n.n.n.o.o.o.o.p.p.q.q.q.q.q.r.r.s.s.s.s.t.t.u.u.u.u.u.v.w.w.x.x.x.y.z.z.z.A.A.A.B.B.B.B.B.C.D.D.D.D.D.D.E.F.F.F.F.F.F.G.H.H.H.H.H.I.J.J.K.K.K.L.L.M.M.N.N.O.O.P.P.P.P.Q.Q.Q.R.R.R.S.S.T.U.U.U.U.V.V.W.X.X.X.Y.Y.Y.Z.`.`. + + + +.+.+++++++++@+@+#+$+$+$+$+%+&+&+&+*+*+*+=+-+-+-+-+;+>+,+,+,+,+,+'+)+)+)+)+)+)+!+~+~+~+~+~+{+]+^+^+^+^+/+(+(+(+_+_+_+:+<+<+<+<+[+}+}+|+|+|+|+1+1+2+2+2+2+3+3+4+5+5+5+6+6+6+7+8+8+9+9+9+9+0+a+a+b+b+b+c+c+c+d+d+d+d+e+e+f+f+g+g+h+h+i+i+i+j+j+k+l+l+l+l+l+m+n+n+n+n+n+n+o+p+p+p+p+p+p+q+r+r+r+r+r+s+s+s+t+t+t+u+v+v+v+w+w+x+y+y+y+y+y+z+z+A+A+A+A+B+B+C+C+C+C+C+D+D+E+E+E+E+F+F+F+G+H+H+I+I+I+J+J+J+K+K+K+K+L+L+M+N+N+N+O+O+P+P+P+Q+Q+R+R+S+S+S+T+U+U+V+V+V+V+V+W+X+X+X+X+X+Y+Z+`+`+`+`+`+ @ @.@.@.@.@+@@@@@@@#@#@#@$@$@$@$@$@%@&@*@*@*@*@*@=@-@-@-@-@-@;@;@>@>@>@>@,@,@'@)@)@)@!@!@!@~@~@{@{@]@]@^@^@^@^@/@/@/@(@(@(@_@:@:@:@<@<@[@[@[@}@|@|@1@1@1@1@1@2@3@3@3@3@3@4@5@6@6@6@6@6@7@8@9@9@9@9@0@a@a@a@b@b@b@c@c@c@c@d@d@e@e@e@e@e@e@f@g@g@g@g@g@g@h@i@i@i@i@i@j@k@l@l@l@l@m@m@n@n@o@o@p@p@q@q@q@r@s@s@s@t@t@t@u@v@v@w@w@w@w@x@x@y@z@z@z@A@A@A@B@C@C@D@D@D@D@E@F@G@G@G@G@G@H@I@J@J@J@J@K@L@L@M@M@M@M@N@N@N@N@O@O@P@Q@Q@Q@Q@R@R@S@S@S@S@S@S@T@T@T@T@T@T@U@V@W@W@W@W@X@X@Y@Z@Z@Z@`@`@ # # #.#.#+#+#@#@#@#@#####$#$#$#$#%#&#&#*#*#*#=#=#=#-#-#-#;#;#;#;#>#,#'#'#'#'#)#)#!#~#~#~#~#{#{#]#^#^#^#^#/#(#(#_#_#_#:#<#<#<#<#[#[#}#}#}#}#}#}#|#|#|#|#",
"+ + + + @ @ @ @ @ @ # # $ $ $ $ % & & & * * = - - - - ; > > , , , , ' ) ) ! ! ! ! ~ { ] ] ] ] ^ ^ ^ / / / ( ( ( _ _ : < < < < [ [ } } } } | | 1 1 2 2 2 3 3 4 4 4 5 6 6 7 7 7 7 8 9 0 0 0 0 0 0 a a a a a a b b c c c c d e e f f f f g g g g h h i j j j j k l m m m m m n o p p p p q q r s s s t t t u v v w w w w x x y z z z A A A B C C C D D E E F F G G H H H H I J K K K K K L M M M M M M N O O O O O O P P Q Q Q Q R R R S S S T U U U U V W X X X X X Y Z ` ` ` ` `  ...........+.+.@.#.#.#.$.$.%.%.%.&.*.*.*.=.=.=.-.-.-.-.;.;.>.>.,.,.'.'.'.).).).!.~.~.{.{.{.{.].].^.^.^.^.^./.(.(.(.(.(._.:.<.<.<.<.<.[.[.[.}.}.}.|.1.1.1.1.2.2.3.3.3.3.3.4.5.6.6.6.6.6.7.8.8.8.8.8.9.9.0.a.a.a.b.b.c.c.d.d.d.e.e.f.f.f.g.h.h.i.i.i.i.j.j.j.k.k.k.l.l.m.n.n.n.o.o.o.o.p.p.q.q.q.q.q.r.r.s.s.s.s.t.t.u.u.u.u.u.v.w.w.x.x.x.y.z.z.z.A.A.A.B.B.B.B.B.C.D.D.D.D.D.D.E.F.F.F.F.F.F.G.H.H.H.H.H.I.J.J.K.K.K.L.L.M.M.N.N.O.O.P.P.P.P.Q.Q.Q.R.R.R.S.S.T.U.U.U.U.V.V.W.X.X.X.Y.Y.Y.Z.`.`. + + + +.+.+++++++++@+@+#+$+$+$+$+%+&+&+&+*+*+*+=+-+-+-+-+;+>+,+,+,+,+,+'+)+)+)+)+)+)+!+~+~+~+~+~+{+]+^+^+^+^+/+(+(+(+_+_+_+:+<+<+<+<+[+}+}+|+|+|+|+1+1+2+2+2+2+3+3+4+5+5+5+6+6+6+7+8+8+9+9+9+9+0+a+a+b+b+b+c+c+c+d+d+d+d+e+e+f+f+g+g+h+h+i+i+i+j+j+k+l+l+l+l+l+m+n+n+n+n+n+n+o+p+p+p+p+p+p+q+r+r+r+r+r+s+s+s+t+t+t+u+v+v+v+w+w+x+y+y+y+y+y+z+z+A+A+A+A+B+B+C+C+C+C+C+D+D+E+E+E+E+F+F+F+G+H+H+I+I+I+J+J+J+K+K+K+K+L+L+M+N+N+N+O+O+P+P+P+Q+Q+R+R+S+S+S+T+U+U+V+V+V+V+V+W+X+X+X+X+X+Y+Z+`+`+`+`+`+ @ @.@.@.@.@+@@@@@@@#@#@#@$@$@$@$@$@%@&@*@*@*@*@*@=@-@-@-@-@-@;@;@>@>@>@>@,@,@'@)@)@)@!@!@!@~@~@{@{@]@]@^@^@^@^@/@/@/@(@(@(@_@:@:@:@<@<@[@[@[@}@|@|@1@1@1@1@1@2@3@3@3@3@3@4@5@6@6@6@6@6@7@8@9@9@9@9@0@a@a@a@b@b@b@c@c@c@c@d@d@e@e@e@e@e@e@f@g@g@g@g@g@g@h@i@i@i@i@i@j@k@l@l@l@l@m@m@n@n@o@o@p@p@q@q@q@r@s@s@s@t@t@t@u@v@v@w@w@w@w@x@x@y@z@z@z@A@A@A@B@C@C@D@D@D@D@E@F@G@G@G@G@G@H@I@J@J@J@J@K@L@L@M@M@M@M@N@N@N@N@O@O@P@Q@Q@Q@Q@R@R@S@S@S@S@S@S@T@T@T@T@T@T@U@V@W@W@W@W@X@X@Y@Z@Z@Z@`@`@ # # #.#.#+#+#@#@#@#@#####$#$#$#$#%#&#&#*#*#*#=#=#=#-#-#-#;#;#;#;#>#,#'#'#'#'#)#)#!#~#~#~#~#{#{#]#^#^#^#^#/#(#(#_#_#_#:#<#<#<#<#[#[#}#}#}#}#}#}#|#|#|#|#",
"                                                                                                                                                                                                                                                                                                                                                                                                                                                                                                                                                                                                                                                                                                                                                                                                                                                                                                                                                                                                                                                                                                                                                                                                                                                                                                                                                                                                                                                                                                                                                                                                                                                                                                                                                                                                                                                                                                                                                                                                                                                                                                                                ",
"                                                                                                                                                                                                                                                                                                                                                                                                                                                                                                                                                                                                                                                                                                                                                                                                                                                                                                                                                                                                                                                                                                                                                                                                                                                                                                                                                                                                                                                                                                                                                                                                                                                                                                                                                                                                                                                                                                                                                                                                                                                                                                                                ",
"                                                                                                                                                                                                                                                                                                                                                                                                                                                                                                                                                                                                                                                                                                                                                                                                                                                                                                                                                                                                                                                                                                                                                                                                                                                                                                                                                                                                                                                                                                                                                                                                                                                                                                                                                                                                                                                                                                                                                                                                                                                                                                                                ",
"                                                                                                                                                                                                                                                                                                                                                                                                                                                                                                                                                                                                                                                                                                                                                                                                                                                                                                                                                                                                                                                                                                                                                                                                                                                                                                                                                                                                                                                                                                                                                                                                                                                                                                                                                                                                                                                                                                                                                                                                                                                                                                                                "};
