/* XPM */
static char * title_inactive_stretch_xpm[] = {
"1024 48 67 1",
"  	c #D4D0C8 s inactive_color_2",
".	c #FFFFFF s inactive_hilight_2",
"+	c #808080",
"@	c #818181",
"#	c #828282",
"$	c #838383",
"%	c #848484",
"&	c #858585",
"*	c #868686",
"=	c #878787",
"-	c #888888",
";	c #898989",
">	c #8A8A8A",
",	c #8B8B8B",
"'	c #8C8C8C",
")	c #8D8D8D",
"!	c #8E8E8E",
"~	c #8F8F8F",
"{	c #909090",
"]	c #919191",
"^	c #929292",
"/	c #939393",
"(	c #949494",
"_	c #959595",
":	c #969696",
"<	c #979797",
"[	c #989898",
"}	c #999999",
"|	c #9A9A9A",
"1	c #9B9B9B",
"2	c #9C9C9C",
"3	c #9D9D9D",
"4	c #9E9E9E",
"5	c #9F9F9F",
"6	c #A0A0A0",
"7	c #A1A1A1",
"8	c #A2A2A2",
"9	c #A3A3A3",
"0	c #A4A4A4",
"a	c #A5A5A5",
"b	c #A6A6A6",
"c	c #A7A7A7",
"d	c #A8A8A8",
"e	c #A9A9A9",
"f	c #AAAAAA",
"g	c #ABABAB",
"h	c #ACACAC",
"i	c #ADADAD",
"j	c #AEAEAE",
"k	c #AFAFAF",
"l	c #B0B0B0",
"m	c #B1B1B1",
"n	c #B2B2B2",
"o	c #B3B3B3",
"p	c #B4B4B4",
"q	c #B5B5B5",
"r	c #B6B6B6",
"s	c #B7B7B7",
"t	c #B8B8B8",
"u	c #B9B9B9",
"v	c #BABABA",
"w	c #BBBBBB",
"x	c #BCBCBC",
"y	c #BDBDBD",
"z	c #BEBEBE",
"A	c #BFBFBF",
"B	c #C0C0C0",
"                                                                                                                                                                                                                                                                                                                                                                                                                                                                                                                                                                                                                                                                                                                                                                                                                                                                                                                                                                                                                                                                ",
"                                                                                                                                                                                                                                                                                                                                                                                                                                                                                                                                                                                                                                                                                                                                                                                                                                                                                                                                                                                                                                                                ",
"................................................................................................................................................................................................................................................................................................................................................................................................................................................................................................................................................................................................................................................................................................................................................................................................................................................................................................................................................................................................................................................................",
"................................................................................................................................................................................................................................................................................................................................................................................................................................................................................................................................................................................................................................................................................................................................................................................................................................................................................................................................................................................................................................................................",
"                                                                                                                                                                                                                                                                                                                                                                                                                                                                                                                                                                                                                                                                                                                                                                                                                                                                                                                                                                                                                                                                ",
"                                                                                                                                                                                                                                                                                                                                                                                                                                                                                                                                                                                                                                                                                                                                                                                                                                                                                                                                                                                                                                                                ",
"                                                                                                                                                                                                                                                                                                                                                                                                                                                                                                                                                                                                                                                                                                                                                                                                                                                                                                                                                                                                                                                                ",
"                                                                                                                                                                                                                                                                                                                                                                                                                                                                                                                                                                                                                                                                                                                                                                                                                                                                                                                                                                                                                                                                ",
"++++++++@@@@@@@@@@@@@@@@################$$$$$$$$$$$$$$$$%%%%%%%%%%%%%%%%&&&&&&&&&&&&&&&&****************================----------------;;;;;;;;;;;;;;;;>>>>>>>>>>>>>>>>,,,,,,,,,,,,,,,,''''''''''''''''))))))))))))))))!!!!!!!!!!!!!!!!~~~~~~~~~~~~~~~~{{{{{{{{{{{{{{{{]]]]]]]]]]]]]]]]^^^^^^^^^^^^^^^^////////////////((((((((((((((((________________::::::::::::::::<<<<<<<<<<<<<<<<[[[[[[[[[[[[[[[[}}}}}}}}}}}}}}}}||||||||||||||||1111111111111111222222222222222233333333333333334444444444444444555555555555555566666666666666667777777777777777888888888888888899999999999999990000000000000000aaaaaaaaaaaaaaaabbbbbbbbbbbbbbbbccccccccccccccccddddddddddddddddeeeeeeeeeeeeeeeeffffffffffffffffgggggggggggggggghhhhhhhhhhhhhhhhiiiiiiiiiiiiiiiijjjjjjjjjjjjjjjjkkkkkkkkkkkkkkkkllllllllllllllllmmmmmmmmmmmmmmmmnnnnnnnnnnnnnnnnooooooooooooooooppppppppppppppppqqqqqqqqqqqqqqqqrrrrrrrrrrrrrrrrssssssssssssssssttttttttttttttttuuuuuuuuuuuuuuuuvvvvvvvvvvvvvvvvwwwwwwwwwwwwwwwwxxxxxxxxxxxxxxxxyyyyyyyyyyyyyyyyzzzzzzzzzzzzzzzzAAAAAAAAAAAAAAAABBBBBBBB",
"++++++++@@@@@@@@@@@@@@@@################$$$$$$$$$$$$$$$$%%%%%%%%%%%%%%%%&&&&&&&&&&&&&&&&****************================----------------;;;;;;;;;;;;;;;;>>>>>>>>>>>>>>>>,,,,,,,,,,,,,,,,''''''''''''''''))))))))))))))))!!!!!!!!!!!!!!!!~~~~~~~~~~~~~~~~{{{{{{{{{{{{{{{{]]]]]]]]]]]]]]]]^^^^^^^^^^^^^^^^////////////////((((((((((((((((________________::::::::::::::::<<<<<<<<<<<<<<<<[[[[[[[[[[[[[[[[}}}}}}}}}}}}}}}}||||||||||||||||1111111111111111222222222222222233333333333333334444444444444444555555555555555566666666666666667777777777777777888888888888888899999999999999990000000000000000aaaaaaaaaaaaaaaabbbbbbbbbbbbbbbbccccccccccccccccddddddddddddddddeeeeeeeeeeeeeeeeffffffffffffffffgggggggggggggggghhhhhhhhhhhhhhhhiiiiiiiiiiiiiiiijjjjjjjjjjjjjjjjkkkkkkkkkkkkkkkkllllllllllllllllmmmmmmmmmmmmmmmmnnnnnnnnnnnnnnnnooooooooooooooooppppppppppppppppqqqqqqqqqqqqqqqqrrrrrrrrrrrrrrrrssssssssssssssssttttttttttttttttuuuuuuuuuuuuuuuuvvvvvvvvvvvvvvvvwwwwwwwwwwwwwwwwxxxxxxxxxxxxxxxxyyyyyyyyyyyyyyyyzzzzzzzzzzzzzzzzAAAAAAAAAAAAAAAABBBBBBBB",
"++++++++@@@@@@@@@@@@@@@@################$$$$$$$$$$$$$$$$%%%%%%%%%%%%%%%%&&&&&&&&&&&&&&&&****************================----------------;;;;;;;;;;;;;;;;>>>>>>>>>>>>>>>>,,,,,,,,,,,,,,,,''''''''''''''''))))))))))))))))!!!!!!!!!!!!!!!!~~~~~~~~~~~~~~~~{{{{{{{{{{{{{{{{]]]]]]]]]]]]]]]]^^^^^^^^^^^^^^^^////////////////((((((((((((((((________________::::::::::::::::<<<<<<<<<<<<<<<<[[[[[[[[[[[[[[[[}}}}}}}}}}}}}}}}||||||||||||||||1111111111111111222222222222222233333333333333334444444444444444555555555555555566666666666666667777777777777777888888888888888899999999999999990000000000000000aaaaaaaaaaaaaaaabbbbbbbbbbbbbbbbccccccccccccccccddddddddddddddddeeeeeeeeeeeeeeeeffffffffffffffffgggggggggggggggghhhhhhhhhhhhhhhhiiiiiiiiiiiiiiiijjjjjjjjjjjjjjjjkkkkkkkkkkkkkkkkllllllllllllllllmmmmmmmmmmmmmmmmnnnnnnnnnnnnnnnnooooooooooooooooppppppppppppppppqqqqqqqqqqqqqqqqrrrrrrrrrrrrrrrrssssssssssssssssttttttttttttttttuuuuuuuuuuuuuuuuvvvvvvvvvvvvvvvvwwwwwwwwwwwwwwwwxxxxxxxxxxxxxxxxyyyyyyyyyyyyyyyyzzzzzzzzzzzzzzzzAAAAAAAAAAAAAAAABBBBBBBB",
"++++++++@@@@@@@@@@@@@@@@################$$$$$$$$$$$$$$$$%%%%%%%%%%%%%%%%&&&&&&&&&&&&&&&&****************================----------------;;;;;;;;;;;;;;;;>>>>>>>>>>>>>>>>,,,,,,,,,,,,,,,,''''''''''''''''))))))))))))))))!!!!!!!!!!!!!!!!~~~~~~~~~~~~~~~~{{{{{{{{{{{{{{{{]]]]]]]]]]]]]]]]^^^^^^^^^^^^^^^^////////////////((((((((((((((((________________::::::::::::::::<<<<<<<<<<<<<<<<[[[[[[[[[[[[[[[[}}}}}}}}}}}}}}}}||||||||||||||||1111111111111111222222222222222233333333333333334444444444444444555555555555555566666666666666667777777777777777888888888888888899999999999999990000000000000000aaaaaaaaaaaaaaaabbbbbbbbbbbbbbbbccccccccccccccccddddddddddddddddeeeeeeeeeeeeeeeeffffffffffffffffgggggggggggggggghhhhhhhhhhhhhhhhiiiiiiiiiiiiiiiijjjjjjjjjjjjjjjjkkkkkkkkkkkkkkkkllllllllllllllllmmmmmmmmmmmmmmmmnnnnnnnnnnnnnnnnooooooooooooooooppppppppppppppppqqqqqqqqqqqqqqqqrrrrrrrrrrrrrrrrssssssssssssssssttttttttttttttttuuuuuuuuuuuuuuuuvvvvvvvvvvvvvvvvwwwwwwwwwwwwwwwwxxxxxxxxxxxxxxxxyyyyyyyyyyyyyyyyzzzzzzzzzzzzzzzzAAAAAAAAAAAAAAAABBBBBBBB",
"++++++++@@@@@@@@@@@@@@@@################$$$$$$$$$$$$$$$$%%%%%%%%%%%%%%%%&&&&&&&&&&&&&&&&****************================----------------;;;;;;;;;;;;;;;;>>>>>>>>>>>>>>>>,,,,,,,,,,,,,,,,''''''''''''''''))))))))))))))))!!!!!!!!!!!!!!!!~~~~~~~~~~~~~~~~{{{{{{{{{{{{{{{{]]]]]]]]]]]]]]]]^^^^^^^^^^^^^^^^////////////////((((((((((((((((________________::::::::::::::::<<<<<<<<<<<<<<<<[[[[[[[[[[[[[[[[}}}}}}}}}}}}}}}}||||||||||||||||1111111111111111222222222222222233333333333333334444444444444444555555555555555566666666666666667777777777777777888888888888888899999999999999990000000000000000aaaaaaaaaaaaaaaabbbbbbbbbbbbbbbbccccccccccccccccddddddddddddddddeeeeeeeeeeeeeeeeffffffffffffffffgggggggggggggggghhhhhhhhhhhhhhhhiiiiiiiiiiiiiiiijjjjjjjjjjjjjjjjkkkkkkkkkkkkkkkkllllllllllllllllmmmmmmmmmmmmmmmmnnnnnnnnnnnnnnnnooooooooooooooooppppppppppppppppqqqqqqqqqqqqqqqqrrrrrrrrrrrrrrrrssssssssssssssssttttttttttttttttuuuuuuuuuuuuuuuuvvvvvvvvvvvvvvvvwwwwwwwwwwwwwwwwxxxxxxxxxxxxxxxxyyyyyyyyyyyyyyyyzzzzzzzzzzzzzzzzAAAAAAAAAAAAAAAABBBBBBBB",
"++++++++@@@@@@@@@@@@@@@@################$$$$$$$$$$$$$$$$%%%%%%%%%%%%%%%%&&&&&&&&&&&&&&&&****************================----------------;;;;;;;;;;;;;;;;>>>>>>>>>>>>>>>>,,,,,,,,,,,,,,,,''''''''''''''''))))))))))))))))!!!!!!!!!!!!!!!!~~~~~~~~~~~~~~~~{{{{{{{{{{{{{{{{]]]]]]]]]]]]]]]]^^^^^^^^^^^^^^^^////////////////((((((((((((((((________________::::::::::::::::<<<<<<<<<<<<<<<<[[[[[[[[[[[[[[[[}}}}}}}}}}}}}}}}||||||||||||||||1111111111111111222222222222222233333333333333334444444444444444555555555555555566666666666666667777777777777777888888888888888899999999999999990000000000000000aaaaaaaaaaaaaaaabbbbbbbbbbbbbbbbccccccccccccccccddddddddddddddddeeeeeeeeeeeeeeeeffffffffffffffffgggggggggggggggghhhhhhhhhhhhhhhhiiiiiiiiiiiiiiiijjjjjjjjjjjjjjjjkkkkkkkkkkkkkkkkllllllllllllllllmmmmmmmmmmmmmmmmnnnnnnnnnnnnnnnnooooooooooooooooppppppppppppppppqqqqqqqqqqqqqqqqrrrrrrrrrrrrrrrrssssssssssssssssttttttttttttttttuuuuuuuuuuuuuuuuvvvvvvvvvvvvvvvvwwwwwwwwwwwwwwwwxxxxxxxxxxxxxxxxyyyyyyyyyyyyyyyyzzzzzzzzzzzzzzzzAAAAAAAAAAAAAAAABBBBBBBB",
"++++++++@@@@@@@@@@@@@@@@################$$$$$$$$$$$$$$$$%%%%%%%%%%%%%%%%&&&&&&&&&&&&&&&&****************================----------------;;;;;;;;;;;;;;;;>>>>>>>>>>>>>>>>,,,,,,,,,,,,,,,,''''''''''''''''))))))))))))))))!!!!!!!!!!!!!!!!~~~~~~~~~~~~~~~~{{{{{{{{{{{{{{{{]]]]]]]]]]]]]]]]^^^^^^^^^^^^^^^^////////////////((((((((((((((((________________::::::::::::::::<<<<<<<<<<<<<<<<[[[[[[[[[[[[[[[[}}}}}}}}}}}}}}}}||||||||||||||||1111111111111111222222222222222233333333333333334444444444444444555555555555555566666666666666667777777777777777888888888888888899999999999999990000000000000000aaaaaaaaaaaaaaaabbbbbbbbbbbbbbbbccccccccccccccccddddddddddddddddeeeeeeeeeeeeeeeeffffffffffffffffgggggggggggggggghhhhhhhhhhhhhhhhiiiiiiiiiiiiiiiijjjjjjjjjjjjjjjjkkkkkkkkkkkkkkkkllllllllllllllllmmmmmmmmmmmmmmmmnnnnnnnnnnnnnnnnooooooooooooooooppppppppppppppppqqqqqqqqqqqqqqqqrrrrrrrrrrrrrrrrssssssssssssssssttttttttttttttttuuuuuuuuuuuuuuuuvvvvvvvvvvvvvvvvwwwwwwwwwwwwwwwwxxxxxxxxxxxxxxxxyyyyyyyyyyyyyyyyzzzzzzzzzzzzzzzzAAAAAAAAAAAAAAAABBBBBBBB",
"++++++++@@@@@@@@@@@@@@@@################$$$$$$$$$$$$$$$$%%%%%%%%%%%%%%%%&&&&&&&&&&&&&&&&****************================----------------;;;;;;;;;;;;;;;;>>>>>>>>>>>>>>>>,,,,,,,,,,,,,,,,''''''''''''''''))))))))))))))))!!!!!!!!!!!!!!!!~~~~~~~~~~~~~~~~{{{{{{{{{{{{{{{{]]]]]]]]]]]]]]]]^^^^^^^^^^^^^^^^////////////////((((((((((((((((________________::::::::::::::::<<<<<<<<<<<<<<<<[[[[[[[[[[[[[[[[}}}}}}}}}}}}}}}}||||||||||||||||1111111111111111222222222222222233333333333333334444444444444444555555555555555566666666666666667777777777777777888888888888888899999999999999990000000000000000aaaaaaaaaaaaaaaabbbbbbbbbbbbbbbbccccccccccccccccddddddddddddddddeeeeeeeeeeeeeeeeffffffffffffffffgggggggggggggggghhhhhhhhhhhhhhhhiiiiiiiiiiiiiiiijjjjjjjjjjjjjjjjkkkkkkkkkkkkkkkkllllllllllllllllmmmmmmmmmmmmmmmmnnnnnnnnnnnnnnnnooooooooooooooooppppppppppppppppqqqqqqqqqqqqqqqqrrrrrrrrrrrrrrrrssssssssssssssssttttttttttttttttuuuuuuuuuuuuuuuuvvvvvvvvvvvvvvvvwwwwwwwwwwwwwwwwxxxxxxxxxxxxxxxxyyyyyyyyyyyyyyyyzzzzzzzzzzzzzzzzAAAAAAAAAAAAAAAABBBBBBBB",
"++++++++@@@@@@@@@@@@@@@@################$$$$$$$$$$$$$$$$%%%%%%%%%%%%%%%%&&&&&&&&&&&&&&&&****************================----------------;;;;;;;;;;;;;;;;>>>>>>>>>>>>>>>>,,,,,,,,,,,,,,,,''''''''''''''''))))))))))))))))!!!!!!!!!!!!!!!!~~~~~~~~~~~~~~~~{{{{{{{{{{{{{{{{]]]]]]]]]]]]]]]]^^^^^^^^^^^^^^^^////////////////((((((((((((((((________________::::::::::::::::<<<<<<<<<<<<<<<<[[[[[[[[[[[[[[[[}}}}}}}}}}}}}}}}||||||||||||||||1111111111111111222222222222222233333333333333334444444444444444555555555555555566666666666666667777777777777777888888888888888899999999999999990000000000000000aaaaaaaaaaaaaaaabbbbbbbbbbbbbbbbccccccccccccccccddddddddddddddddeeeeeeeeeeeeeeeeffffffffffffffffgggggggggggggggghhhhhhhhhhhhhhhhiiiiiiiiiiiiiiiijjjjjjjjjjjjjjjjkkkkkkkkkkkkkkkkllllllllllllllllmmmmmmmmmmmmmmmmnnnnnnnnnnnnnnnnooooooooooooooooppppppppppppppppqqqqqqqqqqqqqqqqrrrrrrrrrrrrrrrrssssssssssssssssttttttttttttttttuuuuuuuuuuuuuuuuvvvvvvvvvvvvvvvvwwwwwwwwwwwwwwwwxxxxxxxxxxxxxxxxyyyyyyyyyyyyyyyyzzzzzzzzzzzzzzzzAAAAAAAAAAAAAAAABBBBBBBB",
"++++++++@@@@@@@@@@@@@@@@################$$$$$$$$$$$$$$$$%%%%%%%%%%%%%%%%&&&&&&&&&&&&&&&&****************================----------------;;;;;;;;;;;;;;;;>>>>>>>>>>>>>>>>,,,,,,,,,,,,,,,,''''''''''''''''))))))))))))))))!!!!!!!!!!!!!!!!~~~~~~~~~~~~~~~~{{{{{{{{{{{{{{{{]]]]]]]]]]]]]]]]^^^^^^^^^^^^^^^^////////////////((((((((((((((((________________::::::::::::::::<<<<<<<<<<<<<<<<[[[[[[[[[[[[[[[[}}}}}}}}}}}}}}}}||||||||||||||||1111111111111111222222222222222233333333333333334444444444444444555555555555555566666666666666667777777777777777888888888888888899999999999999990000000000000000aaaaaaaaaaaaaaaabbbbbbbbbbbbbbbbccccccccccccccccddddddddddddddddeeeeeeeeeeeeeeeeffffffffffffffffgggggggggggggggghhhhhhhhhhhhhhhhiiiiiiiiiiiiiiiijjjjjjjjjjjjjjjjkkkkkkkkkkkkkkkkllllllllllllllllmmmmmmmmmmmmmmmmnnnnnnnnnnnnnnnnooooooooooooooooppppppppppppppppqqqqqqqqqqqqqqqqrrrrrrrrrrrrrrrrssssssssssssssssttttttttttttttttuuuuuuuuuuuuuuuuvvvvvvvvvvvvvvvvwwwwwwwwwwwwwwwwxxxxxxxxxxxxxxxxyyyyyyyyyyyyyyyyzzzzzzzzzzzzzzzzAAAAAAAAAAAAAAAABBBBBBBB",
"++++++++@@@@@@@@@@@@@@@@################$$$$$$$$$$$$$$$$%%%%%%%%%%%%%%%%&&&&&&&&&&&&&&&&****************================----------------;;;;;;;;;;;;;;;;>>>>>>>>>>>>>>>>,,,,,,,,,,,,,,,,''''''''''''''''))))))))))))))))!!!!!!!!!!!!!!!!~~~~~~~~~~~~~~~~{{{{{{{{{{{{{{{{]]]]]]]]]]]]]]]]^^^^^^^^^^^^^^^^////////////////((((((((((((((((________________::::::::::::::::<<<<<<<<<<<<<<<<[[[[[[[[[[[[[[[[}}}}}}}}}}}}}}}}||||||||||||||||1111111111111111222222222222222233333333333333334444444444444444555555555555555566666666666666667777777777777777888888888888888899999999999999990000000000000000aaaaaaaaaaaaaaaabbbbbbbbbbbbbbbbccccccccccccccccddddddddddddddddeeeeeeeeeeeeeeeeffffffffffffffffgggggggggggggggghhhhhhhhhhhhhhhhiiiiiiiiiiiiiiiijjjjjjjjjjjjjjjjkkkkkkkkkkkkkkkkllllllllllllllllmmmmmmmmmmmmmmmmnnnnnnnnnnnnnnnnooooooooooooooooppppppppppppppppqqqqqqqqqqqqqqqqrrrrrrrrrrrrrrrrssssssssssssssssttttttttttttttttuuuuuuuuuuuuuuuuvvvvvvvvvvvvvvvvwwwwwwwwwwwwwwwwxxxxxxxxxxxxxxxxyyyyyyyyyyyyyyyyzzzzzzzzzzzzzzzzAAAAAAAAAAAAAAAABBBBBBBB",
"++++++++@@@@@@@@@@@@@@@@################$$$$$$$$$$$$$$$$%%%%%%%%%%%%%%%%&&&&&&&&&&&&&&&&****************================----------------;;;;;;;;;;;;;;;;>>>>>>>>>>>>>>>>,,,,,,,,,,,,,,,,''''''''''''''''))))))))))))))))!!!!!!!!!!!!!!!!~~~~~~~~~~~~~~~~{{{{{{{{{{{{{{{{]]]]]]]]]]]]]]]]^^^^^^^^^^^^^^^^////////////////((((((((((((((((________________::::::::::::::::<<<<<<<<<<<<<<<<[[[[[[[[[[[[[[[[}}}}}}}}}}}}}}}}||||||||||||||||1111111111111111222222222222222233333333333333334444444444444444555555555555555566666666666666667777777777777777888888888888888899999999999999990000000000000000aaaaaaaaaaaaaaaabbbbbbbbbbbbbbbbccccccccccccccccddddddddddddddddeeeeeeeeeeeeeeeeffffffffffffffffgggggggggggggggghhhhhhhhhhhhhhhhiiiiiiiiiiiiiiiijjjjjjjjjjjjjjjjkkkkkkkkkkkkkkkkllllllllllllllllmmmmmmmmmmmmmmmmnnnnnnnnnnnnnnnnooooooooooooooooppppppppppppppppqqqqqqqqqqqqqqqqrrrrrrrrrrrrrrrrssssssssssssssssttttttttttttttttuuuuuuuuuuuuuuuuvvvvvvvvvvvvvvvvwwwwwwwwwwwwwwwwxxxxxxxxxxxxxxxxyyyyyyyyyyyyyyyyzzzzzzzzzzzzzzzzAAAAAAAAAAAAAAAABBBBBBBB",
"++++++++@@@@@@@@@@@@@@@@################$$$$$$$$$$$$$$$$%%%%%%%%%%%%%%%%&&&&&&&&&&&&&&&&****************================----------------;;;;;;;;;;;;;;;;>>>>>>>>>>>>>>>>,,,,,,,,,,,,,,,,''''''''''''''''))))))))))))))))!!!!!!!!!!!!!!!!~~~~~~~~~~~~~~~~{{{{{{{{{{{{{{{{]]]]]]]]]]]]]]]]^^^^^^^^^^^^^^^^////////////////((((((((((((((((________________::::::::::::::::<<<<<<<<<<<<<<<<[[[[[[[[[[[[[[[[}}}}}}}}}}}}}}}}||||||||||||||||1111111111111111222222222222222233333333333333334444444444444444555555555555555566666666666666667777777777777777888888888888888899999999999999990000000000000000aaaaaaaaaaaaaaaabbbbbbbbbbbbbbbbccccccccccccccccddddddddddddddddeeeeeeeeeeeeeeeeffffffffffffffffgggggggggggggggghhhhhhhhhhhhhhhhiiiiiiiiiiiiiiiijjjjjjjjjjjjjjjjkkkkkkkkkkkkkkkkllllllllllllllllmmmmmmmmmmmmmmmmnnnnnnnnnnnnnnnnooooooooooooooooppppppppppppppppqqqqqqqqqqqqqqqqrrrrrrrrrrrrrrrrssssssssssssssssttttttttttttttttuuuuuuuuuuuuuuuuvvvvvvvvvvvvvvvvwwwwwwwwwwwwwwwwxxxxxxxxxxxxxxxxyyyyyyyyyyyyyyyyzzzzzzzzzzzzzzzzAAAAAAAAAAAAAAAABBBBBBBB",
"++++++++@@@@@@@@@@@@@@@@################$$$$$$$$$$$$$$$$%%%%%%%%%%%%%%%%&&&&&&&&&&&&&&&&****************================----------------;;;;;;;;;;;;;;;;>>>>>>>>>>>>>>>>,,,,,,,,,,,,,,,,''''''''''''''''))))))))))))))))!!!!!!!!!!!!!!!!~~~~~~~~~~~~~~~~{{{{{{{{{{{{{{{{]]]]]]]]]]]]]]]]^^^^^^^^^^^^^^^^////////////////((((((((((((((((________________::::::::::::::::<<<<<<<<<<<<<<<<[[[[[[[[[[[[[[[[}}}}}}}}}}}}}}}}||||||||||||||||1111111111111111222222222222222233333333333333334444444444444444555555555555555566666666666666667777777777777777888888888888888899999999999999990000000000000000aaaaaaaaaaaaaaaabbbbbbbbbbbbbbbbccccccccccccccccddddddddddddddddeeeeeeeeeeeeeeeeffffffffffffffffgggggggggggggggghhhhhhhhhhhhhhhhiiiiiiiiiiiiiiiijjjjjjjjjjjjjjjjkkkkkkkkkkkkkkkkllllllllllllllllmmmmmmmmmmmmmmmmnnnnnnnnnnnnnnnnooooooooooooooooppppppppppppppppqqqqqqqqqqqqqqqqrrrrrrrrrrrrrrrrssssssssssssssssttttttttttttttttuuuuuuuuuuuuuuuuvvvvvvvvvvvvvvvvwwwwwwwwwwwwwwwwxxxxxxxxxxxxxxxxyyyyyyyyyyyyyyyyzzzzzzzzzzzzzzzzAAAAAAAAAAAAAAAABBBBBBBB",
"++++++++@@@@@@@@@@@@@@@@################$$$$$$$$$$$$$$$$%%%%%%%%%%%%%%%%&&&&&&&&&&&&&&&&****************================----------------;;;;;;;;;;;;;;;;>>>>>>>>>>>>>>>>,,,,,,,,,,,,,,,,''''''''''''''''))))))))))))))))!!!!!!!!!!!!!!!!~~~~~~~~~~~~~~~~{{{{{{{{{{{{{{{{]]]]]]]]]]]]]]]]^^^^^^^^^^^^^^^^////////////////((((((((((((((((________________::::::::::::::::<<<<<<<<<<<<<<<<[[[[[[[[[[[[[[[[}}}}}}}}}}}}}}}}||||||||||||||||1111111111111111222222222222222233333333333333334444444444444444555555555555555566666666666666667777777777777777888888888888888899999999999999990000000000000000aaaaaaaaaaaaaaaabbbbbbbbbbbbbbbbccccccccccccccccddddddddddddddddeeeeeeeeeeeeeeeeffffffffffffffffgggggggggggggggghhhhhhhhhhhhhhhhiiiiiiiiiiiiiiiijjjjjjjjjjjjjjjjkkkkkkkkkkkkkkkkllllllllllllllllmmmmmmmmmmmmmmmmnnnnnnnnnnnnnnnnooooooooooooooooppppppppppppppppqqqqqqqqqqqqqqqqrrrrrrrrrrrrrrrrssssssssssssssssttttttttttttttttuuuuuuuuuuuuuuuuvvvvvvvvvvvvvvvvwwwwwwwwwwwwwwwwxxxxxxxxxxxxxxxxyyyyyyyyyyyyyyyyzzzzzzzzzzzzzzzzAAAAAAAAAAAAAAAABBBBBBBB",
"++++++++@@@@@@@@@@@@@@@@################$$$$$$$$$$$$$$$$%%%%%%%%%%%%%%%%&&&&&&&&&&&&&&&&****************================----------------;;;;;;;;;;;;;;;;>>>>>>>>>>>>>>>>,,,,,,,,,,,,,,,,''''''''''''''''))))))))))))))))!!!!!!!!!!!!!!!!~~~~~~~~~~~~~~~~{{{{{{{{{{{{{{{{]]]]]]]]]]]]]]]]^^^^^^^^^^^^^^^^////////////////((((((((((((((((________________::::::::::::::::<<<<<<<<<<<<<<<<[[[[[[[[[[[[[[[[}}}}}}}}}}}}}}}}||||||||||||||||1111111111111111222222222222222233333333333333334444444444444444555555555555555566666666666666667777777777777777888888888888888899999999999999990000000000000000aaaaaaaaaaaaaaaabbbbbbbbbbbbbbbbccccccccccccccccddddddddddddddddeeeeeeeeeeeeeeeeffffffffffffffffgggggggggggggggghhhhhhhhhhhhhhhhiiiiiiiiiiiiiiiijjjjjjjjjjjjjjjjkkkkkkkkkkkkkkkkllllllllllllllllmmmmmmmmmmmmmmmmnnnnnnnnnnnnnnnnooooooooooooooooppppppppppppppppqqqqqqqqqqqqqqqqrrrrrrrrrrrrrrrrssssssssssssssssttttttttttttttttuuuuuuuuuuuuuuuuvvvvvvvvvvvvvvvvwwwwwwwwwwwwwwwwxxxxxxxxxxxxxxxxyyyyyyyyyyyyyyyyzzzzzzzzzzzzzzzzAAAAAAAAAAAAAAAABBBBBBBB",
"++++++++@@@@@@@@@@@@@@@@################$$$$$$$$$$$$$$$$%%%%%%%%%%%%%%%%&&&&&&&&&&&&&&&&****************================----------------;;;;;;;;;;;;;;;;>>>>>>>>>>>>>>>>,,,,,,,,,,,,,,,,''''''''''''''''))))))))))))))))!!!!!!!!!!!!!!!!~~~~~~~~~~~~~~~~{{{{{{{{{{{{{{{{]]]]]]]]]]]]]]]]^^^^^^^^^^^^^^^^////////////////((((((((((((((((________________::::::::::::::::<<<<<<<<<<<<<<<<[[[[[[[[[[[[[[[[}}}}}}}}}}}}}}}}||||||||||||||||1111111111111111222222222222222233333333333333334444444444444444555555555555555566666666666666667777777777777777888888888888888899999999999999990000000000000000aaaaaaaaaaaaaaaabbbbbbbbbbbbbbbbccccccccccccccccddddddddddddddddeeeeeeeeeeeeeeeeffffffffffffffffgggggggggggggggghhhhhhhhhhhhhhhhiiiiiiiiiiiiiiiijjjjjjjjjjjjjjjjkkkkkkkkkkkkkkkkllllllllllllllllmmmmmmmmmmmmmmmmnnnnnnnnnnnnnnnnooooooooooooooooppppppppppppppppqqqqqqqqqqqqqqqqrrrrrrrrrrrrrrrrssssssssssssssssttttttttttttttttuuuuuuuuuuuuuuuuvvvvvvvvvvvvvvvvwwwwwwwwwwwwwwwwxxxxxxxxxxxxxxxxyyyyyyyyyyyyyyyyzzzzzzzzzzzzzzzzAAAAAAAAAAAAAAAABBBBBBBB",
"++++++++@@@@@@@@@@@@@@@@################$$$$$$$$$$$$$$$$%%%%%%%%%%%%%%%%&&&&&&&&&&&&&&&&****************================----------------;;;;;;;;;;;;;;;;>>>>>>>>>>>>>>>>,,,,,,,,,,,,,,,,''''''''''''''''))))))))))))))))!!!!!!!!!!!!!!!!~~~~~~~~~~~~~~~~{{{{{{{{{{{{{{{{]]]]]]]]]]]]]]]]^^^^^^^^^^^^^^^^////////////////((((((((((((((((________________::::::::::::::::<<<<<<<<<<<<<<<<[[[[[[[[[[[[[[[[}}}}}}}}}}}}}}}}||||||||||||||||1111111111111111222222222222222233333333333333334444444444444444555555555555555566666666666666667777777777777777888888888888888899999999999999990000000000000000aaaaaaaaaaaaaaaabbbbbbbbbbbbbbbbccccccccccccccccddddddddddddddddeeeeeeeeeeeeeeeeffffffffffffffffgggggggggggggggghhhhhhhhhhhhhhhhiiiiiiiiiiiiiiiijjjjjjjjjjjjjjjjkkkkkkkkkkkkkkkkllllllllllllllllmmmmmmmmmmmmmmmmnnnnnnnnnnnnnnnnooooooooooooooooppppppppppppppppqqqqqqqqqqqqqqqqrrrrrrrrrrrrrrrrssssssssssssssssttttttttttttttttuuuuuuuuuuuuuuuuvvvvvvvvvvvvvvvvwwwwwwwwwwwwwwwwxxxxxxxxxxxxxxxxyyyyyyyyyyyyyyyyzzzzzzzzzzzzzzzzAAAAAAAAAAAAAAAABBBBBBBB",
"++++++++@@@@@@@@@@@@@@@@################$$$$$$$$$$$$$$$$%%%%%%%%%%%%%%%%&&&&&&&&&&&&&&&&****************================----------------;;;;;;;;;;;;;;;;>>>>>>>>>>>>>>>>,,,,,,,,,,,,,,,,''''''''''''''''))))))))))))))))!!!!!!!!!!!!!!!!~~~~~~~~~~~~~~~~{{{{{{{{{{{{{{{{]]]]]]]]]]]]]]]]^^^^^^^^^^^^^^^^////////////////((((((((((((((((________________::::::::::::::::<<<<<<<<<<<<<<<<[[[[[[[[[[[[[[[[}}}}}}}}}}}}}}}}||||||||||||||||1111111111111111222222222222222233333333333333334444444444444444555555555555555566666666666666667777777777777777888888888888888899999999999999990000000000000000aaaaaaaaaaaaaaaabbbbbbbbbbbbbbbbccccccccccccccccddddddddddddddddeeeeeeeeeeeeeeeeffffffffffffffffgggggggggggggggghhhhhhhhhhhhhhhhiiiiiiiiiiiiiiiijjjjjjjjjjjjjjjjkkkkkkkkkkkkkkkkllllllllllllllllmmmmmmmmmmmmmmmmnnnnnnnnnnnnnnnnooooooooooooooooppppppppppppppppqqqqqqqqqqqqqqqqrrrrrrrrrrrrrrrrssssssssssssssssttttttttttttttttuuuuuuuuuuuuuuuuvvvvvvvvvvvvvvvvwwwwwwwwwwwwwwwwxxxxxxxxxxxxxxxxyyyyyyyyyyyyyyyyzzzzzzzzzzzzzzzzAAAAAAAAAAAAAAAABBBBBBBB",
"++++++++@@@@@@@@@@@@@@@@################$$$$$$$$$$$$$$$$%%%%%%%%%%%%%%%%&&&&&&&&&&&&&&&&****************================----------------;;;;;;;;;;;;;;;;>>>>>>>>>>>>>>>>,,,,,,,,,,,,,,,,''''''''''''''''))))))))))))))))!!!!!!!!!!!!!!!!~~~~~~~~~~~~~~~~{{{{{{{{{{{{{{{{]]]]]]]]]]]]]]]]^^^^^^^^^^^^^^^^////////////////((((((((((((((((________________::::::::::::::::<<<<<<<<<<<<<<<<[[[[[[[[[[[[[[[[}}}}}}}}}}}}}}}}||||||||||||||||1111111111111111222222222222222233333333333333334444444444444444555555555555555566666666666666667777777777777777888888888888888899999999999999990000000000000000aaaaaaaaaaaaaaaabbbbbbbbbbbbbbbbccccccccccccccccddddddddddddddddeeeeeeeeeeeeeeeeffffffffffffffffgggggggggggggggghhhhhhhhhhhhhhhhiiiiiiiiiiiiiiiijjjjjjjjjjjjjjjjkkkkkkkkkkkkkkkkllllllllllllllllmmmmmmmmmmmmmmmmnnnnnnnnnnnnnnnnooooooooooooooooppppppppppppppppqqqqqqqqqqqqqqqqrrrrrrrrrrrrrrrrssssssssssssssssttttttttttttttttuuuuuuuuuuuuuuuuvvvvvvvvvvvvvvvvwwwwwwwwwwwwwwwwxxxxxxxxxxxxxxxxyyyyyyyyyyyyyyyyzzzzzzzzzzzzzzzzAAAAAAAAAAAAAAAABBBBBBBB",
"++++++++@@@@@@@@@@@@@@@@################$$$$$$$$$$$$$$$$%%%%%%%%%%%%%%%%&&&&&&&&&&&&&&&&****************================----------------;;;;;;;;;;;;;;;;>>>>>>>>>>>>>>>>,,,,,,,,,,,,,,,,''''''''''''''''))))))))))))))))!!!!!!!!!!!!!!!!~~~~~~~~~~~~~~~~{{{{{{{{{{{{{{{{]]]]]]]]]]]]]]]]^^^^^^^^^^^^^^^^////////////////((((((((((((((((________________::::::::::::::::<<<<<<<<<<<<<<<<[[[[[[[[[[[[[[[[}}}}}}}}}}}}}}}}||||||||||||||||1111111111111111222222222222222233333333333333334444444444444444555555555555555566666666666666667777777777777777888888888888888899999999999999990000000000000000aaaaaaaaaaaaaaaabbbbbbbbbbbbbbbbccccccccccccccccddddddddddddddddeeeeeeeeeeeeeeeeffffffffffffffffgggggggggggggggghhhhhhhhhhhhhhhhiiiiiiiiiiiiiiiijjjjjjjjjjjjjjjjkkkkkkkkkkkkkkkkllllllllllllllllmmmmmmmmmmmmmmmmnnnnnnnnnnnnnnnnooooooooooooooooppppppppppppppppqqqqqqqqqqqqqqqqrrrrrrrrrrrrrrrrssssssssssssssssttttttttttttttttuuuuuuuuuuuuuuuuvvvvvvvvvvvvvvvvwwwwwwwwwwwwwwwwxxxxxxxxxxxxxxxxyyyyyyyyyyyyyyyyzzzzzzzzzzzzzzzzAAAAAAAAAAAAAAAABBBBBBBB",
"++++++++@@@@@@@@@@@@@@@@################$$$$$$$$$$$$$$$$%%%%%%%%%%%%%%%%&&&&&&&&&&&&&&&&****************================----------------;;;;;;;;;;;;;;;;>>>>>>>>>>>>>>>>,,,,,,,,,,,,,,,,''''''''''''''''))))))))))))))))!!!!!!!!!!!!!!!!~~~~~~~~~~~~~~~~{{{{{{{{{{{{{{{{]]]]]]]]]]]]]]]]^^^^^^^^^^^^^^^^////////////////((((((((((((((((________________::::::::::::::::<<<<<<<<<<<<<<<<[[[[[[[[[[[[[[[[}}}}}}}}}}}}}}}}||||||||||||||||1111111111111111222222222222222233333333333333334444444444444444555555555555555566666666666666667777777777777777888888888888888899999999999999990000000000000000aaaaaaaaaaaaaaaabbbbbbbbbbbbbbbbccccccccccccccccddddddddddddddddeeeeeeeeeeeeeeeeffffffffffffffffgggggggggggggggghhhhhhhhhhhhhhhhiiiiiiiiiiiiiiiijjjjjjjjjjjjjjjjkkkkkkkkkkkkkkkkllllllllllllllllmmmmmmmmmmmmmmmmnnnnnnnnnnnnnnnnooooooooooooooooppppppppppppppppqqqqqqqqqqqqqqqqrrrrrrrrrrrrrrrrssssssssssssssssttttttttttttttttuuuuuuuuuuuuuuuuvvvvvvvvvvvvvvvvwwwwwwwwwwwwwwwwxxxxxxxxxxxxxxxxyyyyyyyyyyyyyyyyzzzzzzzzzzzzzzzzAAAAAAAAAAAAAAAABBBBBBBB",
"++++++++@@@@@@@@@@@@@@@@################$$$$$$$$$$$$$$$$%%%%%%%%%%%%%%%%&&&&&&&&&&&&&&&&****************================----------------;;;;;;;;;;;;;;;;>>>>>>>>>>>>>>>>,,,,,,,,,,,,,,,,''''''''''''''''))))))))))))))))!!!!!!!!!!!!!!!!~~~~~~~~~~~~~~~~{{{{{{{{{{{{{{{{]]]]]]]]]]]]]]]]^^^^^^^^^^^^^^^^////////////////((((((((((((((((________________::::::::::::::::<<<<<<<<<<<<<<<<[[[[[[[[[[[[[[[[}}}}}}}}}}}}}}}}||||||||||||||||1111111111111111222222222222222233333333333333334444444444444444555555555555555566666666666666667777777777777777888888888888888899999999999999990000000000000000aaaaaaaaaaaaaaaabbbbbbbbbbbbbbbbccccccccccccccccddddddddddddddddeeeeeeeeeeeeeeeeffffffffffffffffgggggggggggggggghhhhhhhhhhhhhhhhiiiiiiiiiiiiiiiijjjjjjjjjjjjjjjjkkkkkkkkkkkkkkkkllllllllllllllllmmmmmmmmmmmmmmmmnnnnnnnnnnnnnnnnooooooooooooooooppppppppppppppppqqqqqqqqqqqqqqqqrrrrrrrrrrrrrrrrssssssssssssssssttttttttttttttttuuuuuuuuuuuuuuuuvvvvvvvvvvvvvvvvwwwwwwwwwwwwwwwwxxxxxxxxxxxxxxxxyyyyyyyyyyyyyyyyzzzzzzzzzzzzzzzzAAAAAAAAAAAAAAAABBBBBBBB",
"++++++++@@@@@@@@@@@@@@@@################$$$$$$$$$$$$$$$$%%%%%%%%%%%%%%%%&&&&&&&&&&&&&&&&****************================----------------;;;;;;;;;;;;;;;;>>>>>>>>>>>>>>>>,,,,,,,,,,,,,,,,''''''''''''''''))))))))))))))))!!!!!!!!!!!!!!!!~~~~~~~~~~~~~~~~{{{{{{{{{{{{{{{{]]]]]]]]]]]]]]]]^^^^^^^^^^^^^^^^////////////////((((((((((((((((________________::::::::::::::::<<<<<<<<<<<<<<<<[[[[[[[[[[[[[[[[}}}}}}}}}}}}}}}}||||||||||||||||1111111111111111222222222222222233333333333333334444444444444444555555555555555566666666666666667777777777777777888888888888888899999999999999990000000000000000aaaaaaaaaaaaaaaabbbbbbbbbbbbbbbbccccccccccccccccddddddddddddddddeeeeeeeeeeeeeeeeffffffffffffffffgggggggggggggggghhhhhhhhhhhhhhhhiiiiiiiiiiiiiiiijjjjjjjjjjjjjjjjkkkkkkkkkkkkkkkkllllllllllllllllmmmmmmmmmmmmmmmmnnnnnnnnnnnnnnnnooooooooooooooooppppppppppppppppqqqqqqqqqqqqqqqqrrrrrrrrrrrrrrrrssssssssssssssssttttttttttttttttuuuuuuuuuuuuuuuuvvvvvvvvvvvvvvvvwwwwwwwwwwwwwwwwxxxxxxxxxxxxxxxxyyyyyyyyyyyyyyyyzzzzzzzzzzzzzzzzAAAAAAAAAAAAAAAABBBBBBBB",
"++++++++@@@@@@@@@@@@@@@@################$$$$$$$$$$$$$$$$%%%%%%%%%%%%%%%%&&&&&&&&&&&&&&&&****************================----------------;;;;;;;;;;;;;;;;>>>>>>>>>>>>>>>>,,,,,,,,,,,,,,,,''''''''''''''''))))))))))))))))!!!!!!!!!!!!!!!!~~~~~~~~~~~~~~~~{{{{{{{{{{{{{{{{]]]]]]]]]]]]]]]]^^^^^^^^^^^^^^^^////////////////((((((((((((((((________________::::::::::::::::<<<<<<<<<<<<<<<<[[[[[[[[[[[[[[[[}}}}}}}}}}}}}}}}||||||||||||||||1111111111111111222222222222222233333333333333334444444444444444555555555555555566666666666666667777777777777777888888888888888899999999999999990000000000000000aaaaaaaaaaaaaaaabbbbbbbbbbbbbbbbccccccccccccccccddddddddddddddddeeeeeeeeeeeeeeeeffffffffffffffffgggggggggggggggghhhhhhhhhhhhhhhhiiiiiiiiiiiiiiiijjjjjjjjjjjjjjjjkkkkkkkkkkkkkkkkllllllllllllllllmmmmmmmmmmmmmmmmnnnnnnnnnnnnnnnnooooooooooooooooppppppppppppppppqqqqqqqqqqqqqqqqrrrrrrrrrrrrrrrrssssssssssssssssttttttttttttttttuuuuuuuuuuuuuuuuvvvvvvvvvvvvvvvvwwwwwwwwwwwwwwwwxxxxxxxxxxxxxxxxyyyyyyyyyyyyyyyyzzzzzzzzzzzzzzzzAAAAAAAAAAAAAAAABBBBBBBB",
"++++++++@@@@@@@@@@@@@@@@################$$$$$$$$$$$$$$$$%%%%%%%%%%%%%%%%&&&&&&&&&&&&&&&&****************================----------------;;;;;;;;;;;;;;;;>>>>>>>>>>>>>>>>,,,,,,,,,,,,,,,,''''''''''''''''))))))))))))))))!!!!!!!!!!!!!!!!~~~~~~~~~~~~~~~~{{{{{{{{{{{{{{{{]]]]]]]]]]]]]]]]^^^^^^^^^^^^^^^^////////////////((((((((((((((((________________::::::::::::::::<<<<<<<<<<<<<<<<[[[[[[[[[[[[[[[[}}}}}}}}}}}}}}}}||||||||||||||||1111111111111111222222222222222233333333333333334444444444444444555555555555555566666666666666667777777777777777888888888888888899999999999999990000000000000000aaaaaaaaaaaaaaaabbbbbbbbbbbbbbbbccccccccccccccccddddddddddddddddeeeeeeeeeeeeeeeeffffffffffffffffgggggggggggggggghhhhhhhhhhhhhhhhiiiiiiiiiiiiiiiijjjjjjjjjjjjjjjjkkkkkkkkkkkkkkkkllllllllllllllllmmmmmmmmmmmmmmmmnnnnnnnnnnnnnnnnooooooooooooooooppppppppppppppppqqqqqqqqqqqqqqqqrrrrrrrrrrrrrrrrssssssssssssssssttttttttttttttttuuuuuuuuuuuuuuuuvvvvvvvvvvvvvvvvwwwwwwwwwwwwwwwwxxxxxxxxxxxxxxxxyyyyyyyyyyyyyyyyzzzzzzzzzzzzzzzzAAAAAAAAAAAAAAAABBBBBBBB",
"++++++++@@@@@@@@@@@@@@@@################$$$$$$$$$$$$$$$$%%%%%%%%%%%%%%%%&&&&&&&&&&&&&&&&****************================----------------;;;;;;;;;;;;;;;;>>>>>>>>>>>>>>>>,,,,,,,,,,,,,,,,''''''''''''''''))))))))))))))))!!!!!!!!!!!!!!!!~~~~~~~~~~~~~~~~{{{{{{{{{{{{{{{{]]]]]]]]]]]]]]]]^^^^^^^^^^^^^^^^////////////////((((((((((((((((________________::::::::::::::::<<<<<<<<<<<<<<<<[[[[[[[[[[[[[[[[}}}}}}}}}}}}}}}}||||||||||||||||1111111111111111222222222222222233333333333333334444444444444444555555555555555566666666666666667777777777777777888888888888888899999999999999990000000000000000aaaaaaaaaaaaaaaabbbbbbbbbbbbbbbbccccccccccccccccddddddddddddddddeeeeeeeeeeeeeeeeffffffffffffffffgggggggggggggggghhhhhhhhhhhhhhhhiiiiiiiiiiiiiiiijjjjjjjjjjjjjjjjkkkkkkkkkkkkkkkkllllllllllllllllmmmmmmmmmmmmmmmmnnnnnnnnnnnnnnnnooooooooooooooooppppppppppppppppqqqqqqqqqqqqqqqqrrrrrrrrrrrrrrrrssssssssssssssssttttttttttttttttuuuuuuuuuuuuuuuuvvvvvvvvvvvvvvvvwwwwwwwwwwwwwwwwxxxxxxxxxxxxxxxxyyyyyyyyyyyyyyyyzzzzzzzzzzzzzzzzAAAAAAAAAAAAAAAABBBBBBBB",
"++++++++@@@@@@@@@@@@@@@@################$$$$$$$$$$$$$$$$%%%%%%%%%%%%%%%%&&&&&&&&&&&&&&&&****************================----------------;;;;;;;;;;;;;;;;>>>>>>>>>>>>>>>>,,,,,,,,,,,,,,,,''''''''''''''''))))))))))))))))!!!!!!!!!!!!!!!!~~~~~~~~~~~~~~~~{{{{{{{{{{{{{{{{]]]]]]]]]]]]]]]]^^^^^^^^^^^^^^^^////////////////((((((((((((((((________________::::::::::::::::<<<<<<<<<<<<<<<<[[[[[[[[[[[[[[[[}}}}}}}}}}}}}}}}||||||||||||||||1111111111111111222222222222222233333333333333334444444444444444555555555555555566666666666666667777777777777777888888888888888899999999999999990000000000000000aaaaaaaaaaaaaaaabbbbbbbbbbbbbbbbccccccccccccccccddddddddddddddddeeeeeeeeeeeeeeeeffffffffffffffffgggggggggggggggghhhhhhhhhhhhhhhhiiiiiiiiiiiiiiiijjjjjjjjjjjjjjjjkkkkkkkkkkkkkkkkllllllllllllllllmmmmmmmmmmmmmmmmnnnnnnnnnnnnnnnnooooooooooooooooppppppppppppppppqqqqqqqqqqqqqqqqrrrrrrrrrrrrrrrrssssssssssssssssttttttttttttttttuuuuuuuuuuuuuuuuvvvvvvvvvvvvvvvvwwwwwwwwwwwwwwwwxxxxxxxxxxxxxxxxyyyyyyyyyyyyyyyyzzzzzzzzzzzzzzzzAAAAAAAAAAAAAAAABBBBBBBB",
"++++++++@@@@@@@@@@@@@@@@################$$$$$$$$$$$$$$$$%%%%%%%%%%%%%%%%&&&&&&&&&&&&&&&&****************================----------------;;;;;;;;;;;;;;;;>>>>>>>>>>>>>>>>,,,,,,,,,,,,,,,,''''''''''''''''))))))))))))))))!!!!!!!!!!!!!!!!~~~~~~~~~~~~~~~~{{{{{{{{{{{{{{{{]]]]]]]]]]]]]]]]^^^^^^^^^^^^^^^^////////////////((((((((((((((((________________::::::::::::::::<<<<<<<<<<<<<<<<[[[[[[[[[[[[[[[[}}}}}}}}}}}}}}}}||||||||||||||||1111111111111111222222222222222233333333333333334444444444444444555555555555555566666666666666667777777777777777888888888888888899999999999999990000000000000000aaaaaaaaaaaaaaaabbbbbbbbbbbbbbbbccccccccccccccccddddddddddddddddeeeeeeeeeeeeeeeeffffffffffffffffgggggggggggggggghhhhhhhhhhhhhhhhiiiiiiiiiiiiiiiijjjjjjjjjjjjjjjjkkkkkkkkkkkkkkkkllllllllllllllllmmmmmmmmmmmmmmmmnnnnnnnnnnnnnnnnooooooooooooooooppppppppppppppppqqqqqqqqqqqqqqqqrrrrrrrrrrrrrrrrssssssssssssssssttttttttttttttttuuuuuuuuuuuuuuuuvvvvvvvvvvvvvvvvwwwwwwwwwwwwwwwwxxxxxxxxxxxxxxxxyyyyyyyyyyyyyyyyzzzzzzzzzzzzzzzzAAAAAAAAAAAAAAAABBBBBBBB",
"++++++++@@@@@@@@@@@@@@@@################$$$$$$$$$$$$$$$$%%%%%%%%%%%%%%%%&&&&&&&&&&&&&&&&****************================----------------;;;;;;;;;;;;;;;;>>>>>>>>>>>>>>>>,,,,,,,,,,,,,,,,''''''''''''''''))))))))))))))))!!!!!!!!!!!!!!!!~~~~~~~~~~~~~~~~{{{{{{{{{{{{{{{{]]]]]]]]]]]]]]]]^^^^^^^^^^^^^^^^////////////////((((((((((((((((________________::::::::::::::::<<<<<<<<<<<<<<<<[[[[[[[[[[[[[[[[}}}}}}}}}}}}}}}}||||||||||||||||1111111111111111222222222222222233333333333333334444444444444444555555555555555566666666666666667777777777777777888888888888888899999999999999990000000000000000aaaaaaaaaaaaaaaabbbbbbbbbbbbbbbbccccccccccccccccddddddddddddddddeeeeeeeeeeeeeeeeffffffffffffffffgggggggggggggggghhhhhhhhhhhhhhhhiiiiiiiiiiiiiiiijjjjjjjjjjjjjjjjkkkkkkkkkkkkkkkkllllllllllllllllmmmmmmmmmmmmmmmmnnnnnnnnnnnnnnnnooooooooooooooooppppppppppppppppqqqqqqqqqqqqqqqqrrrrrrrrrrrrrrrrssssssssssssssssttttttttttttttttuuuuuuuuuuuuuuuuvvvvvvvvvvvvvvvvwwwwwwwwwwwwwwwwxxxxxxxxxxxxxxxxyyyyyyyyyyyyyyyyzzzzzzzzzzzzzzzzAAAAAAAAAAAAAAAABBBBBBBB",
"++++++++@@@@@@@@@@@@@@@@################$$$$$$$$$$$$$$$$%%%%%%%%%%%%%%%%&&&&&&&&&&&&&&&&****************================----------------;;;;;;;;;;;;;;;;>>>>>>>>>>>>>>>>,,,,,,,,,,,,,,,,''''''''''''''''))))))))))))))))!!!!!!!!!!!!!!!!~~~~~~~~~~~~~~~~{{{{{{{{{{{{{{{{]]]]]]]]]]]]]]]]^^^^^^^^^^^^^^^^////////////////((((((((((((((((________________::::::::::::::::<<<<<<<<<<<<<<<<[[[[[[[[[[[[[[[[}}}}}}}}}}}}}}}}||||||||||||||||1111111111111111222222222222222233333333333333334444444444444444555555555555555566666666666666667777777777777777888888888888888899999999999999990000000000000000aaaaaaaaaaaaaaaabbbbbbbbbbbbbbbbccccccccccccccccddddddddddddddddeeeeeeeeeeeeeeeeffffffffffffffffgggggggggggggggghhhhhhhhhhhhhhhhiiiiiiiiiiiiiiiijjjjjjjjjjjjjjjjkkkkkkkkkkkkkkkkllllllllllllllllmmmmmmmmmmmmmmmmnnnnnnnnnnnnnnnnooooooooooooooooppppppppppppppppqqqqqqqqqqqqqqqqrrrrrrrrrrrrrrrrssssssssssssssssttttttttttttttttuuuuuuuuuuuuuuuuvvvvvvvvvvvvvvvvwwwwwwwwwwwwwwwwxxxxxxxxxxxxxxxxyyyyyyyyyyyyyyyyzzzzzzzzzzzzzzzzAAAAAAAAAAAAAAAABBBBBBBB",
"++++++++@@@@@@@@@@@@@@@@################$$$$$$$$$$$$$$$$%%%%%%%%%%%%%%%%&&&&&&&&&&&&&&&&****************================----------------;;;;;;;;;;;;;;;;>>>>>>>>>>>>>>>>,,,,,,,,,,,,,,,,''''''''''''''''))))))))))))))))!!!!!!!!!!!!!!!!~~~~~~~~~~~~~~~~{{{{{{{{{{{{{{{{]]]]]]]]]]]]]]]]^^^^^^^^^^^^^^^^////////////////((((((((((((((((________________::::::::::::::::<<<<<<<<<<<<<<<<[[[[[[[[[[[[[[[[}}}}}}}}}}}}}}}}||||||||||||||||1111111111111111222222222222222233333333333333334444444444444444555555555555555566666666666666667777777777777777888888888888888899999999999999990000000000000000aaaaaaaaaaaaaaaabbbbbbbbbbbbbbbbccccccccccccccccddddddddddddddddeeeeeeeeeeeeeeeeffffffffffffffffgggggggggggggggghhhhhhhhhhhhhhhhiiiiiiiiiiiiiiiijjjjjjjjjjjjjjjjkkkkkkkkkkkkkkkkllllllllllllllllmmmmmmmmmmmmmmmmnnnnnnnnnnnnnnnnooooooooooooooooppppppppppppppppqqqqqqqqqqqqqqqqrrrrrrrrrrrrrrrrssssssssssssssssttttttttttttttttuuuuuuuuuuuuuuuuvvvvvvvvvvvvvvvvwwwwwwwwwwwwwwwwxxxxxxxxxxxxxxxxyyyyyyyyyyyyyyyyzzzzzzzzzzzzzzzzAAAAAAAAAAAAAAAABBBBBBBB",
"++++++++@@@@@@@@@@@@@@@@################$$$$$$$$$$$$$$$$%%%%%%%%%%%%%%%%&&&&&&&&&&&&&&&&****************================----------------;;;;;;;;;;;;;;;;>>>>>>>>>>>>>>>>,,,,,,,,,,,,,,,,''''''''''''''''))))))))))))))))!!!!!!!!!!!!!!!!~~~~~~~~~~~~~~~~{{{{{{{{{{{{{{{{]]]]]]]]]]]]]]]]^^^^^^^^^^^^^^^^////////////////((((((((((((((((________________::::::::::::::::<<<<<<<<<<<<<<<<[[[[[[[[[[[[[[[[}}}}}}}}}}}}}}}}||||||||||||||||1111111111111111222222222222222233333333333333334444444444444444555555555555555566666666666666667777777777777777888888888888888899999999999999990000000000000000aaaaaaaaaaaaaaaabbbbbbbbbbbbbbbbccccccccccccccccddddddddddddddddeeeeeeeeeeeeeeeeffffffffffffffffgggggggggggggggghhhhhhhhhhhhhhhhiiiiiiiiiiiiiiiijjjjjjjjjjjjjjjjkkkkkkkkkkkkkkkkllllllllllllllllmmmmmmmmmmmmmmmmnnnnnnnnnnnnnnnnooooooooooooooooppppppppppppppppqqqqqqqqqqqqqqqqrrrrrrrrrrrrrrrrssssssssssssssssttttttttttttttttuuuuuuuuuuuuuuuuvvvvvvvvvvvvvvvvwwwwwwwwwwwwwwwwxxxxxxxxxxxxxxxxyyyyyyyyyyyyyyyyzzzzzzzzzzzzzzzzAAAAAAAAAAAAAAAABBBBBBBB",
"++++++++@@@@@@@@@@@@@@@@################$$$$$$$$$$$$$$$$%%%%%%%%%%%%%%%%&&&&&&&&&&&&&&&&****************================----------------;;;;;;;;;;;;;;;;>>>>>>>>>>>>>>>>,,,,,,,,,,,,,,,,''''''''''''''''))))))))))))))))!!!!!!!!!!!!!!!!~~~~~~~~~~~~~~~~{{{{{{{{{{{{{{{{]]]]]]]]]]]]]]]]^^^^^^^^^^^^^^^^////////////////((((((((((((((((________________::::::::::::::::<<<<<<<<<<<<<<<<[[[[[[[[[[[[[[[[}}}}}}}}}}}}}}}}||||||||||||||||1111111111111111222222222222222233333333333333334444444444444444555555555555555566666666666666667777777777777777888888888888888899999999999999990000000000000000aaaaaaaaaaaaaaaabbbbbbbbbbbbbbbbccccccccccccccccddddddddddddddddeeeeeeeeeeeeeeeeffffffffffffffffgggggggggggggggghhhhhhhhhhhhhhhhiiiiiiiiiiiiiiiijjjjjjjjjjjjjjjjkkkkkkkkkkkkkkkkllllllllllllllllmmmmmmmmmmmmmmmmnnnnnnnnnnnnnnnnooooooooooooooooppppppppppppppppqqqqqqqqqqqqqqqqrrrrrrrrrrrrrrrrssssssssssssssssttttttttttttttttuuuuuuuuuuuuuuuuvvvvvvvvvvvvvvvvwwwwwwwwwwwwwwwwxxxxxxxxxxxxxxxxyyyyyyyyyyyyyyyyzzzzzzzzzzzzzzzzAAAAAAAAAAAAAAAABBBBBBBB",
"++++++++@@@@@@@@@@@@@@@@################$$$$$$$$$$$$$$$$%%%%%%%%%%%%%%%%&&&&&&&&&&&&&&&&****************================----------------;;;;;;;;;;;;;;;;>>>>>>>>>>>>>>>>,,,,,,,,,,,,,,,,''''''''''''''''))))))))))))))))!!!!!!!!!!!!!!!!~~~~~~~~~~~~~~~~{{{{{{{{{{{{{{{{]]]]]]]]]]]]]]]]^^^^^^^^^^^^^^^^////////////////((((((((((((((((________________::::::::::::::::<<<<<<<<<<<<<<<<[[[[[[[[[[[[[[[[}}}}}}}}}}}}}}}}||||||||||||||||1111111111111111222222222222222233333333333333334444444444444444555555555555555566666666666666667777777777777777888888888888888899999999999999990000000000000000aaaaaaaaaaaaaaaabbbbbbbbbbbbbbbbccccccccccccccccddddddddddddddddeeeeeeeeeeeeeeeeffffffffffffffffgggggggggggggggghhhhhhhhhhhhhhhhiiiiiiiiiiiiiiiijjjjjjjjjjjjjjjjkkkkkkkkkkkkkkkkllllllllllllllllmmmmmmmmmmmmmmmmnnnnnnnnnnnnnnnnooooooooooooooooppppppppppppppppqqqqqqqqqqqqqqqqrrrrrrrrrrrrrrrrssssssssssssssssttttttttttttttttuuuuuuuuuuuuuuuuvvvvvvvvvvvvvvvvwwwwwwwwwwwwwwwwxxxxxxxxxxxxxxxxyyyyyyyyyyyyyyyyzzzzzzzzzzzzzzzzAAAAAAAAAAAAAAAABBBBBBBB",
"++++++++@@@@@@@@@@@@@@@@################$$$$$$$$$$$$$$$$%%%%%%%%%%%%%%%%&&&&&&&&&&&&&&&&****************================----------------;;;;;;;;;;;;;;;;>>>>>>>>>>>>>>>>,,,,,,,,,,,,,,,,''''''''''''''''))))))))))))))))!!!!!!!!!!!!!!!!~~~~~~~~~~~~~~~~{{{{{{{{{{{{{{{{]]]]]]]]]]]]]]]]^^^^^^^^^^^^^^^^////////////////((((((((((((((((________________::::::::::::::::<<<<<<<<<<<<<<<<[[[[[[[[[[[[[[[[}}}}}}}}}}}}}}}}||||||||||||||||1111111111111111222222222222222233333333333333334444444444444444555555555555555566666666666666667777777777777777888888888888888899999999999999990000000000000000aaaaaaaaaaaaaaaabbbbbbbbbbbbbbbbccccccccccccccccddddddddddddddddeeeeeeeeeeeeeeeeffffffffffffffffgggggggggggggggghhhhhhhhhhhhhhhhiiiiiiiiiiiiiiiijjjjjjjjjjjjjjjjkkkkkkkkkkkkkkkkllllllllllllllllmmmmmmmmmmmmmmmmnnnnnnnnnnnnnnnnooooooooooooooooppppppppppppppppqqqqqqqqqqqqqqqqrrrrrrrrrrrrrrrrssssssssssssssssttttttttttttttttuuuuuuuuuuuuuuuuvvvvvvvvvvvvvvvvwwwwwwwwwwwwwwwwxxxxxxxxxxxxxxxxyyyyyyyyyyyyyyyyzzzzzzzzzzzzzzzzAAAAAAAAAAAAAAAABBBBBBBB",
"                                                                                                                                                                                                                                                                                                                                                                                                                                                                                                                                                                                                                                                                                                                                                                                                                                                                                                                                                                                                                                                                ",
"                                                                                                                                                                                                                                                                                                                                                                                                                                                                                                                                                                                                                                                                                                                                                                                                                                                                                                                                                                                                                                                                ",
"                                                                                                                                                                                                                                                                                                                                                                                                                                                                                                                                                                                                                                                                                                                                                                                                                                                                                                                                                                                                                                                                ",
"                                                                                                                                                                                                                                                                                                                                                                                                                                                                                                                                                                                                                                                                                                                                                                                                                                                                                                                                                                                                                                                                "};
