/* XPM */
static char * maximize_pressed_xpm[] = {
"32 48 6 1",
" 	c None",
".	c #393C39",
"+	c #B2B2B2",
"@	c #D8D8D8",
"#	c #FFFFFF",
"$	c #000000",
"                                ",
"                                ",
"                                ",
"                                ",
"                                ",
"                                ",
"                                ",
"                                ",
"                                ",
"                                ",
"                                ",
"                                ",
"................................",
"................................",
"..++++++++++++++++++++++++++@@##",
"..++++++++++++++++++++++++++@@##",
"..++@@@@@@@@@@@@@@@@@@@@@@@@@@##",
"..++@@@@@@@@@@@@@@@@@@@@@@@@@@##",
"..++@@@@$$$$$$$$$$$$$$$$$$@@@@##",
"..++@@@@$$$$$$$$$$$$$$$$$$@@@@##",
"..++@@@@$$$$$$$$$$$$$$$$$$@@@@##",
"..++@@@@$$$$$$$$$$$$$$$$$$@@@@##",
"..++@@@@$$@@@@@@@@@@@@@@$$@@@@##",
"..++@@@@$$@@@@@@@@@@@@@@$$@@@@##",
"..++@@@@$$@@@@@@@@@@@@@@$$@@@@##",
"..++@@@@$$@@@@@@@@@@@@@@$$@@@@##",
"..++@@@@$$@@@@@@@@@@@@@@$$@@@@##",
"..++@@@@$$@@@@@@@@@@@@@@$$@@@@##",
"..++@@@@$$@@@@@@@@@@@@@@$$@@@@##",
"..++@@@@$$@@@@@@@@@@@@@@$$@@@@##",
"..++@@@@$$@@@@@@@@@@@@@@$$@@@@##",
"..++@@@@$$@@@@@@@@@@@@@@$$@@@@##",
"..++@@@@$$@@@@@@@@@@@@@@$$@@@@##",
"..++@@@@$$@@@@@@@@@@@@@@$$@@@@##",
"..++@@@@$$$$$$$$$$$$$$$$$$@@@@##",
"..++@@@@$$$$$$$$$$$$$$$$$$@@@@##",
"..@@@@@@@@@@@@@@@@@@@@@@@@@@@@##",
"..@@@@@@@@@@@@@@@@@@@@@@@@@@@@##",
"..##############################",
"..##############################",
"                                ",
"                                ",
"                                ",
"                                ",
"                                ",
"                                ",
"                                ",
"                                "};
